/* XPM */
static char *_2fa15f4554e402691b4b475f9a2ab59axvsgYG29BduuJJv[] = {
/* columns rows colors chars-per-pixel */
"672 672 2 1 ",
"  c #010300",
". c #2121FF",
/* pixels */
"                                                                                                                                                                                                                                                                                                                                                                                                                                                                                                                                                                                                                                                                                                ",
"                                                                                                                                                                                                                                                                                                                                                                                                                                                                                                                                                                                                                                                                                                ",
"                                                                                                                                                                                                                                                                                                                                                                                                                                                                                                                                                                                                                                                                                                ",
"                                                                                                                                                                                                                                                                                                                                                                                                                                                                                                                                                                                                                                                                                                ",
"                                                                                                                                                                                                                                                                                                                                                                                                                                                                                                                                                                                                                                                                                                ",
"                                                                                                                                                                                                                                                                                                                                                                                                                                                                                                                                                                                                                                                                                                ",
"                                                                                                                                                                                                                                                                                                                                                                                                                                                                                                                                                                                                                                                                                                ",
"                                                                                                                                                                                                                                                                                                                                                                                                                                                                                                                                                                                                                                                                                                ",
"                                                                                                                                                                                                                                                                                                                                                                                                                                                                                                                                                                                                                                                                                                ",
"                                                                                                                                                                                                                                                                                                                                                                                                                                                                                                                                                                                                                                                                                                ",
"                                                                                                                                                                                                                                                                                                                                                                                                                                                                                                                                                                                                                                                                                                ",
"                                                                                                                                                                                                                                                                                                                                                                                                                                                                                                                                                                                                                                                                                                ",
"                                                                                                                                                                                                                                                                                                                                                                                                                                                                                                                                                                                                                                                                                                ",
"                                                                                                                                                                                                                                                                                                                                                                                                                                                                                                                                                                                                                                                                                                ",
"                                                                                                                                                                                                                                                                                                                                                                                                                                                                                                                                                                                                                                                                                                ",
"                                                                                                                                                                                                                                                                                                                                                                                                                                                                                                                                                                                                                                                                                                ",
"                                                                                                                                                                                                                                                                                                                                                                                                                                                                                                                                                                                                                                                                                                ",
"                                                                                                                                                                                                                                                                                                                                                                                                                                                                                                                                                                                                                                                                                                ",
"                                                                                                                                                                                                                                                                                                                                                                                                                                                                                                                                                                                                                                                                                                ",
"                                                                                                                                                                                                                                                                                                                                                                                                                                                                                                                                                                                                                                                                                                ",
"                                                                                                                                                                                                                                                                                                                                                                                                                                                                                                                                                                                                                                                                                                ",
"                                                                                                                                                                                                                                                                                                                                                                                                                                                                                                                                                                                                                                                                                                ",
"                                                                                                                                                                                                                                                                                                                                                                                                                                                                                                                                                                                                                                                                                                ",
"                                                                                                                                                                                                                                                                                                                                                                                                                                                                                                                                                                                                                                                                                                ",
"                                                                                                                                                                                                                                                                                                                                                                                                                                                                                                                                                                                                                                                                                                ",
"                                                                                                                                                                                                                                                                                                                                                                                                                                                                                                                                                                                                                                                                                                ",
"                                                                                                                                                                                                                                                                                                                                                                                                                                                                                                                                                                                                                                                                                                ",
"                                                                                                                                                                                                                                                                                                                                                                                                                                                                                                                                                                                                                                                                                                ",
"                            .........................................................................................................................................................................................................................................................................................................                       .........................................................................................................................................................................................................................................................................................................                           ",
"                            .........................................................................................................................................................................................................................................................................................................                       .........................................................................................................................................................................................................................................................................................................                           ",
"                            .........................................................................................................................................................................................................................................................................................................                       .........................................................................................................................................................................................................................................................................................................                           ",
"                            .........................................................................................................................................................................................................................................................................................................                       .........................................................................................................................................................................................................................................................................................................                           ",
"                            ....                                                                                                                                                                                                                                                                                                 ....                       ....                                                                                                                                                                                                                                                                                                 ....                           ",
"                            ....                                                                                                                                                                                                                                                                                                 ....                       ....                                                                                                                                                                                                                                                                                                 ....                           ",
"                            ....                                                                                                                                                                                                                                                                                                 ....                       ....                                                                                                                                                                                                                                                                                                 ....                           ",
"                            ....                                                                                                                                                                                                                                                                                                 ....                       ....                                                                                                                                                                                                                                                                                                 ....                           ",
"                            ....                                                                                                                                                                                                                                                                                                 ....                       ....                                                                                                                                                                                                                                                                                                 ....                           ",
"                            ....                                                                                                                                                                                                                                                                                                 ....                       ....                                                                                                                                                                                                                                                                                                 ....                           ",
"                            ....                                                                                                                                                                                                                                                                                                 ....                       ....                                                                                                                                                                                                                                                                                                 ....                           ",
"                            ....                                                                                                                                                                                                                                                                                                 ....                       ....                                                                                                                                                                                                                                                                                                 ....                           ",
"                            ....                                                                                                                                                                                                                                                                                                 ....                       ....                                                                                                                                                                                                                                                                                                 ....                           ",
"                            ....                                                                                                                                                                                                                                                                                                 ....                       ....                                                                                                                                                                                                                                                                                                 ....                           ",
"                            ....                                                                                                                                                                                                                                                                                                 ....                       ....                                                                                                                                                                                                                                                                                                 ....                           ",
"                            ....                                                                                                                                                                                                                                                                                                 ....                       ....                                                                                                                                                                                                                                                                                                 ....                           ",
"                            ....                                                                                                                                                                                                                                                                                                 ....                       ....                                                                                                                                                                                                                                                                                                 ....                           ",
"                            ....                                                                                                                                                                                                                                                                                                 ....                       ....                                                                                                                                                                                                                                                                                                 ....                           ",
"                            ....                                                                                                                                                                                                                                                                                                 ....                       ....                                                                                                                                                                                                                                                                                                 ....                           ",
"                            ....                                                                                                                                                                                                                                                                                                 ....                       ....                                                                                                                                                                                                                                                                                                 ....                           ",
"                            ....                                                                                                                                                                                                                                                                                                 ....                       ....                                                                                                                                                                                                                                                                                                 ....                           ",
"                            ....                                                                                                                                                                                                                                                                                                 ....                       ....                                                                                                                                                                                                                                                                                                 ....                           ",
"                            ....                                                                                                                                                                                                                                                                                                 ....                       ....                                                                                                                                                                                                                                                                                                 ....                           ",
"                            ....                                                                                                                                                                                                                                                                                                 ....                       ....                                                                                                                                                                                                                                                                                                 ....                           ",
"                            ....                                                                                                                                                                                                                                                                                                 ....                       ....                                                                                                                                                                                                                                                                                                 ....                           ",
"                            ....                                                                                                                                                                                                                                                                                                 ....                       ....                                                                                                                                                                                                                                                                                                 ....                           ",
"                            ....                                                                                                                                                                                                                                                                                                 ....                       ....                                                                                                                                                                                                                                                                                                 ....                           ",
"                            ....                                                                                                                                                                                                                                                                                                 ....                       ....                                                                                                                                                                                                                                                                                                 ....                           ",
"                            ....                                                                                                                                                                                                                                                                                                 ....                       ....                                                                                                                                                                                                                                                                                                 ....                           ",
"                            ....                                                                                                                                                                                                                                                                                                 ....                       ....                                                                                                                                                                                                                                                                                                 ....                           ",
"                            ....                                                                                                                                                                                                                                                                                                 ....                       ....                                                                                                                                                                                                                                                                                                 ....                           ",
"                            ....                                                                                                                                                                                                                                                                                                 ....                       ....                                                                                                                                                                                                                                                                                                 ....                           ",
"                            ....                                                                                                                                                                                                                                                                                                 ....                       ....                                                                                                                                                                                                                                                                                                 ....                           ",
"                            ....                                                                                                                                                                                                                                                                                                 ....                       ....                                                                                                                                                                                                                                                                                                 ....                           ",
"                            ....                                                                                                                                                                                                                                                                                                 ....                       ....                                                                                                                                                                                                                                                                                                 ....                           ",
"                            ....                                                                                                                                                                                                                                                                                                 ....                       ....                                                                                                                                                                                                                                                                                                 ....                           ",
"                            ....                                                                                                                                                                                                                                                                                                 ....                       ....                                                                                                                                                                                                                                                                                                 ....                           ",
"                            ....                                 ...............................................................................................                                 ...............................................................................................                                 ....                       ....                                 ...............................................................................................                                 ...............................................................................................                                 ....                           ",
"                            ....                                 ...............................................................................................                                 ...............................................................................................                                 ....                       ....                                 ...............................................................................................                                 ...............................................................................................                                 ....                           ",
"                            ....                                 ...............................................................................................                                 ...............................................................................................                                 ....                       ....                                 ...............................................................................................                                 ...............................................................................................                                 ....                           ",
"                            ....                                 ...............................................................................................                                 ...............................................................................................                                 ....                       ....                                 ...............................................................................................                                 ...............................................................................................                                 ....                           ",
"                            ....                                 ....                                                                                       ....                                 ....                                                                                       ....                                 ....                       ....                                 ....                                                                                       ....                                 ....                                                                                       ....                                 ....                           ",
"                            ....                                 ....                                                                                       ....                                 ....                                                                                       ....                                 ....                       ....                                 ....                                                                                       ....                                 ....                                                                                       ....                                 ....                           ",
"                            ....                                 ....                                                                                       ....                                 ....                                                                                       ....                                 ....                       ....                                 ....                                                                                       ....                                 ....                                                                                       ....                                 ....                           ",
"                            ....                                 ....                                                                                       ....                                 ....                                                                                       ....                                 ....                       ....                                 ....                                                                                       ....                                 ....                                                                                       ....                                 ....                           ",
"                            ....                                 ....                                                                                       ....                                 ....                                                                                       ....                                 ....                       ....                                 ....                                                                                       ....                                 ....                                                                                       ....                                 ....                           ",
"                            ....                                 ....                                                                                       ....                                 ....                                                                                       ....                                 ....                       ....                                 ....                                                                                       ....                                 ....                                                                                       ....                                 ....                           ",
"                            ....                                 ....                                                                                       ....                                 ....                                                                                       ....                                 ....                       ....                                 ....                                                                                       ....                                 ....                                                                                       ....                                 ....                           ",
"                            ....                                 ....                                                                                       ....                                 ....                                                                                       ....                                 ....                       ....                                 ....                                                                                       ....                                 ....                                                                                       ....                                 ....                           ",
"                            ....                                 ....                                                                                       ....                                 ....                                                                                       ....                                 ....                       ....                                 ....                                                                                       ....                                 ....                                                                                       ....                                 ....                           ",
"                            ....                                 ....                                                                                       ....                                 ....                                                                                       ....                                 ....                       ....                                 ....                                                                                       ....                                 ....                                                                                       ....                                 ....                           ",
"                            ....                                 ....                                                                                       ....                                 ....                                                                                       ....                                 ....                       ....                                 ....                                                                                       ....                                 ....                                                                                       ....                                 ....                           ",
"                            ....                                 ....                                                                                       ....                                 ....                                                                                       ....                                 ....                       ....                                 ....                                                                                       ....                                 ....                                                                                       ....                                 ....                           ",
"                            ....                                 ....                                                                                       ....                                 ....                                                                                       ....                                 ....                       ....                                 ....                                                                                       ....                                 ....                                                                                       ....                                 ....                           ",
"                            ....                                 ....                                                                                       ....                                 ....                                                                                       ....                                 ....                       ....                                 ....                                                                                       ....                                 ....                                                                                       ....                                 ....                           ",
"                            ....                                 ....                                                                                       ....                                 ....                                                                                       ....                                 ....                       ....                                 ....                                                                                       ....                                 ....                                                                                       ....                                 ....                           ",
"                            ....                                 ....                                                                                       ....                                 ....                                                                                       ....                                 ....                       ....                                 ....                                                                                       ....                                 ....                                                                                       ....                                 ....                           ",
"                            ....                                 ....                                                                                       ....                                 ....                                                                                       ....                                 ....                       ....                                 ....                                                                                       ....                                 ....                                                                                       ....                                 ....                           ",
"                            ....                                 ....                                                                                       ....                                 ....                                                                                       ....                                 ....                       ....                                 ....                                                                                       ....                                 ....                                                                                       ....                                 ....                           ",
"                            ....                                 ....                                                                                       ....                                 ....                                                                                       ....                                 ....                       ....                                 ....                                                                                       ....                                 ....                                                                                       ....                                 ....                           ",
"                            ....                                 ....                                                                                       ....                                 ....                                                                                       ....                                 ....                       ....                                 ....                                                                                       ....                                 ....                                                                                       ....                                 ....                           ",
"                            ....                                 ....                                                                                       ....                                 ....                                                                                       ....                                 ....                       ....                                 ....                                                                                       ....                                 ....                                                                                       ....                                 ....                           ",
"                            ....                                 ....                                                                                       ....                                 ....                                                                                       ....                                 ....                       ....                                 ....                                                                                       ....                                 ....                                                                                       ....                                 ....                           ",
"                            ....                                 ....                                                                                       ....                                 ....                                                                                       ....                                 ....                       ....                                 ....                                                                                       ....                                 ....                                                                                       ....                                 ....                           ",
"                            ....                                 ....                                                                                       ....                                 ....                                                                                       ....                                 ....                       ....                                 ....                                                                                       ....                                 ....                                                                                       ....                                 ....                           ",
"                            ....                                 ....                                                                                       ....                                 ....                                                                                       ....                                 ....                       ....                                 ....                                                                                       ....                                 ....                                                                                       ....                                 ....                           ",
"                            ....                                 ....                                                                                       ....                                 ....                                                                                       ....                                 ....                       ....                                 ....                                                                                       ....                                 ....                                                                                       ....                                 ....                           ",
"                            ....                                 ....                                                                                       ....                                 ....                                                                                       ....                                 ....                       ....                                 ....                                                                                       ....                                 ....                                                                                       ....                                 ....                           ",
"                            ....                                 ....                                                                                       ....                                 ....                                                                                       ....                                 ....                       ....                                 ....                                                                                       ....                                 ....                                                                                       ....                                 ....                           ",
"                            ....                                 ....                                                                                       ....                                 ....                                                                                       ....                                 ....                       ....                                 ....                                                                                       ....                                 ....                                                                                       ....                                 ....                           ",
"                            ....                                 ....                                                                                       ....                                 ....                                                                                       ....                                 ....                       ....                                 ....                                                                                       ....                                 ....                                                                                       ....                                 ....                           ",
"                            ....                                 ....                                                                                       ....                                 ....                                                                                       ....                                 ....                       ....                                 ....                                                                                       ....                                 ....                                                                                       ....                                 ....                           ",
"                            ....                                 ....                                                                                       ....                                 ....                                                                                       ....                                 ....                       ....                                 ....                                                                                       ....                                 ....                                                                                       ....                                 ....                           ",
"                            ....                                 ....                                                                                       ....                                 ....                                                                                       ....                                 ....                       ....                                 ....                                                                                       ....                                 ....                                                                                       ....                                 ....                           ",
"                            ....                                 ....                                                                                       ....                                 ....                                                                                       ....                                 ....                       ....                                 ....                                                                                       ....                                 ....                                                                                       ....                                 ....                           ",
"                            ....                                 ....                                                                                       ....                                 ....                                                                                       ....                                 ....                       ....                                 ....                                                                                       ....                                 ....                                                                                       ....                                 ....                           ",
"                            ....                                 ....                                                                                       ....                                 ....                                                                                       ....                                 ....                       ....                                 ....                                                                                       ....                                 ....                                                                                       ....                                 ....                           ",
"                            ....                                 ....                                                                                       ....                                 ....                                                                                       ....                                 ....                       ....                                 ....                                                                                       ....                                 ....                                                                                       ....                                 ....                           ",
"                            ....                                 ....                                                                                       ....                                 ....                                                                                       ....                                 ....                       ....                                 ....                                                                                       ....                                 ....                                                                                       ....                                 ....                           ",
"                            ....                                 ....                                                                                       ....                                 ....                                                                                       ....                                 ....                       ....                                 ....                                                                                       ....                                 ....                                                                                       ....                                 ....                           ",
"                            ....                                 ....                                                                                       ....                                 ....                                                                                       ....                                 ....                       ....                                 ....                                                                                       ....                                 ....                                                                                       ....                                 ....                           ",
"                            ....                                 ....                                                                                       ....                                 ....                                                                                       ....                                 ....                       ....                                 ....                                                                                       ....                                 ....                                                                                       ....                                 ....                           ",
"                            ....                                 ....                                                                                       ....                                 ....                                                                                       ....                                 ....                       ....                                 ....                                                                                       ....                                 ....                                                                                       ....                                 ....                           ",
"                            ....                                 ....                                                                                       ....                                 ....                                                                                       ....                                 ....                       ....                                 ....                                                                                       ....                                 ....                                                                                       ....                                 ....                           ",
"                            ....                                 ....                                                                                       ....                                 ....                                                                                       ....                                 ....                       ....                                 ....                                                                                       ....                                 ....                                                                                       ....                                 ....                           ",
"                            ....                                 ....                                                                                       ....                                 ....                                                                                       ....                                 ....                       ....                                 ....                                                                                       ....                                 ....                                                                                       ....                                 ....                           ",
"                            ....                                 ....                                                                                       ....                                 ....                                                                                       ....                                 ....                       ....                                 ....                                                                                       ....                                 ....                                                                                       ....                                 ....                           ",
"                            ....                                 ....                                                                                       ....                                 ....                                                                                       ....                                 ....                       ....                                 ....                                                                                       ....                                 ....                                                                                       ....                                 ....                           ",
"                            ....                                 ....                                                                                       ....                                 ....                                                                                       ....                                 ....                       ....                                 ....                                                                                       ....                                 ....                                                                                       ....                                 ....                           ",
"                            ....                                 ....                                                                                       ....                                 ....                                                                                       ....                                 ....                       ....                                 ....                                                                                       ....                                 ....                                                                                       ....                                 ....                           ",
"                            ....                                 ....                                                                                       ....                                 ....                                                                                       ....                                 ....                       ....                                 ....                                                                                       ....                                 ....                                                                                       ....                                 ....                           ",
"                            ....                                 ....                                                                                       ....                                 ....                                                                                       ....                                 ....                       ....                                 ....                                                                                       ....                                 ....                                                                                       ....                                 ....                           ",
"                            ....                                 ....                                                                                       ....                                 ....                                                                                       ....                                 ....                       ....                                 ....                                                                                       ....                                 ....                                                                                       ....                                 ....                           ",
"                            ....                                 ....                                                                                       ....                                 ....                                                                                       ....                                 ....                       ....                                 ....                                                                                       ....                                 ....                                                                                       ....                                 ....                           ",
"                            ....                                 ....                                                                                       ....                                 ....                                                                                       ....                                 ....                       ....                                 ....                                                                                       ....                                 ....                                                                                       ....                                 ....                           ",
"                            ....                                 ....                                                                                       ....                                 ....                                                                                       ....                                 ....                       ....                                 ....                                                                                       ....                                 ....                                                                                       ....                                 ....                           ",
"                            ....                                 ...............................................................................................                                 ...............................................................................................                                 ...............................                                 ...............................................................................................                                 ...............................................................................................                                 ....                           ",
"                            ....                                 ...............................................................................................                                 ...............................................................................................                                 ...............................                                 ...............................................................................................                                 ...............................................................................................                                 ....                           ",
"                            ....                                 ...............................................................................................                                 ...............................................................................................                                 ...............................                                 ...............................................................................................                                 ...............................................................................................                                 ....                           ",
"                            ....                                 ...............................................................................................                                 ...............................................................................................                                 ...............................                                 ...............................................................................................                                 ...............................................................................................                                 ....                           ",
"                            ....                                                                                                                                                                                                                                                                                                                                                                                                                                                                                                                                                                                                                                 ....                           ",
"                            ....                                                                                                                                                                                                                                                                                                                                                                                                                                                                                                                                                                                                                                 ....                           ",
"                            ....                                                                                                                                                                                                                                                                                                                                                                                                                                                                                                                                                                                                                                 ....                           ",
"                            ....                                                                                                                                                                                                                                                                                                                                                                                                                                                                                                                                                                                                                                 ....                           ",
"                            ....                                                                                                                                                                                                                                                                                                                                                                                                                                                                                                                                                                                                                                 ....                           ",
"                            ....                                                                                                                                                                                                                                                                                                                                                                                                                                                                                                                                                                                                                                 ....                           ",
"                            ....                                                                                                                                                                                                                                                                                                                                                                                                                                                                                                                                                                                                                                 ....                           ",
"                            ....                                                                                                                                                                                                                                                                                                                                                                                                                                                                                                                                                                                                                                 ....                           ",
"                            ....                                                                                                                                                                                                                                                                                                                                                                                                                                                                                                                                                                                                                                 ....                           ",
"                            ....                                                                                                                                                                                                                                                                                                                                                                                                                                                                                                                                                                                                                                 ....                           ",
"                            ....                                                                                                                                                                                                                                                                                                                                                                                                                                                                                                                                                                                                                                 ....                           ",
"                            ....                                                                                                                                                                                                                                                                                                                                                                                                                                                                                                                                                                                                                                 ....                           ",
"                            ....                                                                                                                                                                                                                                                                                                                                                                                                                                                                                                                                                                                                                                 ....                           ",
"                            ....                                                                                                                                                                                                                                                                                                                                                                                                                                                                                                                                                                                                                                 ....                           ",
"                            ....                                                                                                                                                                                                                                                                                                                                                                                                                                                                                                                                                                                                                                 ....                           ",
"                            ....                                                                                                                                                                                                                                                                                                                                                                                                                                                                                                                                                                                                                                 ....                           ",
"                            ....                                                                                                                                                                                                                                                                                                                                                                                                                                                                                                                                                                                                                                 ....                           ",
"                            ....                                                                                                                                                                                                                                                                                                                                                                                                                                                                                                                                                                                                                                 ....                           ",
"                            ....                                                                                                                                                                                                                                                                                                                                                                                                                                                                                                                                                                                                                                 ....                           ",
"                            ....                                                                                                                                                                                                                                                                                                                                                                                                                                                                                                                                                                                                                                 ....                           ",
"                            ....                                                                                                                                                                                                                                                                                                                                                                                                                                                                                                                                                                                                                                 ....                           ",
"                            ....                                                                                                                                                                                                                                                                                                                                                                                                                                                                                                                                                                                                                                 ....                           ",
"                            ....                                                                                                                                                                                                                                                                                                                                                                                                                                                                                                                                                                                                                                 ....                           ",
"                            ....                                                                                                                                                                                                                                                                                                                                                                                                                                                                                                                                                                                                                                 ....                           ",
"                            ....                                                                                                                                                                                                                                                                                                                                                                                                                                                                                                                                                                                                                                 ....                           ",
"                            ....                                                                                                                                                                                                                                                                                                                                                                                                                                                                                                                                                                                                                                 ....                           ",
"                            ....                                                                                                                                                                                                                                                                                                                                                                                                                                                                                                                                                                                                                                 ....                           ",
"                            ....                                                                                                                                                                                                                                                                                                                                                                                                                                                                                                                                                                                                                                 ....                           ",
"                            ....                                                                                                                                                                                                                                                                                                                                                                                                                                                                                                                                                                                                                                 ....                           ",
"                            ....                                                                                                                                                                                                                                                                                                                                                                                                                                                                                                                                                                                                                                 ....                           ",
"                            ....                                                                                                                                                                                                                                                                                                                                                                                                                                                                                                                                                                                                                                 ....                           ",
"                            ....                                                                                                                                                                                                                                                                                                                                                                                                                                                                                                                                                                                                                                 ....                           ",
"                            ....                                                                                                                                                                                                                                                                                                                                                                                                                                                                                                                                                                                                                                 ....                           ",
"                            ....                                 ...............................................................................................                                 ...............................                                                                                                                                                                                                                                 ...............................                                 ...............................................................................................                                 ....                           ",
"                            ....                                 ...............................................................................................                                 ...............................                                                                                                 ...............................                                                                                                 ...............................                                 ...............................................................................................                                 ....                           ",
"                            ....                                 ...............................................................................................                                 ...............................                                                                                                 ...............................                                                                                                 ...............................                                 ...............................................................................................                                 ....                           ",
"                            ....                                 ...............................................................................................                                 ...............................                                                                                                 ...............................                                                                                                 ...............................                                 ...............................................................................................                                 ....                           ",
"                            ....                                 ....                                                                                       ....                                 ....                       ....                                                                                                 ...............................                                                                                                 ....                       ....                                 ....                                                                                       ....                                 ....                           ",
"                            ....                                 ....                                                                                       ....                                 ....                       ....                                                                                                 ....                       ....                                                                                                 ....                       ....                                 ....                                                                                       ....                                 ....                           ",
"                            ....                                 ....                                                                                       ....                                 ....                       ....                                                                                                 ....                       ....                                                                                                 ....                       ....                                 ....                                                                                       ....                                 ....                           ",
"                            ....                                 ....                                                                                       ....                                 ....                       ....                                                                                                 ....                       ....                                                                                                 ....                       ....                                 ....                                                                                       ....                                 ....                           ",
"                            ....                                 ....                                                                                       ....                                 ....                       ....                                                                                                 ....                       ....                                                                                                 ....                       ....                                 ....                                                                                       ....                                 ....                           ",
"                            ....                                 ....                                                                                       ....                                 ....                       ....                                                                                                 ....                       ....                                                                                                 ....                       ....                                 ....                                                                                       ....                                 ....                           ",
"                            ....                                 ....                                                                                       ....                                 ....                       ....                                                                                                 ....                       ....                                                                                                 ....                       ....                                 ....                                                                                       ....                                 ....                           ",
"                            ....                                 ....                                                                                       ....                                 ....                       ....                                                                                                 ....                       ....                                                                                                 ....                       ....                                 ....                                                                                       ....                                 ....                           ",
"                            ....                                 ....                                                                                       ....                                 ....                       ....                                                                                                 ....                       ....                                                                                                 ....                       ....                                 ....                                                                                       ....                                 ....                           ",
"                            ....                                 ....                                                                                       ....                                 ....                       ....                                                                                                 ....                       ....                                                                                                 ....                       ....                                 ....                                                                                       ....                                 ....                           ",
"                            ....                                 ....                                                                                       ....                                 ....                       ....                                                                                                 ....                       ....                                                                                                 ....                       ....                                 ....                                                                                       ....                                 ....                           ",
"                            ....                                 ....                                                                                       ....                                 ....                       ....                                                                                                 ....                       ....                                                                                                 ....                       ....                                 ....                                                                                       ....                                 ....                           ",
"                            ....                                 ....                                                                                       ....                                 ....                       ....                                                                                                 ....                       ....                                                                                                 ....                       ....                                 ....                                                                                       ....                                 ....                           ",
"                            ....                                 ....                                                                                       ....                                 ....                       ....                                                                                                 ....                       ....                                                                                                 ....                       ....                                 ....                                                                                       ....                                 ....                           ",
"                            ....                                 ....                                                                                       ....                                 ....                       ....                                                                                                 ....                       ....                                                                                                 ....                       ....                                 ....                                                                                       ....                                 ....                           ",
"                            ....                                 ....                                                                                       ....                                 ....                       ....                                                                                                 ....                       ....                                                                                                 ....                       ....                                 ....                                                                                       ....                                 ....                           ",
"                            ....                                 ....                                                                                       ....                                 ....                       ....                                                                                                 ....                       ....                                                                                                 ....                       ....                                 ....                                                                                       ....                                 ....                           ",
"                            ....                                 ....                                                                                       ....                                 ....                       ....                                                                                                 ....                       ....                                                                                                 ....                       ....                                 ....                                                                                       ....                                 ....                           ",
"                            ....                                 ....                                                                                       ....                                 ....                       ....                                                                                                 ....                       ....                                                                                                 ....                       ....                                 ....                                                                                       ....                                 ....                           ",
"                            ....                                 ....                                                                                       ....                                 ....                       ....                                                                                                 ....                       ....                                                                                                 ....                       ....                                 ....                                                                                       ....                                 ....                           ",
"                            ....                                 ....                                                                                       ....                                 ....                       ....                                                                                                 ....                       ....                                                                                                 ....                       ....                                 ....                                                                                       ....                                 ....                           ",
"                            ....                                 ....                                                                                       ....                                 ....                       ....                                                                                                 ....                       ....                                                                                                 ....                       ....                                 ....                                                                                       ....                                 ....                           ",
"                            ....                                 ....                                                                                       ....                                 ....                       ....                                                                                                 ....                       ....                                                                                                 ....                       ....                                 ....                                                                                       ....                                 ....                           ",
"                            ....                                 ....                                                                                       ....                                 ....                       ....                                                                                                 ....                       ....                                                                                                 ....                       ....                                 ....                                                                                       ....                                 ....                           ",
"                            ....                                 ....                                                                                       ....                                 ....                       ....                                                                                                 ....                       ....                                                                                                 ....                       ....                                 ....                                                                                       ....                                 ....                           ",
"                            ....                                 ....                                                                                       ....                                 ....                       ....                                                                                                 ....                       ....                                                                                                 ....                       ....                                 ....                                                                                       ....                                 ....                           ",
"                            ....                                 ....                                                                                       ....                                 ....                       ....                                                                                                 ....                       ....                                                                                                 ....                       ....                                 ....                                                                                       ....                                 ....                           ",
"                            ....                                 ....                                                                                       ....                                 ....                       ....                                                                                                 ....                       ....                                                                                                 ....                       ....                                 ....                                                                                       ....                                 ....                           ",
"                            ....                                 ....                                                                                       ....                                 ....                       ....................................................................                                 ....                       ....                                 ....................................................................                       ....                                 ....                                                                                       ....                                 ....                           ",
"                            ....                                 ....                                                                                       ....                                 ....                       ....................................................................                                 ....                       ....                                 ....................................................................                       ....                                 ....                                                                                       ....                                 ....                           ",
"                            ....                                 ....                                                                                       ....                                 ....                       ....................................................................                                 ....                       ....                                 ....................................................................                       ....                                 ....                                                                                       ....                                 ....                           ",
"                            ....                                 ....                                                                                       ....                                 ....                       ....................................................................                                 ....                       ....                                 ....................................................................                       ....                                 ....                                                                                       ....                                 ....                           ",
"                            ....                                 ....                                                                                       ....                                 ....                                                                                       ....                                 ....                       ....                                 ....                                                                                       ....                                 ....                                                                                       ....                                 ....                           ",
"                            ....                                 ....                                                                                       ....                                 ....                                                                                       ....                                 ....                       ....                                 ....                                                                                       ....                                 ....                                                                                       ....                                 ....                           ",
"                            ....                                 ....                                                                                       ....                                 ....                                                                                       ....                                 ....                       ....                                 ....                                                                                       ....                                 ....                                                                                       ....                                 ....                           ",
"                            ....                                 ....                                                                                       ....                                 ....                                                                                       ....                                 ....                       ....                                 ....                                                                                       ....                                 ....                                                                                       ....                                 ....                           ",
"                            ....                                 ....                                                                                       ....                                 ....                                                                                       ....                                 ....                       ....                                 ....                                                                                       ....                                 ....                                                                                       ....                                 ....                           ",
"                            ....                                 ....                                                                                       ....                                 ....                                                                                       ....                                 ....                       ....                                 ....                                                                                       ....                                 ....                                                                                       ....                                 ....                           ",
"                            ....                                 ....                                                                                       ....                                 ....                                                                                       ....                                 ....                       ....                                 ....                                                                                       ....                                 ....                                                                                       ....                                 ....                           ",
"                            ....                                 ....                                                                                       ....                                 ....                                                                                       ....                                 ....                       ....                                 ....                                                                                       ....                                 ....                                                                                       ....                                 ....                           ",
"                            ....                                 ....                                                                                       ....                                 ....                                                                                       ....                                 ....                       ....                                 ....                                                                                       ....                                 ....                                                                                       ....                                 ....                           ",
"                            ....                                 ....                                                                                       ....                                 ....                                                                                       ....                                 ....                       ....                                 ....                                                                                       ....                                 ....                                                                                       ....                                 ....                           ",
"                            ....                                 ....                                                                                       ....                                 ....                                                                                       ....                                 ....                       ....                                 ....                                                                                       ....                                 ....                                                                                       ....                                 ....                           ",
"                            ....                                 ....                                                                                       ....                                 ....                                                                                       ....                                 ....                       ....                                 ....                                                                                       ....                                 ....                                                                                       ....                                 ....                           ",
"                            ....                                 ....                                                                                       ....                                 ....                                                                                       ....                                 ....                       ....                                 ....                                                                                       ....                                 ....                                                                                       ....                                 ....                           ",
"                            ....                                 ....                                                                                       ....                                 ....                                                                                       ....                                 ....                       ....                                 ....                                                                                       ....                                 ....                                                                                       ....                                 ....                           ",
"                            ....                                 ....                                                                                       ....                                 ....                                                                                       ....                                 ....                       ....                                 ....                                                                                       ....                                 ....                                                                                       ....                                 ....                           ",
"                            ....                                 ....                                                                                       ....                                 ....                                                                                       ....                                 ....                       ....                                 ....                                                                                       ....                                 ....                                                                                       ....                                 ....                           ",
"                            ....                                 ....                                                                                       ....                                 ....                                                                                       ....                                 ....                       ....                                 ....                                                                                       ....                                 ....                                                                                       ....                                 ....                           ",
"                            ....                                 ....                                                                                       ....                                 ....                                                                                       ....                                 ....                       ....                                 ....                                                                                       ....                                 ....                                                                                       ....                                 ....                           ",
"                            ....                                 ....                                                                                       ....                                 ....                                                                                       ....                                 ....                       ....                                 ....                                                                                       ....                                 ....                                                                                       ....                                 ....                           ",
"                            ....                                 ....                                                                                       ....                                 ....                                                                                       ....                                 ....                       ....                                 ....                                                                                       ....                                 ....                                                                                       ....                                 ....                           ",
"                            ....                                 ....                                                                                       ....                                 ....                                                                                       ....                                 ....                       ....                                 ....                                                                                       ....                                 ....                                                                                       ....                                 ....                           ",
"                            ....                                 ....                                                                                       ....                                 ....                                                                                       ....                                 ....                       ....                                 ....                                                                                       ....                                 ....                                                                                       ....                                 ....                           ",
"                            ....                                 ....                                                                                       ....                                 ....                                                                                       ....                                 ....                       ....                                 ....                                                                                       ....                                 ....                                                                                       ....                                 ....                           ",
"                            ....                                 ...............................................................................................                                 ....                       ....................................................................                                 ....                       ....                                 ....................................................................                       ....                                 ...............................................................................................                                 ....                           ",
"                            ....                                 ...............................................................................................                                 ....                       ....................................................................                                 ....                       ....                                 ....................................................................                       ....                                 ...............................................................................................                                 ....                           ",
"                            ....                                 ...............................................................................................                                 ....                       ....................................................................                                 ....                       ....                                 ....................................................................                       ....                                 ...............................................................................................                                 ....                           ",
"                            ....                                 ...............................................................................................                                 ....                       ....................................................................                                 ....                       ....                                 ....................................................................                       ....                                 ...............................................................................................                                 ....                           ",
"                            ....                                                                                                                                                                 ....                       ....                                                                                                 ....                       ....                                                                                                 ....                       ....                                                                                                                                                                 ....                           ",
"                            ....                                                                                                                                                                 ....                       ....                                                                                                 ....                       ....                                                                                                 ....                       ....                                                                                                                                                                 ....                           ",
"                            ....                                                                                                                                                                 ....                       ....                                                                                                 ....                       ....                                                                                                 ....                       ....                                                                                                                                                                 ....                           ",
"                            ....                                                                                                                                                                 ....                       ....                                                                                                 ....                       ....                                                                                                 ....                       ....                                                                                                                                                                 ....                           ",
"                            ....                                                                                                                                                                 ....                       ....                                                                                                 ....                       ....                                                                                                 ....                       ....                                                                                                                                                                 ....                           ",
"                            ....                                                                                                                                                                 ....                       ....                                                                                                 ....                       ....                                                                                                 ....                       ....                                                                                                                                                                 ....                           ",
"                            ....                                                                                                                                                                 ....                       ....                                                                                                 ....                       ....                                                                                                 ....                       ....                                                                                                                                                                 ....                           ",
"                            ....                                                                                                                                                                 ....                       ....                                                                                                 ....                       ....                                                                                                 ....                       ....                                                                                                                                                                 ....                           ",
"                            ....                                                                                                                                                                 ....                       ....                                                                                                 ....                       ....                                                                                                 ....                       ....                                                                                                                                                                 ....                           ",
"                            ....                                                                                                                                                                 ....                       ....                                                                                                 ....                       ....                                                                                                 ....                       ....                                                                                                                                                                 ....                           ",
"                            ....                                                                                                                                                                 ....                       ....                                                                                                 ....                       ....                                                                                                 ....                       ....                                                                                                                                                                 ....                           ",
"                            ....                                                                                                                                                                 ....                       ....                                                                                                 ....                       ....                                                                                                 ....                       ....                                                                                                                                                                 ....                           ",
"                            ....                                                                                                                                                                 ....                       ....                                                                                                 ....                       ....                                                                                                 ....                       ....                                                                                                                                                                 ....                           ",
"                            ....                                                                                                                                                                 ....                       ....                                                                                                 ....                       ....                                                                                                 ....                       ....                                                                                                                                                                 ....                           ",
"                            ....                                                                                                                                                                 ....                       ....                                                                                                 ....                       ....                                                                                                 ....                       ....                                                                                                                                                                 ....                           ",
"                            ....                                                                                                                                                                 ....                       ....                                                                                                 ....                       ....                                                                                                 ....                       ....                                                                                                                                                                 ....                           ",
"                            ....                                                                                                                                                                 ....                       ....                                                                                                 ....                       ....                                                                                                 ....                       ....                                                                                                                                                                 ....                           ",
"                            ....                                                                                                                                                                 ....                       ....                                                                                                 ....                       ....                                                                                                 ....                       ....                                                                                                                                                                 ....                           ",
"                            ....                                                                                                                                                                 ....                       ....                                                                                                 ....                       ....                                                                                                 ....                       ....                                                                                                                                                                 ....                           ",
"                            ....                                                                                                                                                                 ....                       ....                                                                                                 ....                       ....                                                                                                 ....                       ....                                                                                                                                                                 ....                           ",
"                            ....                                                                                                                                                                 ....                       ....                                                                                                 ....                       ....                                                                                                 ....                       ....                                                                                                                                                                 ....                           ",
"                            ....                                                                                                                                                                 ....                       ....                                                                                                 ....                       ....                                                                                                 ....                       ....                                                                                                                                                                 ....                           ",
"                            ....                                                                                                                                                                 ....                       ....                                                                                                 ....                       ....                                                                                                 ....                       ....                                                                                                                                                                 ....                           ",
"                            ....                                                                                                                                                                 ....                       ....                                                                                                 ....                       ....                                                                                                 ....                       ....                                                                                                                                                                 ....                           ",
"                            ....                                                                                                                                                                 ....                       ....                                                                                                 ....                       ....                                                                                                 ....                       ....                                                                                                                                                                 ....                           ",
"                            ....                                                                                                                                                                 ....                       ....                                                                                                 ....                       ....                                                                                                 ....                       ....                                                                                                                                                                 ....                           ",
"                            ....                                                                                                                                                                 ....                       ....                                                                                                 ....                       ....                                                                                                 ....                       ....                                                                                                                                                                 ....                           ",
"                            ....                                                                                                                                                                 ....                       ....                                                                                                 ....                       ....                                                                                                 ....                       ....                                                                                                                                                                 ....                           ",
"                            ....                                                                                                                                                                 ...............................                                                                                                 ...............................                                                                                                 ...............................                                                                                                                                                                 ....                           ",
"                            ....                                                                                                                                                                 ...............................                                                                                                 ...............................                                                                                                 ...............................                                                                                                                                                                 ....                           ",
"                            ....                                                                                                                                                                 ...............................                                                                                                 ...............................                                                                                                 ...............................                                                                                                                                                                 ....                           ",
"                            ....                                                                                                                                                                 ...............................                                                                                                 ...............................                                                                                                 ...............................                                                                                                                                                                 ....                           ",
"                            ....                                                                                                                                                                                                                                                                                                                                                                                                                                                                                                                                                                                                                                 ....                           ",
"                            ....................................................................................................                                                                                                                                                                                                                                                                                                                                                                                                                                 ....................................................................................................                           ",
"                            ....................................................................................................                                                                                                                                                                                                                                                                                                                                                                                                                                 ....................................................................................................                           ",
"                            ....................................................................................................                                                                                                                                                                                                                                                                                                                                                                                                                                 ....................................................................................................                           ",
"                            ....................................................................................................                                                                                                                                                                                                                                                                                                                                                                                                                                 ....................................................................................................                           ",
"                                                                                                                            ....                                                                                                                                                                                                                                                                                                                                                                                                                                 ....                                                                                                                           ",
"                                                                                                                            ....                                                                                                                                                                                                                                                                                                                                                                                                                                 ....                                                                                                                           ",
"                                                                                                                            ....                                                                                                                                                                                                                                                                                                                                                                                                                                 ....                                                                                                                           ",
"                                                                                                                            ....                                                                                                                                                                                                                                                                                                                                                                                                                                 ....                                                                                                                           ",
"                                                                                                                            ....                                                                                                                                                                                                                                                                                                                                                                                                                                 ....                                                                                                                           ",
"                                                                                                                            ....                                                                                                                                                                                                                                                                                                                                                                                                                                 ....                                                                                                                           ",
"                                                                                                                            ....                                                                                                                                                                                                                                                                                                                                                                                                                                 ....                                                                                                                           ",
"                                                                                                                            ....                                                                                                                                                                                                                                                                                                                                                                                                                                 ....                                                                                                                           ",
"                                                                                                                            ....                                                                                                                                                                                                                                                                                                                                                                                                                                 ....                                                                                                                           ",
"                                                                                                                            ....                                                                                                                                                                                                                                                                                                                                                                                                                                 ....                                                                                                                           ",
"                                                                                                                            ....                                                                                                                                                                                                                                                                                                                                                                                                                                 ....                                                                                                                           ",
"                                                                                                                            ....                                                                                                                                                                                                                                                                                                                                                                                                                                 ....                                                                                                                           ",
"                                                                                                                            ....                                                                                                                                                                                                                                                                                                                                                                                                                                 ....                                                                                                                           ",
"                                                                                                                            ....                                                                                                                                                                                                                                                                                                                                                                                                                                 ....                                                                                                                           ",
"                                                                                                                            ....                                                                                                                                                                                                                                                                                                                                                                                                                                 ....                                                                                                                           ",
"                                                                                                                            ....                                                                                                                                                                                                                                                                                                                                                                                                                                 ....                                                                                                                           ",
"                                                                                                                            ....                                                                                                                                                                                                                                                                                                                                                                                                                                 ....                                                                                                                           ",
"                                                                                                                            ....                                                                                                                                                                                                                                                                                                                                                                                                                                 ....                                                                                                                           ",
"                                                                                                                            ....                                                                                                                                                                                                                                                                                                                                                                                                                                 ....                                                                                                                           ",
"                                                                                                                            ....                                                                                                                                                                                                                                                                                                                                                                                                                                 ....                                                                                                                           ",
"                                                                                                                            ....                                                                                                                                                                                                                                                                                                                                                                                                                                 ....                                                                                                                           ",
"                                                                                                                            ....                                                                                                                                                                                                                                                                                                                                                                                                                                 ....                                                                                                                           ",
"                                                                                                                            ....                                                                                                                                                                                                                                                                                                                                                                                                                                 ....                                                                                                                           ",
"                                                                                                                            ....                                                                                                                                                                                                                                                                                                                                                                                                                                 ....                                                                                                                           ",
"                                                                                                                            ....                                                                                                                                                                                                                                                                                                                                                                                                                                 ....                                                                                                                           ",
"                                                                                                                            ....                                                                                                                                                                                                                                                                                                                                                                                                                                 ....                                                                                                                           ",
"                                                                                                                            ....                                                                                                                                                                                                                                                                                                                                                                                                                                 ....                                                                                                                           ",
"                                                                                                                            ....                                                                                                                                                                                                                                                                                                                                                                                                                                 ....                                                                                                                           ",
"                                                                                                                            ....                                                                                                                                 ...............................................................                                 ...............................................................                                                                                                                                 ....                                                                                                                           ",
"                                                                                                                            ....                                                                                                                                 ...............................................................                                 ...............................................................                                                                                                                                 ....                                                                                                                           ",
"                                                                                                                            ....                                                                                                                                 ...............................................................                                 ...............................................................                                                                                                                                 ....                                                                                                                           ",
"                                                                                                                            ....                                                                                                                                 ...............................................................                                 ...............................................................                                                                                                                                 ....                                                                                                                           ",
"                                                                                                                            ....                                                                                                                                 ....                                                                                                                                                       ....                                                                                                                                 ....                                                                                                                           ",
"                                                                                                                            ....                                                                                                                                 ....                                                                                                                                                       ....                                                                                                                                 ....                                                                                                                           ",
"                                                                                                                            ....                                                                                                                                 ....                                                                                                                                                       ....                                                                                                                                 ....                                                                                                                           ",
"                                                                                                                            ....                                                                                                                                 ....                                                                                                                                                       ....                                                                                                                                 ....                                                                                                                           ",
"                                                                                                                            ....                                                                                                                                 ....                                                                                                                                                       ....                                                                                                                                 ....                                                                                                                           ",
"                                                                                                                            ....                                                                                                                                 ....                                                                                                                                                       ....                                                                                                                                 ....                                                                                                                           ",
"                                                                                                                            ....                                                                                                                                 ....                                                                                                                                                       ....                                                                                                                                 ....                                                                                                                           ",
"                                                                                                                            ....                                                                                                                                 ....                                                                                                                                                       ....                                                                                                                                 ....                                                                                                                           ",
"                                                                                                                            ....                                                                                                                                 ....                                                                                                                                                       ....                                                                                                                                 ....                                                                                                                           ",
"                                                                                                                            ....                                                                                                                                 ....                                                                                                                                                       ....                                                                                                                                 ....                                                                                                                           ",
"                                                                                                                            ....                                                                                                                                 ....                                                                                                                                                       ....                                                                                                                                 ....                                                                                                                           ",
"                                                                                                                            ....                                                                                                                                 ....                                                                                                                                                       ....                                                                                                                                 ....                                                                                                                           ",
"                                                                                                                            ....                                                                                                                                 ....                                                                                                                                                       ....                                                                                                                                 ....                                                                                                                           ",
"                                                                                                                            ....                                                                                                                                 ....                                                                                                                                                       ....                                                                                                                                 ....                                                                                                                           ",
"                                                                                                                            ....                                                                                                                                 ....                                                                                                                                                       ....                                                                                                                                 ....                                                                                                                           ",
"                                                                                                                            ....                                                                                                                                 ....                                                                                                                                                       ....                                                                                                                                 ....                                                                                                                           ",
"                                                                                                                            ....                                                                                                                                 ....                                                                                                                                                       ....                                                                                                                                 ....                                                                                                                           ",
"                                                                                                                            ....                                                                                                                                 ....                                                                                                                                                       ....                                                                                                                                 ....                                                                                                                           ",
"                                                                                                                            ....                                                                                                                                 ....                                                                                                                                                       ....                                                                                                                                 ....                                                                                                                           ",
"                                                                                                                            ....                                                                                                                                 ....                                                                                                                                                       ....                                                                                                                                 ....                                                                                                                           ",
"                                                                                                                            ....                                                                                                                                 ....                                                                                                                                                       ....                                                                                                                                 ....                                                                                                                           ",
"                                                                                                                            ....                                                                                                                                 ....                                                                                                                                                       ....                                                                                                                                 ....                                                                                                                           ",
"                                                                                                                            ....                                                                                                                                 ....                                                                                                                                                       ....                                                                                                                                 ....                                                                                                                           ",
"                                                                                                                            ....                                                                                                                                 ....                                                                                                                                                       ....                                                                                                                                 ....                                                                                                                           ",
"                                                                                                                            ....                                                                                                                                 ....                                                                                                                                                       ....                                                                                                                                 ....                                                                                                                           ",
"                                                                                                                            ....                                                                                                                                 ....                                                                                                                                                       ....                                                                                                                                 ....                                                                                                                           ",
"                                                                                                                            ....                                                                                                                                 ....                                                                                                                                                       ....                                                                                                                                 ....                                                                                                                           ",
"                                                                                                                            ....                                                                                                                                 ....                                                                                                                                                       ....                                                                                                                                 ....                                                                                                                           ",
"                                                                                                                            ....                                                                 ...............................                                 ....                                                                                                                                                       ....                                 ...............................                                                                 ....                                                                                                                           ",
"                                                                                                                            ....                                                                 ...............................                                 ....                                                                                                                                                       ....                                 ...............................                                                                 ....                                                                                                                           ",
"                                                                                                                            ....                                                                 ...............................                                 ....                                                                                                                                                       ....                                 ...............................                                                                 ....                                                                                                                           ",
"                                                                                                                            ....                                                                 ...............................                                 ....                                                                                                                                                       ....                                 ...............................                                                                 ....                                                                                                                           ",
"                                                                                                                            ....                                                                 ....                       ....                                 ....                                                                                                                                                       ....                                 ....                       ....                                                                 ....                                                                                                                           ",
"                                                                                                                            ....                                                                 ....                       ....                                 ....                                                                                                                                                       ....                                 ....                       ....                                                                 ....                                                                                                                           ",
"                                                                                                                            ....                                                                 ....                       ....                                 ....                                                                                                                                                       ....                                 ....                       ....                                                                 ....                                                                                                                           ",
"                                                                                                                            ....                                                                 ....                       ....                                 ....                                                                                                                                                       ....                                 ....                       ....                                                                 ....                                                                                                                           ",
"                                                                                                                            ....                                                                 ....                       ....                                 ....                                                                                                                                                       ....                                 ....                       ....                                                                 ....                                                                                                                           ",
"                                                                                                                            ....                                                                 ....                       ....                                 ....                                                                                                                                                       ....                                 ....                       ....                                                                 ....                                                                                                                           ",
"                                                                                                                            ....                                                                 ....                       ....                                 ....                                                                                                                                                       ....                                 ....                       ....                                                                 ....                                                                                                                           ",
"                                                                                                                            ....                                                                 ....                       ....                                 ....                                                                                                                                                       ....                                 ....                       ....                                                                 ....                                                                                                                           ",
"                                                                                                                            ....                                                                 ....                       ....                                 ....                                                                                                                                                       ....                                 ....                       ....                                                                 ....                                                                                                                           ",
"                                                                                                                            ....                                                                 ....                       ....                                 ....                                                                                                                                                       ....                                 ....                       ....                                                                 ....                                                                                                                           ",
"                                                                                                                            ....                                                                 ....                       ....                                 ....                                                                                                                                                       ....                                 ....                       ....                                                                 ....                                                                                                                           ",
"                                                                                                                            ....                                                                 ....                       ....                                 ....                                                                                                                                                       ....                                 ....                       ....                                                                 ....                                                                                                                           ",
"                                                                                                                            ....                                                                 ....                       ....                                 ....                                                                                                                                                       ....                                 ....                       ....                                                                 ....                                                                                                                           ",
"                                                                                                                            ....                                                                 ....                       ....                                 ....                                                                                                                                                       ....                                 ....                       ....                                                                 ....                                                                                                                           ",
"                                                                                                                            ....                                                                 ....                       ....                                 ....                                                                                                                                                       ....                                 ....                       ....                                                                 ....                                                                                                                           ",
"                                                                                                                            ....                                                                 ....                       ....                                 ....                                                                                                                                                       ....                                 ....                       ....                                                                 ....                                                                                                                           ",
"                                                                                                                            ....                                                                 ....                       ....                                 ....                                                                                                                                                       ....                                 ....                       ....                                                                 ....                                                                                                                           ",
"                                                                                                                            ....                                                                 ....                       ....                                 ....                                                                                                                                                       ....                                 ....                       ....                                                                 ....                                                                                                                           ",
"                                                                                                                            ....                                                                 ....                       ....                                 ....                                                                                                                                                       ....                                 ....                       ....                                                                 ....                                                                                                                           ",
"                                                                                                                            ....                                                                 ....                       ....                                 ....                                                                                                                                                       ....                                 ....                       ....                                                                 ....                                                                                                                           ",
"                                                                                                                            ....                                                                 ....                       ....                                 ....                                                                                                                                                       ....                                 ....                       ....                                                                 ....                                                                                                                           ",
"                                                                                                                            ....                                                                 ....                       ....                                 ....                                                                                                                                                       ....                                 ....                       ....                                                                 ....                                                                                                                           ",
"                                                                                                                            ....                                                                 ....                       ....                                 ....                                                                                                                                                       ....                                 ....                       ....                                                                 ....                                                                                                                           ",
"................................................................................................................................                                                                 ....                       ....                                 ....                                                                                                                                                       ....                                 ....                       ....                                                                 ...............................................................................................................................",
"................................................................................................................................                                                                 ....                       ....                                 ....                                                                                                                                                       ....                                 ....                       ....                                                                 ...............................................................................................................................",
"................................................................................................................................                                                                 ....                       ....                                 ....                                                                                                                                                       ....                                 ....                       ....                                                                 ...............................................................................................................................",
"................................................................................................................................                                                                 ....                       ....                                 ....                                                                                                                                                       ....                                 ....                       ....                                                                 ...............................................................................................................................",
"                                                                                                                                                                                                 ....                       ....                                 ....                                                                                                                                                       ....                                 ....                       ....                                                                                                                                                                                                ",
"                                                                                                                                                                                                 ....                       ....                                 ....                                                                                                                                                       ....                                 ....                       ....                                                                                                                                                                                                ",
"                                                                                                                                                                                                 ....                       ....                                 ....                                                                                                                                                       ....                                 ....                       ....                                                                                                                                                                                                ",
"                                                                                                                                                                                                 ....                       ....                                 ....                                                                                                                                                       ....                                 ....                       ....                                                                                                                                                                                                ",
"                                                                                                                                                                                                 ....                       ....                                 ....                                                                                                                                                       ....                                 ....                       ....                                                                                                                                                                                                ",
"                                                                                                                                                                                                 ....                       ....                                 ....                                                                                                                                                       ....                                 ....                       ....                                                                                                                                                                                                ",
"                                                                                                                                                                                                 ....                       ....                                 ....                                                                                                                                                       ....                                 ....                       ....                                                                                                                                                                                                ",
"                                                                                                                                                                                                 ....                       ....                                 ....                                                                                                                                                       ....                                 ....                       ....                                                                                                                                                                                                ",
"                                                                                                                                                                                                 ....                       ....                                 ....                                                                                                                                                       ....                                 ....                       ....                                                                                                                                                                                                ",
"                                                                                                                                                                                                 ....                       ....                                 ....                                                                                                                                                       ....                                 ....                       ....                                                                                                                                                                                                ",
"                                                                                                                                                                                                 ....                       ....                                 ....                                                                                                                                                       ....                                 ....                       ....                                                                                                                                                                                                ",
"                                                                                                                                                                                                 ....                       ....                                 ....                                                                                                                                                       ....                                 ....                       ....                                                                                                                                                                                                ",
"                                                                                                                                                                                                 ....                       ....                                 ....                                                                                                                                                       ....                                 ....                       ....                                                                                                                                                                                                ",
"                                                                                                                                                                                                 ....                       ....                                 ....                                                                                                                                                       ....                                 ....                       ....                                                                                                                                                                                                ",
"                                                                                                                                                                                                 ....                       ....                                 ....                                                                                                                                                       ....                                 ....                       ....                                                                                                                                                                                                ",
"                                                                                                                                                                                                 ....                       ....                                 ....                                                                                                                                                       ....                                 ....                       ....                                                                                                                                                                                                ",
"                                                                                                                                                                                                 ....                       ....                                 ....                                                                                                                                                       ....                                 ....                       ....                                                                                                                                                                                                ",
"                                                                                                                                                                                                 ....                       ....                                 ....                                                                                                                                                       ....                                 ....                       ....                                                                                                                                                                                                ",
"                                                                                                                                                                                                 ....                       ....                                 ....                                                                                                                                                       ....                                 ....                       ....                                                                                                                                                                                                ",
"                                                                                                                                                                                                 ....                       ....                                 ....                                                                                                                                                       ....                                 ....                       ....                                                                                                                                                                                                ",
"                                                                                                                                                                                                 ....                       ....                                 ....                                                                                                                                                       ....                                 ....                       ....                                                                                                                                                                                                ",
"                                                                                                                                                                                                 ....                       ....                                 ....                                                                                                                                                       ....                                 ....                       ....                                                                                                                                                                                                ",
"                                                                                                                                                                                                 ....                       ....                                 ....                                                                                                                                                       ....                                 ....                       ....                                                                                                                                                                                                ",
"                                                                                                                                                                                                 ....                       ....                                 ....                                                                                                                                                       ....                                 ....                       ....                                                                                                                                                                                                ",
"                                                                                                                                                                                                 ....                       ....                                 ....                                                                                                                                                       ....                                 ....                       ....                                                                                                                                                                                                ",
"                                                                                                                                                                                                 ....                       ....                                 ....                                                                                                                                                       ....                                 ....                       ....                                                                                                                                                                                                ",
"                                                                                                                                                                                                 ....                       ....                                 ....                                                                                                                                                       ....                                 ....                       ....                                                                                                                                                                                                ",
"                                                                                                                                                                                                 ....                       ....                                 ....                                                                                                                                                       ....                                 ....                       ....                                                                                                                                                                                                ",
"                                                                                                                                                                                                 ....                       ....                                 ....                                                                                                                                                       ....                                 ....                       ....                                                                                                                                                                                                ",
"                                                                                                                                                                                                 ....                       ....                                 ....                                                                                                                                                       ....                                 ....                       ....                                                                                                                                                                                                ",
"                                                                                                                                                                                                 ....                       ....                                 ....                                                                                                                                                       ....                                 ....                       ....                                                                                                                                                                                                ",
"                                                                                                                                                                                                 ....                       ....                                 ....                                                                                                                                                       ....                                 ....                       ....                                                                                                                                                                                                ",
"                                                                                                                                                                                                 ....                       ....                                 ....                                                                                                                                                       ....                                 ....                       ....                                                                                                                                                                                                ",
"................................................................................................................................                                                                 ....                       ....                                 ....                                                                                                                                                       ....                                 ....                       ....                                                                 ...............................................................................................................................",
"................................................................................................................................                                                                 ....                       ....                                 ....                                                                                                                                                       ....                                 ....                       ....                                                                 ...............................................................................................................................",
"................................................................................................................................                                                                 ....                       ....                                 ....                                                                                                                                                       ....                                 ....                       ....                                                                 ...............................................................................................................................",
"................................................................................................................................                                                                 ....                       ....                                 ....                                                                                                                                                       ....                                 ....                       ....                                                                 ...............................................................................................................................",
"                                                                                                                            ....                                                                 ....                       ....                                 ....                                                                                                                                                       ....                                 ....                       ....                                                                 ....                                                                                                                           ",
"                                                                                                                            ....                                                                 ....                       ....                                 ....                                                                                                                                                       ....                                 ....                       ....                                                                 ....                                                                                                                           ",
"                                                                                                                            ....                                                                 ....                       ....                                 ....                                                                                                                                                       ....                                 ....                       ....                                                                 ....                                                                                                                           ",
"                                                                                                                            ....                                                                 ....                       ....                                 ....                                                                                                                                                       ....                                 ....                       ....                                                                 ....                                                                                                                           ",
"                                                                                                                            ....                                                                 ....                       ....                                 ....                                                                                                                                                       ....                                 ....                       ....                                                                 ....                                                                                                                           ",
"                                                                                                                            ....                                                                 ....                       ....                                 ....                                                                                                                                                       ....                                 ....                       ....                                                                 ....                                                                                                                           ",
"                                                                                                                            ....                                                                 ....                       ....                                 ....                                                                                                                                                       ....                                 ....                       ....                                                                 ....                                                                                                                           ",
"                                                                                                                            ....                                                                 ....                       ....                                 ....                                                                                                                                                       ....                                 ....                       ....                                                                 ....                                                                                                                           ",
"                                                                                                                            ....                                                                 ....                       ....                                 ....                                                                                                                                                       ....                                 ....                       ....                                                                 ....                                                                                                                           ",
"                                                                                                                            ....                                                                 ....                       ....                                 ....                                                                                                                                                       ....                                 ....                       ....                                                                 ....                                                                                                                           ",
"                                                                                                                            ....                                                                 ....                       ....                                 ....                                                                                                                                                       ....                                 ....                       ....                                                                 ....                                                                                                                           ",
"                                                                                                                            ....                                                                 ....                       ....                                 ....                                                                                                                                                       ....                                 ....                       ....                                                                 ....                                                                                                                           ",
"                                                                                                                            ....                                                                 ....                       ....                                 ....                                                                                                                                                       ....                                 ....                       ....                                                                 ....                                                                                                                           ",
"                                                                                                                            ....                                                                 ....                       ....                                 ....                                                                                                                                                       ....                                 ....                       ....                                                                 ....                                                                                                                           ",
"                                                                                                                            ....                                                                 ....                       ....                                 ....                                                                                                                                                       ....                                 ....                       ....                                                                 ....                                                                                                                           ",
"                                                                                                                            ....                                                                 ....                       ....                                 ....                                                                                                                                                       ....                                 ....                       ....                                                                 ....                                                                                                                           ",
"                                                                                                                            ....                                                                 ....                       ....                                 ....                                                                                                                                                       ....                                 ....                       ....                                                                 ....                                                                                                                           ",
"                                                                                                                            ....                                                                 ....                       ....                                 ....                                                                                                                                                       ....                                 ....                       ....                                                                 ....                                                                                                                           ",
"                                                                                                                            ....                                                                 ....                       ....                                 ....                                                                                                                                                       ....                                 ....                       ....                                                                 ....                                                                                                                           ",
"                                                                                                                            ....                                                                 ....                       ....                                 ....                                                                                                                                                       ....                                 ....                       ....                                                                 ....                                                                                                                           ",
"                                                                                                                            ....                                                                 ....                       ....                                 ....                                                                                                                                                       ....                                 ....                       ....                                                                 ....                                                                                                                           ",
"                                                                                                                            ....                                                                 ....                       ....                                 ....                                                                                                                                                       ....                                 ....                       ....                                                                 ....                                                                                                                           ",
"                                                                                                                            ....                                                                 ....                       ....                                 ....                                                                                                                                                       ....                                 ....                       ....                                                                 ....                                                                                                                           ",
"                                                                                                                            ....                                                                 ....                       ....                                 ...............................................................................................................................................................                                 ....                       ....                                                                 ....                                                                                                                           ",
"                                                                                                                            ....                                                                 ....                       ....                                 ...............................................................................................................................................................                                 ....                       ....                                                                 ....                                                                                                                           ",
"                                                                                                                            ....                                                                 ....                       ....                                 ...............................................................................................................................................................                                 ....                       ....                                                                 ....                                                                                                                           ",
"                                                                                                                            ....                                                                 ....                       ....                                 ...............................................................................................................................................................                                 ....                       ....                                                                 ....                                                                                                                           ",
"                                                                                                                            ....                                                                 ....                       ....                                                                                                                                                                                                                                 ....                       ....                                                                 ....                                                                                                                           ",
"                                                                                                                            ....                                                                 ....                       ....                                                                                                                                                                                                                                 ....                       ....                                                                 ....                                                                                                                           ",
"                                                                                                                            ....                                                                 ....                       ....                                                                                                                                                                                                                                 ....                       ....                                                                 ....                                                                                                                           ",
"                                                                                                                            ....                                                                 ....                       ....                                                                                                                                                                                                                                 ....                       ....                                                                 ....                                                                                                                           ",
"                                                                                                                            ....                                                                 ....                       ....                                                                                                                                                                                                                                 ....                       ....                                                                 ....                                                                                                                           ",
"                                                                                                                            ....                                                                 ....                       ....                                                                                                                                                                                                                                 ....                       ....                                                                 ....                                                                                                                           ",
"                                                                                                                            ....                                                                 ....                       ....                                                                                                                                                                                                                                 ....                       ....                                                                 ....                                                                                                                           ",
"                                                                                                                            ....                                                                 ....                       ....                                                                                                                                                                                                                                 ....                       ....                                                                 ....                                                                                                                           ",
"                                                                                                                            ....                                                                 ....                       ....                                                                                                                                                                                                                                 ....                       ....                                                                 ....                                                                                                                           ",
"                                                                                                                            ....                                                                 ....                       ....                                                                                                                                                                                                                                 ....                       ....                                                                 ....                                                                                                                           ",
"                                                                                                                            ....                                                                 ....                       ....                                                                                                                                                                                                                                 ....                       ....                                                                 ....                                                                                                                           ",
"                                                                                                                            ....                                                                 ....                       ....                                                                                                                                                                                                                                 ....                       ....                                                                 ....                                                                                                                           ",
"                                                                                                                            ....                                                                 ....                       ....                                                                                                                                                                                                                                 ....                       ....                                                                 ....                                                                                                                           ",
"                                                                                                                            ....                                                                 ....                       ....                                                                                                                                                                                                                                 ....                       ....                                                                 ....                                                                                                                           ",
"                                                                                                                            ....                                                                 ....                       ....                                                                                                                                                                                                                                 ....                       ....                                                                 ....                                                                                                                           ",
"                                                                                                                            ....                                                                 ....                       ....                                                                                                                                                                                                                                 ....                       ....                                                                 ....                                                                                                                           ",
"                                                                                                                            ....                                                                 ....                       ....                                                                                                                                                                                                                                 ....                       ....                                                                 ....                                                                                                                           ",
"                                                                                                                            ....                                                                 ....                       ....                                                                                                                                                                                                                                 ....                       ....                                                                 ....                                                                                                                           ",
"                                                                                                                            ....                                                                 ....                       ....                                                                                                                                                                                                                                 ....                       ....                                                                 ....                                                                                                                           ",
"                                                                                                                            ....                                                                 ....                       ....                                                                                                                                                                                                                                 ....                       ....                                                                 ....                                                                                                                           ",
"                                                                                                                            ....                                                                 ....                       ....                                                                                                                                                                                                                                 ....                       ....                                                                 ....                                                                                                                           ",
"                                                                                                                            ....                                                                 ....                       ....                                                                                                                                                                                                                                 ....                       ....                                                                 ....                                                                                                                           ",
"                                                                                                                            ....                                                                 ....                       ....                                                                                                                                                                                                                                 ....                       ....                                                                 ....                                                                                                                           ",
"                                                                                                                            ....                                                                 ....                       ....                                                                                                                                                                                                                                 ....                       ....                                                                 ....                                                                                                                           ",
"                                                                                                                            ....                                                                 ....                       ....                                                                                                                                                                                                                                 ....                       ....                                                                 ....                                                                                                                           ",
"                                                                                                                            ....                                                                 ....                       ....                                                                                                                                                                                                                                 ....                       ....                                                                 ....                                                                                                                           ",
"                                                                                                                            ....                                                                 ....                       ....                                                                                                                                                                                                                                 ....                       ....                                                                 ....                                                                                                                           ",
"                                                                                                                            ....                                                                 ....                       ....                                                                                                                                                                                                                                 ....                       ....                                                                 ....                                                                                                                           ",
"                                                                                                                            ....                                                                 ....                       ....                                                                                                                                                                                                                                 ....                       ....                                                                 ....                                                                                                                           ",
"                                                                                                                            ....                                                                 ....                       ....                                                                                                                                                                                                                                 ....                       ....                                                                 ....                                                                                                                           ",
"                                                                                                                            ....                                                                 ....                       ....                                                                                                                                                                                                                                 ....                       ....                                                                 ....                                                                                                                           ",
"                                                                                                                            ....                                                                 ....                       ....                                                                                                                                                                                                                                 ....                       ....                                                                 ....                                                                                                                           ",
"                                                                                                                            ....                                                                 ....                       ....                                                                                                                                                                                                                                 ....                       ....                                                                 ....                                                                                                                           ",
"                                                                                                                            ....                                 ....................................                       ....                                 ...............................................................................................................................................................                                 ....                       ....................................                                 ....                                                                                                                           ",
"                                                                                                                            ....                                 ....................................                       ....                                 ...............................................................................................................................................................                                 ....                       ....................................                                 ....                                                                                                                           ",
"                                                                                                                            ....                                 ....................................                       ....                                 ...............................................................................................................................................................                                 ....                       ....................................                                 ....                                                                                                                           ",
"                                                                                                                            ....                                 ....................................                       ....                                 ...............................................................................................................................................................                                 ....                       ....................................                                 ....                                                                                                                           ",
"                                                                                                                            ....                                 ....                                                       ....                                 ....                                                                                                                                                       ....                                 ....                                                       ....                                 ....                                                                                                                           ",
"                                                                                                                            ....                                 ....                                                       ....                                 ....                                                                                                                                                       ....                                 ....                                                       ....                                 ....                                                                                                                           ",
"                                                                                                                            ....                                 ....                                                       ....                                 ....                                                                                                                                                       ....                                 ....                                                       ....                                 ....                                                                                                                           ",
"                                                                                                                            ....                                 ....                                                       ....                                 ....                                                                                                                                                       ....                                 ....                                                       ....                                 ....                                                                                                                           ",
"                                                                                                                            ....                                 ....                                                       ....                                 ....                                                                                                                                                       ....                                 ....                                                       ....                                 ....                                                                                                                           ",
"                                                                                                                            ....                                 ....                                                       ....                                 ....                                                                                                                                                       ....                                 ....                                                       ....                                 ....                                                                                                                           ",
"                                                                                                                            ....                                 ....                                                       ....                                 ....                                                                                                                                                       ....                                 ....                                                       ....                                 ....                                                                                                                           ",
"                                                                                                                            ....                                 ....                                                       ....                                 ....                                                                                                                                                       ....                                 ....                                                       ....                                 ....                                                                                                                           ",
"                                                                                                                            ....                                 ....                                                       ....                                 ....                                                                                                                                                       ....                                 ....                                                       ....                                 ....                                                                                                                           ",
"                                                                                                                            ....                                 ....                                                       ....                                 ....                                                                                                                                                       ....                                 ....                                                       ....                                 ....                                                                                                                           ",
"                                                                                                                            ....                                 ....                                                       ....                                 ....                                                                                                                                                       ....                                 ....                                                       ....                                 ....                                                                                                                           ",
"                                                                                                                            ....                                 ....                                                       ....                                 ....                                                                                                                                                       ....                                 ....                                                       ....                                 ....                                                                                                                           ",
"                                                                                                                            ....                                 ....                                                       ....                                 ....                                                                                                                                                       ....                                 ....                                                       ....                                 ....                                                                                                                           ",
"                                                                                                                            ....                                 ....                                                       ....                                 ....                                                                                                                                                       ....                                 ....                                                       ....                                 ....                                                                                                                           ",
"                                                                                                                            ....                                 ....                                                       ....                                 ....                                                                                                                                                       ....                                 ....                                                       ....                                 ....                                                                                                                           ",
"                                                                                                                            ....                                 ....                                                       ....                                 ....                                                                                                                                                       ....                                 ....                                                       ....                                 ....                                                                                                                           ",
"                                                                                                                            ....                                 ....                                                       ....                                 ....                                                                                                                                                       ....                                 ....                                                       ....                                 ....                                                                                                                           ",
"                                                                                                                            ....                                 ....                                                       ....                                 ....                                                                                                                                                       ....                                 ....                                                       ....                                 ....                                                                                                                           ",
"                                                                                                                            ....                                 ....                                                       ....                                 ....                                                                                                                                                       ....                                 ....                                                       ....                                 ....                                                                                                                           ",
"                                                                                                                            ....                                 ....                                                       ....                                 ....                                                                                                                                                       ....                                 ....                                                       ....                                 ....                                                                                                                           ",
"                                                                                                                            ....                                 ....                                                       ....                                 ....                                                                                                                                                       ....                                 ....                                                       ....                                 ....                                                                                                                           ",
"                                                                                                                            ....                                 ....                                                       ....                                 ....                                                                                                                                                       ....                                 ....                                                       ....                                 ....                                                                                                                           ",
"                                                                                                                            ....                                 ....                                                       ....                                 ....                                                                                                                                                       ....                                 ....                                                       ....                                 ....                                                                                                                           ",
"                            ....................................................................................................                                 ...............................................................                                 ....................................................................                       ....................................................................                                 ...............................................................                                 ....................................................................................................                           ",
"                            ....................................................................................................                                 ...............................................................                                 ....................................................................                       ....................................................................                                 ...............................................................                                 ....................................................................................................                           ",
"                            ....................................................................................................                                 ...............................................................                                 ....................................................................                       ....................................................................                                 ...............................................................                                 ....................................................................................................                           ",
"                            ....................................................................................................                                 ...............................................................                                 ....................................................................                       ....................................................................                                 ...............................................................                                 ....................................................................................................                           ",
"                            ....                                                                                                                                                                                                                                                                                                 ....                       ....                                                                                                                                                                                                                                                                                                 ....                           ",
"                            ....                                                                                                                                                                                                                                                                                                 ....                       ....                                                                                                                                                                                                                                                                                                 ....                           ",
"                            ....                                                                                                                                                                                                                                                                                                 ....                       ....                                                                                                                                                                                                                                                                                                 ....                           ",
"                            ....                                                                                                                                                                                                                                                                                                 ....                       ....                                                                                                                                                                                                                                                                                                 ....                           ",
"                            ....                                                                                                                                                                                                                                                                                                 ....                       ....                                                                                                                                                                                                                                                                                                 ....                           ",
"                            ....                                                                                                                                                                                                                                                                                                 ....                       ....                                                                                                                                                                                                                                                                                                 ....                           ",
"                            ....                                                                                                                                                                                                                                                                                                 ....                       ....                                                                                                                                                                                                                                                                                                 ....                           ",
"                            ....                                                                                                                                                                                                                                                                                                 ....                       ....                                                                                                                                                                                                                                                                                                 ....                           ",
"                            ....                                                                                                                                                                                                                                                                                                 ....                       ....                                                                                                                                                                                                                                                                                                 ....                           ",
"                            ....                                                                                                                                                                                                                                                                                                 ....                       ....                                                                                                                                                                                                                                                                                                 ....                           ",
"                            ....                                                                                                                                                                                                                                                                                                 ....                       ....                                                                                                                                                                                                                                                                                                 ....                           ",
"                            ....                                                                                                                                                                                                                                                                                                 ....                       ....                                                                                                                                                                                                                                                                                                 ....                           ",
"                            ....                                                                                                                                                                                                                                                                                                 ....                       ....                                                                                                                                                                                                                                                                                                 ....                           ",
"                            ....                                                                                                                                                                                                                                                                                                 ....                       ....                                                                                                                                                                                                                                                                                                 ....                           ",
"                            ....                                                                                                                                                                                                                                                                                                 ....                       ....                                                                                                                                                                                                                                                                                                 ....                           ",
"                            ....                                                                                                                                                                                                                                                                                                 ....                       ....                                                                                                                                                                                                                                                                                                 ....                           ",
"                            ....                                                                                                                                                                                                                                                                                                 ....                       ....                                                                                                                                                                                                                                                                                                 ....                           ",
"                            ....                                                                                                                                                                                                                                                                                                 ....                       ....                                                                                                                                                                                                                                                                                                 ....                           ",
"                            ....                                                                                                                                                                                                                                                                                                 ....                       ....                                                                                                                                                                                                                                                                                                 ....                           ",
"                            ....                                                                                                                                                                                                                                                                                                 ....                       ....                                                                                                                                                                                                                                                                                                 ....                           ",
"                            ....                                                                                                                                                                                                                                                                                                 ....                       ....                                                                                                                                                                                                                                                                                                 ....                           ",
"                            ....                                                                                                                                                                                                                                                                                                 ....                       ....                                                                                                                                                                                                                                                                                                 ....                           ",
"                            ....                                                                                                                                                                                                                                                                                                 ....                       ....                                                                                                                                                                                                                                                                                                 ....                           ",
"                            ....                                                                                                                                                                                                                                                                                                 ....                       ....                                                                                                                                                                                                                                                                                                 ....                           ",
"                            ....                                                                                                                                                                                                                                                                                                 ....                       ....                                                                                                                                                                                                                                                                                                 ....                           ",
"                            ....                                                                                                                                                                                                                                                                                                 ....                       ....                                                                                                                                                                                                                                                                                                 ....                           ",
"                            ....                                                                                                                                                                                                                                                                                                 ....                       ....                                                                                                                                                                                                                                                                                                 ....                           ",
"                            ....                                                                                                                                                                                                                                                                                                 ....                       ....                                                                                                                                                                                                                                                                                                 ....                           ",
"                            ....                                                                                                                                                                                                                                                                                                 ....                       ....                                                                                                                                                                                                                                                                                                 ....                           ",
"                            ....                                                                                                                                                                                                                                                                                                 ....                       ....                                                                                                                                                                                                                                                                                                 ....                           ",
"                            ....                                                                                                                                                                                                                                                                                                 ....                       ....                                                                                                                                                                                                                                                                                                 ....                           ",
"                            ....                                                                                                                                                                                                                                                                                                 ....                       ....                                                                                                                                                                                                                                                                                                 ....                           ",
"                            ....                                                                                                                                                                                                                                                                                                 ....                       ....                                                                                                                                                                                                                                                                                                 ....                           ",
"                            ....                                                                 ...............................................................                                 ...............................................................                                                                 ....                       ....                                                                 ...............................................................                                 ...............................................................                                                                 ....                           ",
"                            ....                                                                 ...............................................................                                 ...............................................................                                                                 ....                       ....                                                                 ...............................................................                                 ...............................................................                                                                 ....                           ",
"                            ....                                                                 ...............................................................                                 ...............................................................                                                                 ....                       ....                                                                 ...............................................................                                 ...............................................................                                                                 ....                           ",
"                            ....                                                                 ...............................................................                                 ...............................................................                                                                 ....                       ....                                                                 ...............................................................                                 ...............................................................                                                                 ....                           ",
"                            ....                                                                 ....                                                       ....                                 ....                                                       ....                                                                 ....                       ....                                                                 ....                                                       ....                                 ....                                                       ....                                                                 ....                           ",
"                            ....                                                                 ....                                                       ....                                 ....                                                       ....                                                                 ....                       ....                                                                 ....                                                       ....                                 ....                                                       ....                                                                 ....                           ",
"                            ....                                                                 ....                                                       ....                                 ....                                                       ....                                                                 ....                       ....                                                                 ....                                                       ....                                 ....                                                       ....                                                                 ....                           ",
"                            ....                                                                 ....                                                       ....                                 ....                                                       ....                                                                 ....                       ....                                                                 ....                                                       ....                                 ....                                                       ....                                                                 ....                           ",
"                            ....                                                                 ....                                                       ....                                 ....                                                       ....                                                                 ....                       ....                                                                 ....                                                       ....                                 ....                                                       ....                                                                 ....                           ",
"                            ....                                                                 ....                                                       ....                                 ....                                                       ....                                                                 ....                       ....                                                                 ....                                                       ....                                 ....                                                       ....                                                                 ....                           ",
"                            ....                                                                 ....                                                       ....                                 ....                                                       ....                                                                 ....                       ....                                                                 ....                                                       ....                                 ....                                                       ....                                                                 ....                           ",
"                            ....                                                                 ....                                                       ....                                 ....                                                       ....                                                                 ....                       ....                                                                 ....                                                       ....                                 ....                                                       ....                                                                 ....                           ",
"                            ....                                                                 ....                                                       ....                                 ....                                                       ....                                                                 ....                       ....                                                                 ....                                                       ....                                 ....                                                       ....                                                                 ....                           ",
"                            ....                                                                 ....                                                       ....                                 ....                                                       ....                                                                 ....                       ....                                                                 ....                                                       ....                                 ....                                                       ....                                                                 ....                           ",
"                            ....                                                                 ....                                                       ....                                 ....                                                       ....                                                                 ....                       ....                                                                 ....                                                       ....                                 ....                                                       ....                                                                 ....                           ",
"                            ....                                                                 ....                                                       ....                                 ....                                                       ....                                                                 ....                       ....                                                                 ....                                                       ....                                 ....                                                       ....                                                                 ....                           ",
"                            ....                                                                 ....                                                       ....                                 ....                                                       ....                                                                 ....                       ....                                                                 ....                                                       ....                                 ....                                                       ....                                                                 ....                           ",
"                            ....                                                                 ....                                                       ....                                 ....                                                       ....                                                                 ....                       ....                                                                 ....                                                       ....                                 ....                                                       ....                                                                 ....                           ",
"                            ....                                                                 ....                                                       ....                                 ....                                                       ....                                                                 ....                       ....                                                                 ....                                                       ....                                 ....                                                       ....                                                                 ....                           ",
"                            ....                                                                 ....                                                       ....                                 ....                                                       ....                                                                 ....                       ....                                                                 ....                                                       ....                                 ....                                                       ....                                                                 ....                           ",
"                            ....                                                                 ....                                                       ....                                 ....                                                       ....                                                                 ....                       ....                                                                 ....                                                       ....                                 ....                                                       ....                                                                 ....                           ",
"                            ....                                                                 ....                                                       ....                                 ....                                                       ....                                                                 ....                       ....                                                                 ....                                                       ....                                 ....                                                       ....                                                                 ....                           ",
"                            ....                                                                 ....                                                       ....                                 ....                                                       ....                                                                 ....                       ....                                                                 ....                                                       ....                                 ....                                                       ....                                                                 ....                           ",
"                            ....                                                                 ....                                                       ....                                 ....                                                       ....                                                                 ....                       ....                                                                 ....                                                       ....                                 ....                                                       ....                                                                 ....                           ",
"                            ....                                                                 ....                                                       ....                                 ....                                                       ....                                                                 ....                       ....                                                                 ....                                                       ....                                 ....                                                       ....                                                                 ....                           ",
"                            ....                                                                 ....                                                       ....                                 ....                                                       ....                                                                 ....                       ....                                                                 ....                                                       ....                                 ....                                                       ....                                                                 ....                           ",
"                            ....                                                                 ....                                                       ....                                 ....                                                       ....                                                                 ....                       ....                                                                 ....                                                       ....                                 ....                                                       ....                                                                 ....                           ",
"                            ....                                                                 ....................................                       ....                                 ....                       ....................................                                                                 ...............................                                                                 ....................................                       ....                                 ....                       ....................................                                                                 ....                           ",
"                            ....                                                                 ....................................                       ....                                 ....                       ....................................                                                                 ...............................                                                                 ....................................                       ....                                 ....                       ....................................                                                                 ....                           ",
"                            ....                                                                 ....................................                       ....                                 ....                       ....................................                                                                 ...............................                                                                 ....................................                       ....                                 ....                       ....................................                                                                 ....                           ",
"                            ....                                                                 ....................................                       ....                                 ....                       ....................................                                                                 ...............................                                                                 ....................................                       ....                                 ....                       ....................................                                                                 ....                           ",
"                            ....                                                                                                 ....                       ....                                 ....                       ....                                                                                                                                                                                                                                 ....                       ....                                 ....                       ....                                                                                                 ....                           ",
"                            ....................................                                                                 ....                       ....                                 ....                       ....                               .                                                                                                                                                                                                 ....                       ....                                 ....                       ....                                                                 ....................................                           ",
"                            ....................................                                                                 ....                       ....                                 ....                       ....                                                                                                                                                                                                                                 ....                       ....                                 ....                       ....                                                                 ....................................                           ",
"                            ....................................                                                                 ....                       ....                                 ....                       ....                                                                                                                                                                                                                                 ....                       ....                                 ....                       ....                                                                 ....................................                           ",
"                            ....................................                                                                 ....                       ....                                 ....                       ....                                                                                                                                                                                                                                 ....                       ....                                 ....                       ....                                                                 ....................................                           ",
"                                                            ....                                                                 ....                       ....                                 ....                       ....                                                                                                                                                                                                                                 ....                       ....                                 ....                       ....                                                                 ....                                                           ",
"                                                            ....                                                                 ....                       ....                                 ....                       ....                                                                                                                                                                                                                                 ....                       ....                                 ....                       ....                                                                 ....                                                           ",
"                                                            ....                                                                 ....                       ....                                 ....                       ....                                                                                                                                                                                                                                 ....                       ....                                 ....                       ....                                                                 ....                                                           ",
"                                                            ....                                                                 ....                       ....                                 ....                       ....                                                                                                                                                                                                                                 ....                       ....                                 ....                       ....                                                                 ....                                                           ",
"                                                            ....                                                                 ....                       ....                                 ....                       ....                                                                                                                                                                                                                                 ....                       ....                                 ....                       ....                                                                 ....                                                           ",
"                                                            ....                                                                 ....                       ....                                 ....                       ....                                                                                                                                                                                                                                 ....                       ....                                 ....                       ....                                                                 ....                                                           ",
"                                                            ....                                                                 ....                       ....                                 ....                       ....                                                                                                                                                                                                                                 ....                       ....                                 ....                       ....                                                                 ....                                                           ",
"                                                            ....                                                                 ....                       ....                                 ....                       ....                                                                                                                                                                                                                                 ....                       ....                                 ....                       ....                                                                 ....                                                           ",
"                                                            ....                                                                 ....                       ....                                 ....                       ....                                                                                                                                                                                                                                 ....                       ....                                 ....                       ....                                                                 ....                                                           ",
"                                                            ....                                                                 ....                       ....                                 ....                       ....                                                                                                                                                                                                                                 ....                       ....                                 ....                       ....                                                                 ....                                                           ",
"                                                            ....                                                                 ....                       ....                                 ....                       ....                                                                                                                                                                                                                                 ....                       ....                                 ....                       ....                                                                 ....                                                           ",
"                                                            ....                                                                 ....                       ....                                 ....                       ....                                                                                                                                                                                                                                 ....                       ....                                 ....                       ....                                                                 ....                                                           ",
"                                                            ....                                                                 ....                       ....                                 ....                       ....                                                                                                                                                                                                                                 ....                       ....                                 ....                       ....                                                                 ....                                                           ",
"                                                            ....                                                                 ....                       ....                                 ....                       ....                                                                                                                                                                                                                                 ....                       ....                                 ....                       ....                                                                 ....                                                           ",
"                                                            ....                                                                 ....                       ....                                 ....                       ....                                                                                                                                                                                                                                 ....                       ....                                 ....                       ....                                                                 ....                                                           ",
"                                                            ....                                                                 ....                       ....                                 ....                       ....                                                                                                                                                                                                                                 ....                       ....                                 ....                       ....                                                                 ....                                                           ",
"                                                            ....                                                                 ....                       ....                                 ....                       ....                                                                                                                                                                                                                                 ....                       ....                                 ....                       ....                                                                 ....                                                           ",
"                                                            ....                                                                 ....                       ....                                 ....                       ....                                                                                                                                                                                                                                 ....                       ....                                 ....                       ....                                                                 ....                                                           ",
"                                                            ....                                                                 ....                       ....                                 ....                       ....                                                                                                                                                                                                                                 ....                       ....                                 ....                       ....                                                                 ....                                                           ",
"                                                            ....                                                                 ....                       ....                                 ....                       ....                                                                                                                                                                                                                                 ....                       ....                                 ....                       ....                                                                 ....                                                           ",
"                                                            ....                                                                 ....                       ....                                 ....                       ....                                                                                                                                                                                                                                 ....                       ....                                 ....                       ....                                                                 ....                                                           ",
"                                                            ....                                                                 ....                       ....                                 ....                       ....                                                                                                                                                                                                                                 ....                       ....                                 ....                       ....                                                                 ....                                                           ",
"                                                            ....                                                                 ....                       ....                                 ....                       ....                                                                                                                                                                                                                                 ....                       ....                                 ....                       ....                                                                 ....                                                           ",
"                            ....................................                                                                 ...............................                                 ....                       ....                                                                                                                                                                                                                                 ....                       ....                                 ...............................                                                                 ....................................                           ",
"                            ....................................                                                                 ...............................                                 ....                       ....                                                                                                                                                                                                                                 ....                       ....                                 ...............................                                                                 ....................................                           ",
"                            ....................................                                                                 ...............................                                 ....                       ....                                                                                                                                                                                                                                 ....                       ....                                 ...............................                                                                 ....................................                           ",
"                            ....................................                                                                 ...............................                                 ....                       ....                                                                                                                                                                                                                                 ....                       ....                                 ...............................                                                                 ....................................                           ",
"                            ....                                                                                                                                                                 ....                       ....                                                                                                                                                                                                                                 ....                       ....                                                                                                                                                                 ....                           ",
"                            ....                                                                                                                                                                 ....                       ....                                                                 ...............................................................................................                                                                 ....                       ....                                                                                                                                                                 ....                           ",
"                            ....                                                                                                                                                                 ....                       ....                                                                 ...............................................................................................                                                                 ....                       ....                                                                                                                                                                 ....                           ",
"                            ....                                                                                                                                                                 ....                       ....                                                                 ...............................................................................................                                                                 ....                       ....                                                                                                                                                                 ....                           ",
"                            ....                                                                                                                                                                 ....                       ....                                                                 ...............................................................................................                                                                 ....                       ....                                                                                                                                                                 ....                           ",
"                            ....                                                                                                                                                                 ....                       ....                                                                 ....                                                                                       ....                                                                 ....                       ....                                                                                                                                                                 ....                           ",
"                            ....                                                                                                                                                                 ....                       ....                                                                 ....                                                                                       ....                                                                 ....                       ....                                                                                                                                                                 ....                           ",
"                            ....                                                                                                                                                                 ....                       ....                                                                 ....                                                                                       ....                                                                 ....                       ....                                                                                                                                                                 ....                           ",
"                            ....                                                                                                                                                                 ....                       ....                                                                 ....                                                                                       ....                                                                 ....                       ....                                                                                                                                                                 ....                           ",
"                            ....                                                                                                                                                                 ....                       ....                                                                 ....                                                                                       ....                                                                 ....                       ....                                                                                                                                                                 ....                           ",
"                            ....                                                                                                                                                                 ....                       ....                                                                 ....                                                                                       ....                                                                 ....                       ....                                                                                                                                                                 ....                           ",
"                            ....                                                                                                                                                                 ....                       ....                                                                 ....                                                                                       ....                                                                 ....                       ....                                                                                                                                                                 ....                           ",
"                            ....                                                                                                                                                                 ....                       ....                                                                 ....                                                                                       ....                                                                 ....                       ....                                                                                                                                                                 ....                           ",
"                            ....                                                                                                                                                                 ....                       ....                                                                 ....                                                                                       ....                                                                 ....                       ....                                                                                                                                                                 ....                           ",
"                            ....                                                                                                                                                                 ....                       ....                                                                 ....                                                                                       ....                                                                 ....                       ....                                                                                                                                                                 ....                           ",
"                            ....                                                                                                                                                                 ....                       ....                                                                 ....                                                                                       ....                                                                 ....                       ....                                                                                                                                                                 ....                           ",
"                            ....                                                                                                                                                                 ....                       ....                                                                 ....                                                                                       ....                                                                 ....                       ....                                                                                                                                                                 ....                           ",
"                            ....                                                                                                                                                                 ....                       ....                                                                 ....                                                                                       ....                                                                 ....                       ....                                                                                                                                                                 ....                           ",
"                            ....                                                                                                                                                                 ....                       ....                                                                 ....                                                                                       ....                                                                 ....                       ....                                                                                                                                                                 ....                           ",
"                            ....                                                                                                                                                                 ....                       ....                                                                 ....                                                                                       ....                                                                 ....                       ....                                                                                                                                                                 ....                           ",
"                            ....                                                                                                                                                                 ....                       ....                                                                 ....                                                                                       ....                                                                 ....                       ....                                                                                                                                                                 ....                           ",
"                            ....                                                                                                                                                                 ....                       ....                                                                 ....                                                                                       ....                                                                 ....                       ....                                                                                                                                                                 ....                           ",
"                            ....                                                                                                                                                                 ....                       ....                                                                 ....                                                                                       ....                                                                 ....                       ....                                                                                                                                                                 ....                           ",
"                            ....                                                                                                                                                                 ....                       ....                                                                 ....                                                                                       ....                                                                 ....                       ....                                                                                                                                                                 ....                           ",
"                            ....                                                                                                                                                                 ....                       ....                                                                 ....                                                                                       ....                                                                 ....                       ....                                                                                                                                                                 ....                           ",
"                            ....                                                                                                                                                                 ....                       ....                                                                 ....                                                                                       ....                                                                 ....                       ....                                                                                                                                                                 ....                           ",
"                            ....                                                                                                                                                                 ....                       ....                                                                 ....                                                                                       ....                                                                 ....                       ....                                                                                                                                                                 ....                           ",
"                            ....                                                                                                                                                                 ....                       ....                                                                 ....                                                                                       ....                                                                 ....                       ....                                                                                                                                                                 ....                           ",
"                            ....                                                                                                                                                                 ...............................                                                                 ...............................................................................................                                                                 ...............................                                                                                                                                                                 ....                           ",
"                            ....                                                                                                                                                                 ...............................                                                                 ...............................................................................................                                                                 ...............................                                                                                                                                                                 ....                           ",
"                            ....                                                                                                                                                                 ...............................                                                                 ...............................................................................................                                                                 ...............................                                                                                                                                                                 ....                           ",
"                            ....                                                                                                                                                                 ...............................                                                                 ...............................................................................................                                                                 ...............................                                                                                                                                                                 ....                           ",
"                            ....                                                                                                                                                                                                                                                                                                                                                                                                                                                                                                                                                                                                                                 ....                           ",
"                            ....                                                                                                                                                                                                                                                                                                                                                                                                                                                                                                                                                                                                                                 ....                           ",
"                            ....                                                                                                                                                                                                                                                                                                                                                                                                                                                                                                                                                                                                                                 ....                           ",
"                            ....                                                                                                                                                                                                                                                                                                                                                                                                                                                                                                                                                                                                                                 ....                           ",
"                            ....                                                                                                                                                                                                                                                                                                                                                                                                                                                                                                                                                                                                                                 ....                           ",
"                            ....                                                                                                                                                                                                                                                                                                                                                                                                                                                                                                                                                                                                                                 ....                           ",
"                            ....                                                                                                                                                                                                                                                                                                                                                                                                                                                                                                                                                                                                                                 ....                           ",
"                            ....                                                                                                                                                                                                                                                                                                                                                                                                                                                                                                                                                                                                                                 ....                           ",
"                            ....                                                                                                                                                                                                                                                                                                                                                                                                                                                                                                                                                                                                                                 ....                           ",
"                            ....                                                                                                                                                                                                                                                                                                                                                                                                                                                                                                                                                                                                                                 ....                           ",
"                            ....                                                                                                                                                                                                                                                                                                                                                                                                                                                                                                                                                                                                                                 ....                           ",
"                            ....                                                                                                                                                                                                                                                                                                                                                                                                                                                                                                                                                                                                                                 ....                           ",
"                            ....                                                                                                                                                                                                                                                                                                                                                                                                                                                                                                                                                                                                                                 ....                           ",
"                            ....                                                                                                                                                                                                                                                                                                                                                                                                                                                                                                                                                                                                                                 ....                           ",
"                            ....                                                                                                                                                                                                                                                                                                                                                                                                                                                                                                                                                                                                                                 ....                           ",
"                            ....                                                                                                                                                                                                                                                                                                                                                                                                                                                                                                                                                                                                                                 ....                           ",
"                            ....                                                                                                                                                                                                                                                                                                                                                                                                                                                                                                                                                                                                                                 ....                           ",
"                            ....                                                                                                                                                                                                                                                                                                                                                                                                                                                                                                                                                                                                                                 ....                           ",
"                            ....                                                                                                                                                                                                                                                                                                                                                                                                                                                                                                                                                                                                                                 ....                           ",
"                            ....                                                                                                                                                                                                                                                                                                                                                                                                                                                                                                                                                                                                                                 ....                           ",
"                            ....                                                                                                                                                                                                                                                                                                                                                                                                                                                                                                                                                                                                                                 ....                           ",
"                            ....                                                                                                                                                                                                                                                                                                                                                                                                                                                                                                                                                                                                                                 ....                           ",
"                            ....                                                                                                                                                                                                                                                                                                                                                                                                                                                                                                                                                                                                                                 ....                           ",
"                            ....                                                                                                                                                                                                                                                                                                                                                                                                                                                                                                                                                                                                                                 ....                           ",
"                            ....                                                                                                                                                                                                                                                                                                                                                                                                                                                                                                                                                                                                                                 ....                           ",
"                            ....                                                                                                                                                                                                                                                                                                                                                                                                                                                                                                                                                                                                                                 ....                           ",
"                            ....                                                                                                                                                                                                                                                                                                                                                                                                                                                                                                                                                                                                                                 ....                           ",
"                            ....                                                                                                                                                                                                                                                                                                                                                                                                                                                                                                                                                                                                                                 ....                           ",
"                            ....                                                                                                                                                                                                                                                                                                                                                                                                                                                                                                                                                                                                                                 ....                           ",
"                            ....                                                                                                                                                                                                                                                                                                                                                                                                                                                                                                                                                                                                                                 ....                           ",
"                            ....                                                                                                                                                                                                                                                                                                                                                                                                                                                                                                                                                                                                                                 ....                           ",
"                            ....                                                                                                                                                                                                                                                                                                                                                                                                                                                                                                                                                                                                                                 ....                           ",
"                            ....                                                                                                                                                                                                                                                                                                                                                                                                                                                                                                                                                                                                                                 ....                           ",
"                            .........................................................................................................................................................................................................................................................................................................................................................................................................................................................................................................................................................................................................................................                           ",
"                            .........................................................................................................................................................................................................................................................................................................................................................................................................................................................................................................................................................................................................................................                           ",
"                            .........................................................................................................................................................................................................................................................................................................................................................................................................................................................................................................................................................................................................................................                           ",
"                            .........................................................................................................................................................................................................................................................................................................................................................................................................................................................................................................................................................................................................................................                           ",
"                                                                                                                                                                                                                                                                                                                                                                                                                                                                                                                                                                                                                                                                                                ",
"                                                                                                                                                                                                                                                                                                                                                                                                                                                                                                                                                                                                                                                                                                ",
"                                                                                                                                                                                                                                                                                                                                                                                                                                                                                                                                                                                                                                                                                                ",
"                                                                                                                                                                                                                                                                                                                                                                                                                                                                                                                                                                                                                                                                                                ",
"                                                                                                                                                                                                                                                                                                                                                                                                                                                                                                                                                                                                                                                                                                ",
"                                                                                                                                                                                                                                                                                                                                                                                                                                                                                                                                                                                                                                                                                                ",
"                                                                                                                                                                                                                                                                                                                                                                                                                                                                                                                                                                                                                                                                                                ",
"                                                                                                                                                                                                                                                                                                                                                                                                                                                                                                                                                                                                                                                                                                ",
"                                                                                                                                                                                                                                                                                                                                                                                                                                                                                                                                                                                                                                                                                                ",
"                                                                                                                                                                                                                                                                                                                                                                                                                                                                                                                                                                                                                                                                                                ",
"                                                                                                                                                                                                                                                                                                                                                                                                                                                                                                                                                                                                                                                                                                ",
"                                                                                                                                                                                                                                                                                                                                                                                                                                                                                                                                                                                                                                                                                                ",
"                                                                                                                                                                                                                                                                                                                                                                                                                                                                                                                                                                                                                                                                                                ",
"                                                                                                                                                                                                                                                                                                                                                                                                                                                                                                                                                                                                                                                                                                ",
"                                                                                                                                                                                                                                                                                                                                                                                                                                                                                                                                                                                                                                                                                                ",
"                                                                                                                                                                                                                                                                                                                                                                                                                                                                                                                                                                                                                                                                                                ",
"                                                                                                                                                                                                                                                                                                                                                                                                                                                                                                                                                                                                                                                                                                ",
"                                                                                                                                                                                                                                                                                                                                                                                                                                                                                                                                                                                                                                                                                                ",
"                                                                                                                                                                                                                                                                                                                                                                                                                                                                                                                                                                                                                                                                                                ",
"                                                                                                                                                                                                                                                                                                                                                                                                                                                                                                                                                                                                                                                                                                ",
"                                                                                                                                                                                                                                                                                                                                                                                                                                                                                                                                                                                                                                                                                                ",
"                                                                                                                                                                                                                                                                                                                                                                                                                                                                                                                                                                                                                                                                                                ",
"                                                                                                                                                                                                                                                                                                                                                                                                                                                                                                                                                                                                                                                                                                ",
"                                                                                                                                                                                                                                                                                                                                                                                                                                                                                                                                                                                                                                                                                                ",
"                                                                                                                                                                                                                                                                                                                                                                                                                                                                                                                                                                                                                                                                                                ",
"                                                                                                                                                                                                                                                                                                                                                                                                                                                                                                                                                                                                                                                                                                ",
"                                                                                                                                                                                                                                                                                                                                                                                                                                                                                                                                                                                                                                                                                                "
};
