/* XPM */
static char *result[] = {
/* columns rows colors chars-per-pixel */
"32 32 4 1 ",
"  c #FFB752",
". c #4C68B5",
"X c white",
"o c None",
/* pixels */
"ooooooooooo          ooooooooooo",
"ooooooooooo          ooooooooooo",
"ooooooo                  ooooooo",
"ooooooo                  ooooooo",
"ooooooo                  ooooooo",
"ooooo                      ooooo",
"ooooo                      ooooo",
"oo       XXXXX         XXXX   oo",
"oo       XXXXX         XXXX   oo",
"oo     XXXXXXXXX     XXXXXXXXXoo",
"oo     XXXXXXXXX     XXXXXXXXXoo",
"oo     XXXX.....     XXXX.....oo",
"oo     XXXX.....     XXXX.....oo",
"oo     XXXX.....     XXXX.....oo",
"       XXXX.....     XXXX.....  ",
"       XXXX.....     XXXX.....  ",
"         XXXXX         XXXX     ",
"         XXXXX         XXXX     ",
"                                ",
"                                ",
"                                ",
"                                ",
"                                ",
"                                ",
"                                ",
"                                ",
"                                ",
"     oo       oooo       oo     ",
"     oo       oooo       oo     ",
"     oo       oooo       oo     ",
"  ooooooo     oooo     ooooooo  ",
"  ooooooo     oooo     ooooooo  "
};
