/* XPM */
static char *f0e6fc2f06214f5fd562903cd443386f51eRx1kN180bCmGS[] = {
/* columns rows colors chars-per-pixel */
"32 32 3 1 ",
"  c None",
". c black",
"X c #FFE100",
/* pixels */
"            ........            ",
"         ...XXXXXXXX...         ",
"       ..XXXXXXXXXXXXXX..       ",
"      .XXXXXXXXXXXXXXXXXX.      ",
"     .XXXXXXXXXXXXXXXXXXXX.     ",
"    .XXXXXXXXXXXXXXXXXXXXXX.    ",
"   .XXXXXXXXXXXXXXXXXXXXXXXX.   ",
"  .XXXXXXXXXXXXXXXXXXXXXXXXXX.  ",
"  .XXXXXXXXXXXXXXXXXXXXXXXXXX.  ",
" .XXXXXXXXXXXXXXXXXXXXXXXXXXXX. ",
" .XXXXXXXXXXXXXXXXXXXXXXXXXXXX. ",
" ...XXXXXXXXXXXXXXXXXXXXXXXXXX. ",
"    ..XXXXXXXXXXXXXXXXXXXXXXXXX.",
"      ...XXXXXXXXXXXXXXXXXXXXXX.",
"         ...XXXXXXXXXXXXXXXXXXX.",
"            ..XXXXXXXXXXXXXXXXX.",
"              ..XXXXXXXXXXXXXXX.",
"           ...XXXXXXXXXXXXXXXXX.",
"       ....XXXXXXXXXXXXXXXXXXXX.",
"    ...XXXXXXXXXXXXXXXXXXXXXXXX.",
" ...XXXXXXXXXXXXXXXXXXXXXXXXXX. ",
" .XXXXXXXXXXXXXXXXXXXXXXXXXXXX. ",
" .XXXXXXXXXXXXXXXXXXXXXXXXXXXX. ",
"  .XXXXXXXXXXXXXXXXXXXXXXXXXX.  ",
"  .XXXXXXXXXXXXXXXXXXXXXXXXXX.  ",
"   .XXXXXXXXXXXXXXXXXXXXXXXX.   ",
"    .XXXXXXXXXXXXXXXXXXXXXX.    ",
"     .XXXXXXXXXXXXXXXXXXXX.     ",
"      .XXXXXXXXXXXXXXXXXX.      ",
"       ..XXXXXXXXXXXXXX..       ",
"         ...XXXXXXXX...         ",
"            ........            "
};
