/* XPM */
static char *_d857ad852fd4d5cdcd83c6b91a71b13mRvTzHj0hxrzlPSK[] = {
/* columns rows colors chars-per-pixel */
"32 32 3 1 ",
"  c None",
". c black",
"X c #FFE100",
/* pixels */
"            ........            ",
"         ...XXXXXXXX...         ",
"       ..XXXXXXXXXXXXXX..       ",
"      .XXXXXXXXXXXXXXXXXX.      ",
"     .XXXXXXXXXXXXXXXXXXXX.     ",
"    .XXXXXXXXXXXXXXXXXXXXXX.    ",
"   .XXXXXXXXXXXXXXXXXXXXXXXX.   ",
"  .XXXXXXXXXXXXXXXXXXXXXXXXXX.  ",
"  .XXXXXXXXXXXXXXXXXXXXXXXXXX.  ",
" .XXXXXXXXXXXXXXXXXXXXXXXXXXXX. ",
" .XXXXXXXXXXXXXXXXXXXXXXXXXXXX. ",
" .XXXXXXXXXXXXXXXXXXXXXXXXXXXX. ",
".XXXXXXXXXXXXXXXXXXXXXXXXXXXXXX.",
".XXXXXXXXXXXXXXXXXXXXXXXXXXXXXX.",
".XXXXXXXXXXXXXXXXXXXXXXXXXXXXXX.",
".XXXXXXXXXXXXXXXXXXXXXXXXXXXXXX.",
".XXXXXXXXXXXXXXX.XXXXXXXXXXXXXX.",
".XXXXXXXXXXXXXX. .XXXXXXXXXXXXX.",
".XXXXXXXXXXXXX.   .XXXXXXXXXXXX.",
".XXXXXXXXXXXX.     .XXXXXXXXXXX.",
" .XXXXXXXXXX.       .XXXXXXXXX. ",
" .XXXXXXXXX.        .XXXXXXXXX. ",
" .XXXXXXXX.          .XXXXXXXX. ",
"  .XXXXXX.            .XXXXXX.  ",
"  .XXXXX.              .XXXXX.  ",
"   .XXX.                .XXX.   ",
"    .X.                  .X.    ",
"     .                    .     ",
"                                ",
"                                ",
"                                ",
"                                "
};
