/* XPM */
static char *cc1d8fb972fb4972fcf7aadbd53f0c99sm6DUrF2ebfonogI[] = {
/* columns rows colors chars-per-pixel */
"32 32 3 1 ",
"  c None",
". c black",
"X c #FFE100",
/* pixels */
"            ........            ",
"         ...XXXXXXXX...         ",
"       ..XXXXXXXXXXXXXX..       ",
"      .XXXXXXXXXXXXXXXXXX.      ",
"     .XXXXXXXXXXXXXXXXXXXX.     ",
"    .XXXXXXXXXXXXXXXXXXXXXX.    ",
"     .XXXXXXXXXXXXXXXXXXXXXX.   ",
"      .XXXXXXXXXXXXXXXXXXXXXX.  ",
"       .XXXXXXXXXXXXXXXXXXXXX.  ",
"        .XXXXXXXXXXXXXXXXXXXXX. ",
"         .XXXXXXXXXXXXXXXXXXXX. ",
"          .XXXXXXXXXXXXXXXXXXX. ",
"           .XXXXXXXXXXXXXXXXXXX.",
"            .XXXXXXXXXXXXXXXXXX.",
"             .XXXXXXXXXXXXXXXXX.",
"              .XXXXXXXXXXXXXXXX.",
"               .XXXXXXXXXXXXXXX.",
"              .XXXXXXXXXXXXXXXX.",
"             .XXXXXXXXXXXXXXXXX.",
"            .XXXXXXXXXXXXXXXXXX.",
"          ..XXXXXXXXXXXXXXXXXX. ",
"         .XXXXXXXXXXXXXXXXXXXX. ",
"        .XXXXXXXXXXXXXXXXXXXXX. ",
"       .XXXXXXXXXXXXXXXXXXXXX.  ",
"      .XXXXXXXXXXXXXXXXXXXXXX.  ",
"     .XXXXXXXXXXXXXXXXXXXXXX.   ",
"    .XXXXXXXXXXXXXXXXXXXXXX.    ",
"     .XXXXXXXXXXXXXXXXXXXX.     ",
"      .XXXXXXXXXXXXXXXXXX.      ",
"       ..XXXXXXXXXXXXXX..       ",
"         ...XXXXXXXX...         ",
"            ........            "
};
