/* XPM */
static char *a8c2a8b97cdb46c2e98aacec58647f7e5L6LDP0kN9ql5nUO[] = {
/* columns rows colors chars-per-pixel */
"32 32 3 1 ",
"  c None",
". c black",
"X c #FFE100",
/* pixels */
"            ........            ",
"         ...XXXXXXXX...         ",
"       ..XXXXXXXXXXXXXX..       ",
"      .XXXXXXXXXXXXXXXXXX.      ",
"     .XXXXXXXXXXXXXXXXXXXX.     ",
"    .XXXXXXXXXXXXXXXXXXXXXX.    ",
"   .XXXXXXXXXXXXXXXXXXXXXXXX.   ",
"  .XXXXXXXXXXXXXXXXXXXXXXXXXX.  ",
"  .XXXXXXXXXXXXXXXXXXXXXXXXXX.  ",
" .XXXXXXXXXXXXXXXXXXXXXXXXXXXX. ",
" .XXXXXXXXXXXXXXXXXXXXXXXXXXXX. ",
" .XXXXXXXXXXXXXXXXXXXXXXXXXXXX. ",
".XXXXXXXXXXXXXXXXXXXXXXXXXXXXXX.",
".XXXXXXXXXXXXXXXXXXXXXXXXXXXXXX.",
".XXXXXXXXXXXXXXXXXXXXXXXXXXXXXX.",
".XXXXXXXXXXXXXXXXXXXXXXXXXXXXXX.",
".XXXXXXXXXXXXXXX.XXXXXXXXXXXXXX.",
".XXXXXXXXXXXXXXX.XXXXXXXXXXXXXX.",
".XXXXXXXXXXXXXX. .XXXXXXXXXXXXX.",
".XXXXXXXXXXXXXX. .XXXXXXXXXXXXX.",
" .XXXXXXXXXXXX.  .XXXXXXXXXXXX. ",
" .XXXXXXXXXXXX.   .XXXXXXXXXXX. ",
" .XXXXXXXXXXXX.   .XXXXXXXXXXX. ",
"  .XXXXXXXXXX.    .XXXXXXXXXX.  ",
"  .XXXXXXXXXX.    .XXXXXXXXXX.  ",
"   .XXXXXXXXX.     .XXXXXXXX.   ",
"    .XXXXXXX.      .XXXXXXX.    ",
"     .XXXXXX.      .XXXXXX.     ",
"      .XXXX.        .XXXX.      ",
"       ..XX.        .XX..       ",
"         ...        ...         ",
"                                "
};
