/* XPM */
static char *a79d54c0a2ca4debffc854652c0da67bV2ua9UtELAg9dIkG[] = {
/* columns rows colors chars-per-pixel */
"32 32 3 1 ",
"  c None",
". c black",
"X c #FFE100",
/* pixels */
"            ........            ",
"         ...XXXXXXXX...         ",
"       ..XXXXXXXXXXXXXX..       ",
"      .XXXXXXXXXXXXXXXXXX.      ",
"     .XXXXXXXXXXXXXXXXXXXX.     ",
"    .XXXXXXXXXXXXXXXXXXXXXX.    ",
"   .XXXXXXXXXXXXXXXXXXXXXXXX.   ",
"  .XXXXXXXXXXXXXXXXXXXXXXXXXX.  ",
"  .XXXXXXXXXXXXXXXXXXXXXXXXXX.  ",
" .XXXXXXXXXXXXXXXXXXXXXXXXXXXX. ",
" .XXXXXXXXXXXXXXXXXXXXXXXXXXXX. ",
" .XXXXXXXXXXXXXXXXXXXXXXXXXX... ",
".XXXXXXXXXXXXXXXXXXXXXXXX...    ",
".XXXXXXXXXXXXXXXXXXXX....       ",
".XXXXXXXXXXXXXXXXX...           ",
".XXXXXXXXXXXXXXX..              ",
".XXXXXXXXXXXXXXXXX..            ",
".XXXXXXXXXXXXXXXXXXX...         ",
".XXXXXXXXXXXXXXXXXXXXXX...      ",
".XXXXXXXXXXXXXXXXXXXXXXXXX..    ",
" .XXXXXXXXXXXXXXXXXXXXXXXXXX... ",
" .XXXXXXXXXXXXXXXXXXXXXXXXXXXX. ",
" .XXXXXXXXXXXXXXXXXXXXXXXXXXXX. ",
"  .XXXXXXXXXXXXXXXXXXXXXXXXXX.  ",
"  .XXXXXXXXXXXXXXXXXXXXXXXXXX.  ",
"   .XXXXXXXXXXXXXXXXXXXXXXXX.   ",
"    .XXXXXXXXXXXXXXXXXXXXXX.    ",
"     .XXXXXXXXXXXXXXXXXXXX.     ",
"      .XXXXXXXXXXXXXXXXXX.      ",
"       ..XXXXXXXXXXXXXX..       ",
"         ...XXXXXXXX...         ",
"            ........            "
};
