/* XPM */
static char *_9d20db306144508ac4946a4321336090IKZyVrBhZ89l80W[] = {
/* columns rows colors chars-per-pixel */
"32 32 3 1 ",
"  c None",
". c black",
"X c #FFE100",
/* pixels */
"                                ",
"                                ",
"                                ",
"                                ",
"     .                    .     ",
"    .X.                  .X.    ",
"   .XXX.                .XXX.   ",
"  .XXXXX.              .XXXXX.  ",
"  .XXXXXX.            .XXXXXX.  ",
" .XXXXXXXX.          .XXXXXXXX. ",
" .XXXXXXXXX.        .XXXXXXXXX. ",
" .XXXXXXXXX.       .XXXXXXXXXX. ",
".XXXXXXXXXXX.     .XXXXXXXXXXXX.",
".XXXXXXXXXXXX.   .XXXXXXXXXXXXX.",
".XXXXXXXXXXXXX. .XXXXXXXXXXXXXX.",
".XXXXXXXXXXXXXX.XXXXXXXXXXXXXXX.",
".XXXXXXXXXXXXXXXXXXXXXXXXXXXXXX.",
".XXXXXXXXXXXXXXXXXXXXXXXXXXXXXX.",
".XXXXXXXXXXXXXXXXXXXXXXXXXXXXXX.",
".XXXXXXXXXXXXXXXXXXXXXXXXXXXXXX.",
" .XXXXXXXXXXXXXXXXXXXXXXXXXXXX. ",
" .XXXXXXXXXXXXXXXXXXXXXXXXXXXX. ",
" .XXXXXXXXXXXXXXXXXXXXXXXXXXXX. ",
"  .XXXXXXXXXXXXXXXXXXXXXXXXXX.  ",
"  .XXXXXXXXXXXXXXXXXXXXXXXXXX.  ",
"   .XXXXXXXXXXXXXXXXXXXXXXXX.   ",
"    .XXXXXXXXXXXXXXXXXXXXXX.    ",
"     .XXXXXXXXXXXXXXXXXXXX.     ",
"      .XXXXXXXXXXXXXXXXXX.      ",
"       ..XXXXXXXXXXXXXX..       ",
"         ...XXXXXXXX...         ",
"            ........            "
};
