/* XPM */
static char *result[] = {
/* columns rows colors chars-per-pixel */
"32 32 4 1 ",
"  c #4C68B5",
". c #6AC3E6",
"X c white",
"o c None",
/* pixels */
"ooooooooooo..........ooooooooooo",
"ooooooooooo..........ooooooooooo",
"ooooooo..................ooooooo",
"ooooooo..................ooooooo",
"ooooooo..................ooooooo",
"ooooo......................ooooo",
"ooooo......................ooooo",
"oo.......XXXXX.........XXXX...oo",
"oo.......XXXXX.........XXXX...oo",
"oo.....XXXXXXXXX.....XXXXXXXXXoo",
"oo.....XXXXXXXXX.....XXXXXXXXXoo",
"oo.....XXXXXXXXX.....XXXXXXXXXoo",
"oo.....XXXXXXXXX.....XXXXXXXXXoo",
"oo.....XX     XX.....XX     XXoo",
".......XX     XX.....XX     XX..",
".......XX     XX.....XX     XX..",
".........     .........     ....",
".........     .........     ....",
"................................",
"................................",
"................................",
"................................",
"................................",
"................................",
"................................",
"................................",
"................................",
".....oo.......oooo.......oo.....",
".....oo.......oooo.......oo.....",
".....oo.......oooo.......oo.....",
"..ooooooo.....oooo.....ooooooo..",
"..ooooooo.....oooo.....ooooooo.."
};
