/* XPM */
static char * cyan_ghost_xpm[] = {
"32 32 4 1",
" 	c None",
".	c #6AC3E6",
"+	c #FFFFFF",
"@	c #4C68B5",
"           ..........           ",
"           ..........           ",
"       ..................       ",
"       ..................       ",
"       ..................       ",
"     ......................     ",
"     ......................     ",
"  .......+++++.........++++...  ",
"  .......+++++.........++++...  ",
"  .....+++++++++.....+++++++++  ",
"  .....+++++++++.....+++++++++  ",
"  .....++++@@@@@.....++++@@@@@  ",
"  .....++++@@@@@.....++++@@@@@  ",
"  .....++++@@@@@.....++++@@@@@  ",
".......++++@@@@@.....++++@@@@@..",
".......++++@@@@@.....++++@@@@@..",
".........+++++.........++++.....",
".........+++++.........++++.....",
"................................",
"................................",
"................................",
"................................",
"................................",
"................................",
"................................",
"................................",
"................................",
".....  .......    .......  .....",
".....  .......    .......  .....",
".....  .......    .......  .....",
"..       .....    .....       ..",
"..       .....    .....       .."};
