/* XPM */
static char * eyes_right_xpm[] = {
"32 32 3 1",
" 	c None",
".	c #FFFFFF",
"+	c #4C68B5",
"                                ",
"                                ",
"                                ",
"                                ",
"                                ",
"                                ",
"                                ",
"         .....         ....     ",
"         .....         ....     ",
"       .........     .........  ",
"       .........     .........  ",
"       ....+++++     ....+++++  ",
"       ....+++++     ....+++++  ",
"       ....+++++     ....+++++  ",
"       ....+++++     ....+++++  ",
"       ....+++++     ....+++++  ",
"         .....         ....     ",
"         .....         ....     ",
"                                ",
"                                ",
"                                ",
"                                ",
"                                ",
"                                ",
"                                ",
"                                ",
"                                ",
"                                ",
"                                ",
"                                ",
"                                ",
"                                "};
