/* XPM */
static char * eyes_up_xpm[] = {
"32 32 3 1",
" 	c None",
".	c #4C68B5",
"+	c #FFFFFF",
"                                ",
"                                ",
"                                ",
"                                ",
"                                ",
"                                ",
"                                ",
"         .....         .....    ",
"         .....         .....    ",
"       ++.....++     ++.....++  ",
"       ++.....++     ++.....++  ",
"       ++.....++     ++.....++  ",
"       +++++++++     +++++++++  ",
"       +++++++++     +++++++++  ",
"       +++++++++     +++++++++  ",
"       +++++++++     +++++++++  ",
"         +++++         ++++     ",
"         +++++         ++++     ",
"                                ",
"                                ",
"                                ",
"                                ",
"                                ",
"                                ",
"                                ",
"                                ",
"                                ",
"                                ",
"                                ",
"                                ",
"                                ",
"                                "};
