/* XPM */
static char * font_xpm[] = {
"1408 64 2 1",
" 	c None",
".	c #FFFFFF",
"        .............           ..........................              ..................      .....................           ..............................  ..............................          ......................  .........            .........  ..........................                           .........  .........            .........   .........                      .........            .........  .........            .........      ......................      ..........................          ......................      ..........................          ......................      ..........................      .........            .........  .........            .........  .........    ....    .........  .........            .........  .........        .........      ..............................                                                                                                                                                                                                                                                                                                                                                                                                                                                                                                                                                                                                  ",
"        .............           ..........................              ..................      .....................           ..............................  ..............................          ......................  .........            .........  ..........................                           .........  .........            .........   .........                      .........            .........  .........            .........      ......................      ..........................          ......................      ..........................          ......................      ..........................      .........            .........  .........            .........  .........    ....    .........  .........            .........  .........        .........      ..............................                                                                                                                                                                                                                                                                                                                                                                                                                                                                                                                                                                                                  ",
"        .............           ..........................              ..................      .....................           ..............................  ..............................          ......................  .........            .........  ..........................                           .........  .........            .........   .........                      .........            .........  .........            .........      ......................      ..........................          ......................      ..........................          ......................      ..........................      .........            .........  .........            .........  .........    ....    .........  .........            .........  .........        .........      ..............................                                                                                                                                                                                                                                                                                                                                                                                                                                                                                                                                                                                                  ",
"        .............           ..........................              ..................      .....................           ..............................  ..............................          ......................  .........            .........  ..........................                           .........  .........            .........   .........                      .........            .........  .........            .........      ......................      ..........................          ......................      ..........................          ......................      ..........................      .........            .........  .........            .........  .........    ....    .........  .........            .........  .........        .........      ..............................                                                                                                                                                                                                                                                                                                                                                                                                                                                                                                                                                                                                  ",
"    .........    .........      .........            .....              .....        .....      .........        ....           .........                       .........                               .....                   .........            .........           ........                                    .........  .........            .....       .........                      .........            .........  .........            .........      .....            .....      .........            .....          .....            .....      .........            .....          .....            .....               ........               .........            .........  .........            .........  .........    ....    .........  .........            .........  .........        .........                       .............                                                                                                                                                                                                                                                                                                                                                                                                                                                                                                                                                                                                  ",
"    .........    .........      .........            .........      .........        .........  .........        .........      .........                       .........                           .........                   .........            .........           ........                                    .........  .........        .........       .........                      .............    .............  .............        .........  .........            .........  .........            .........  .........            .........  .........            .........  .........            .........           ........               .........            .........  .........            .........  .........    ....    .........  .........            .........  .........        .........                       .............                                                                                                                                                                                                                                                                                                                                                                                                                                                                                                                                                                                                  ",
"    .........    .........      .........            .........      .........        .........  .........        .........      .........                       .........                           .........                   .........            .........           ........                                    .........  .........        .........       .........                      .............    .............  .............        .........  .........            .........  .........            .........  .........            .........  .........            .........  .........            .........           ........               .........            .........  .........            .........  .........    ....    .........  .........            .........  .........        .........                       .............                                                                                                                                                                                                                                                                                                                                                                                                                                                                                                                                                                                                  ",
"    .........    .........      .........            .........      .........        .........  .........        .........      .........                       .........                           .........                   .........            .........           ........                                    .........  .........        .........       .........                      .............    .............  .............        .........  .........            .........  .........            .........  .........            .........  .........            .........  .........            .........           ........               .........            .........  .........            .........  .........    ....    .........  .........            .........  .........        .........                       .............                                                                                                                                                                                                                                                                                                                                                                                                                                                                                                                                                                                                  ",
"    .........    .........      .........            .........      .........        .........  .........        .........      .........                       .........                           .........                   .........            .........           ........                                    .........  .........        .........       .........                      .............    .............  .............        .........  .........            .........  .........            .........  .........            .........  .........            .........  .........            .........           ........               .........            .........  .........            .........  .........    ....    .........  .........            .........  .........        .........                       .............                                                                                                                                                                                                                                                                                                                                                                                                                                                                                                                                                                                                  ",
".........            .........  .........            .........  .........                       .........            .........  .........                       .........                       .........                       .........            .........           ........                                    .........  .........    ........            .........                      ..............................  .................    .........  .........            .........  .........            .........  .........            .........  .........            .........  .........                                ........               .........            .........  .........            .........  .........    ....    .........      .........    .........      .........        .........                   .............                                                                                                                                                                                                                                                                                                                                                                                                                                                                                                                                                                                                      ",
".........            .........  .........            .........  .........                       .........            .........  .........                       .........                       .........                       .........            .........           ........                                    .........  .........    ........            .........                      ..............................  .................    .........  .........            .........  .........            .........  .........            .........  .........            .........  .........                                ........               .........            .........  .........            .........  .........    ....    .........      .........    .........      .........        .........                   .............                                                                                                                                                                                                                                                                                                                                                                                                                                                                                                                                                                                                      ",
".........            .........  .........            .........  .........                       .........            .........  .........                       .........                       .........                       .........            .........           ........                                    .........  .........    ........            .........                      ..............................  .................    .........  .........            .........  .........            .........  .........            .........  .........            .........  .........                                ........               .........            .........  .........            .........  .........    ....    .........      .........    .........      .........        .........                   .............                                                                                                                                                                                                                                                                                                                                                                                                                                                                                                                                                                                                      ",
".........            .........  .........            .........  .........                       .........            .........  .........                       .........                       .........                       .........            .........           ........                                    .........  .........    ........            .........                      ..............................  .................    .........  .........            .........  .........            .........  .........            .........  .........            .........  .........                                ........               .........            .........  .........            .........  .........    ....    .........      .........    .........      .........        .........                   .............                                                                                                                                                                                                                                                                                                                                                                                                                                                                                                                                                                                                      ",
".........            .........  .........            .........  .........                       .........            .........  .........                       .........                       .........                       .........            .........           ........                                    .........  .........    ........            .........                      ..............................  .................    .........  .........            .........  .........            .........  .........            .........  .........            .........  .........                                ........               .........            .........  .........            .........  .........    ....    .........      .........    .........          .....        .....                  .............                                                                                                                                                                                                                                                                                                                                                                                                                                                                                                                                                                                                           ",
".........            .........  ..........................      .........                       .........            .........  ..........................      ..........................      .........        .............  ..............................           ........                                    .........  .................                .........                      .........    ....    .........  .........    .................  .........            .........  .........            .........  .........            .........  .........        .............      ......................               ........               .........            .........  .............    .............  .........    ....    .........          .............               ..................                  .............                                                                                                                                                                                                                                                                                                                                                                                                                                                                                                                                                                                                           ",
".........            .........  ..........................      .........                       .........            .........  ..........................      ..........................      .........        .............  ..............................           ........                                    .........  .................                .........                      .........    ....    .........  .........    .................  .........            .........  .........            .........  .........            .........  .........        .............      ......................               ........               .........            .........  .............    .............  .........    ....    .........          .............               ..................                  .............                                                                                                                                                                                                                                                                                                                                                                                                                                                                                                                                                                                                           ",
".........            .........  ..........................      .........                       .........            .........  ..........................      ..........................      .........        .............  ..............................           ........                                    .........  .................                .........                      .........    ....    .........  .........    .................  .........            .........  .........            .........  .........            .........  .........        .............      ......................               ........               .........            .........  .............    .............  .........    ....    .........          .............               ..................                  .............                                                                                                                                                                                                                                                                                                                                                                                                                                                                                                                                                                                                           ",
".........            .........  ..........................      .........                       .........            .........  ..........................      ..........................      .........        .............  ..............................           ........                                    .........  .................                .........                      .........    ....    .........  .........    .................  .........            .........  .........            .........  .........            .........  .........        .............                       .........           ........               .........            .........      .........    .........      .........    ....    .........          .............               ..................                  .............                                                                                                                                                                                                                                                                                                                                                                                                                                                                                                                                                                                                           ",
"..............................  .........            .........  .........                       .........            .........  .........                       .........                       .........            .........  .........            .........           ........                                    .........  .....................            .........                      .........    ....    .........  .........        .............  .........            .........  ..........................      .........    .................  .....................                                .........           ........               .........            .........      ......................      ..............................      .........    .........               ........                   .............                                                                                                                                                                                                                                                                                                                                                                                                                                                                                                                                                                                                               ",
"..............................  .........            .........  .........                       .........            .........  .........                       .........                       .........            .........  .........            .........           ........                                    .........  .....................            .........                      .........    ....    .........  .........        .............  .........            .........  ..........................      .........    .................  .....................                                .........           ........               .........            .........      ......................      ..............................      .........    .........               ........                   .............                                                                                                                                                                                                                                                                                                                                                                                                                                                                                                                                                                                                               ",
"..............................  .........            .........  .........                       .........            .........  .........                       .........                       .........            .........  .........            .........           ........                                    .........  .....................            .........                      .........    ....    .........  .........        .............  .........            .........  ..........................      .........    .................  .....................                                .........           ........               .........            .........      ......................      ..............................      .........    .........               ........                   .............                                                                                                                                                                                                                                                                                                                                                                                                                                                                                                                                                                                                               ",
"..............................  .........            .........  .........                       .........            .........  .........                       .........                       .........            .........  .........            .........           ........                                    .........  .....................            .........                      .........    ....    .........  .........        .............  .........            .........  ..........................      .........    .................  .....................                                .........           ........               .........            .........      ......................      ..............................      .........    .........               ........                   .............                                                                                                                                                                                                                                                                                                                                                                                                                                                                                                                                                                                                               ",
".........            .........  .........            .........      .........        .........  .........        .........      .........                       .........                           .........        .........  .........            .........           ........               .........            .........  .........    .............       .........                      .........            .........  .........        .............  .........            .........  .........                       .........        .........      .........    .............      .........            .........           ........               .........            .........      ......................      .............    .............  .........            .........           ........               .............                                                                                                                                                                                                                                                                                                                                                                                                                                                                                                                                                                                                                   ",
".........            .........  .........            .........      .........        .........  .........        .........      .........                       .........                           .........        .........  .........            .........           ........               .........            .........  .........    .............       .........                      .........            .........  .........            .........  .........            .........  .........                       .........        .........      .........    .............      .........            .........           ........               .........            .........          .............           .............    .............  .........            .........           ........               .............                                                                                                                                                                                                                                                                                                                                                                                                                                                                                                                                                                                                                   ",
".........            .........  .........            .........      .........        .........  .........        .........      .........                       .........                           .........        .........  .........            .........           ........               .........            .........  .........    .............       .........                      .........            .........  .........            .........  .........            .........  .........                       .........        .........      .........    .............      .........            .........           ........               .........            .........          .............           .............    .............  .........            .........           ........               .............                                                                                                                                                                                                                                                                                                                                                                                                                                                                                                                                                                                                                   ",
".........            .........  .........            .........      .........        .........  .........        .........      .........                       .........                           .........        .........  .........            .........           ........               .........            .........  .........    .............       .........                      .........            .........  .........            .........  .........            .........  .........                       .........        .........      .........    .............      .........            .........           ........               .........            .........          .............           .............    .............  .........            .........           ........               .............                                                                                                                                                                                                                                                                                                                                                                                                                                                                                                                                                                                                                   ",
".........            .........  .........            .........          .....        .....      .........        .........      .........                       .........                           .........        .........  .........            .........           ........                   .....            .....      .........        .........       .........                      .........            .........  .........            .........  .........            .........  .........                       .........        .........      .........    .............          .....            .....               ........                   .....            .....              .............           .............    .............  .........            .........           ........               .............                                                                                                                                                                                                                                                                                                                                                                                                                                                                                                                                                                                                                   ",
".........            .........  ..........................              ..................      .....................           ..............................  .........                               ......................  .........            .........  ..........................          ......................      .........        .............   ..........................     .........            .........  .........            .........      ......................      .........                           .................    .....  .........        .............      ......................               ........                   ......................                   ....                   .....            .....      .........            .........           ........               ..............................                                                                                                                                                                                                                                                                                                                                                                                                                                                                                                                                                                                                  ",
".........            .........  ..........................              ..................      .....................           ..............................  .........                               ......................  .........            .........  ..........................          ......................      .........        .............   ..........................     .........            .........  .........            .........      ......................      .........                           .................    .....  .........        .............      ......................               ........                   ......................                   ....                   .....            .....      .........            .........           ........               ..............................                                                                                                                                                                                                                                                                                                                                                                                                                                                                                                                                                                                                  ",
".........            .........  ..........................              ..................      .....................           ..............................  .........                               ......................  .........            .........  ..........................          ......................      .........        .............   ..........................     .........            .........  .........            .........      ......................      .........                           .................    .....  .........        .............      ......................               ........                   ......................                   ....                   .....            .....      .........            .........           ........               ..............................                                                                                                                                                                                                                                                                                                                                                                                                                                                                                                                                                                                                  ",
".........            .........  ..........................              ..................      .....................           ..............................  .........                               ......................  .........            .........  ..........................          ......................      .........        .............   ..........................     .........            .........  .........            .........      ......................      .........                           .................    .....  .........        .............      ......................               ........                   ......................                   ....                   .....            .....      .........            .........           ........               ..............................                                                                                                                                                                                                                                                                                                                                                                                                                                                                                                                                                                                                  ",
"                                                                                                                                                                                                                                                                                                                                                                                                                                                                                                                                                                                                                                                                                                                                                                                                                                                                                                                                                                                                                                                                                                                                                                                                                                                                                                                                                                                                                                                                ",
"        .............                      ........                 ......................          ..........................               .............      ..........................              ..................      ..............................      .................               ......................                                                                              .............               ......................                                                                                               .....                                                                                                                                                                                                                                                                                                                                                                                                                                                                                                                                                                                                                                                                                                                                                                                                                                                                                                  ",
"        .............                      ........                 ......................          ..........................               .............      ..........................              ..................      ..............................      .................               ......................                                                                              .............               ......................                                                                                               .....                                                                                                                                                                                                                                                                                                                                                                                                                                                                                                                                                                                                                                                                                                                                                                                                                                                                                                  ",
"        .............                      ........                 ......................          ..........................               .............      ..........................              ..................      ..............................      .................               ......................                                                                              .............               ......................                                                                                               .....                                                                                                                                                                                                                                                                                                                                                                                                                                                                                                                                                                                                                                                                                                                                                                                                                                                                                                  ",
"        .............                      ........                 ......................          ..........................               .............      ..........................              ..................      ..............................      .................               ......................                                                                              .............               ......................                                                                                               .....                                                                                                                                                                                                                                                                                                                                                                                                                                                                                                                                                                                                                                                                                                                                                                                                                                                                                                  ",
"        .        ....                      ........                 .....            .....                       .........                   .............      .........                           .........                   .........            .........      .....            .              .....            .....                                              .........                       .............               ......................                   ........                                                                                                                                                                                                                                                                                                                                                                                                                                                                                                                                                                                                                                                                                                                                                                                                                                                                                                                                                                           ",
"    .....        .........            .............             .........            .........                   .........              ..................      .........                           .........                   .........            .........  .........            .....      .........            .........                                          .........                       .............           ..............................               ........                                                                .....                                                                                                                                                                                                                                                                                                                                                                                                                                                                                                                                                                                                                                                                                                                                                                                                                                                                                                      ",
"    .....        .........            .............             .........            .........                   .........              ..................      .........                           .........                   .........            .........  .........            .....      .........            .........                                          .........                       .............           ..............................               ........                                                                .....                                                                                                                                                                                                                                                                                                                                                                                                                                                                                                                                                                                                                                                                                                                                                                                                                                                                                                      ",
"    .....        .........            .............             .........            .........                   .........              ..................      .........                           .........                   .........            .........  .........            .....      .........            .........                                          .........                       .............           ..............................               ........                                                                .....                                                                                                                                                                                                                                                                                                                                                                                                                                                                                                                                                                                                                                                                                                                                                                                                                                                                                                      ",
"    .....        .........            .............             .........            .........                   .........              ..................      .........                           .........                   .........            .........  .........            .....      .........            .........                                          .........                       .............           ..............................               ........                                                                .....                                                                                                                                                                                                                                                                                                                                                                                                                                                                                                                                                                                                                                                                                                                                                                                                                                                                                                      ",
".........            .........             ........                              .............               ........               .........    .........      ..........................      .........                                        .........      .............        .....      .........            .........                                          .........                       .............           .........            .........               ........                                                            ....                                                                                                                                                                                                                                                                                                                                                                                                                                                                                                                                                                                                                                                                                                                                                                                                                                                                                                           ",
".........            .........             ........                              .............               ........               .........    .........      ..........................      .........                                        .........      .............        .....      .........            .........                                          .........                       .............           .........            .........               ........                                                            ....                                                                                                                                                                                                                                                                                                                                                                                                                                                                                                                                                                                                                                                                                                                                                                                                                                                                                                           ",
".........            .........             ........                              .............               ........               .........    .........      ..........................      .........                                        .........      .............        .....      .........            .........                                          .........                       .............           .........            .........               ........                                                            ....                                                                                                                                                                                                                                                                                                                                                                                                                                                                                                                                                                                                                                                                                                                                                                                                                                                                                                           ",
".........            .........             ........                              .............               ........               .........    .........      ..........................      .........                                        .........      .............        .....      .........            .........                                          .........                       .............           .........            .........               ........                                                            ....                                                                                                                                                                                                                                                                                                                                                                                                                                                                                                                                                                                                                                                                                                                                                                                                                                                                                                           ",
".........            .........             ........                              .............               ........           .........        .........                           .........  .........                                        .........      .............        .....      .........            .........                                                                          .........                                .........          ..........................                                                                                                                                                                                                                                                                                                                                                                                                                                                                                                                                                                                                                                                                                                                                                                                                                                                                                                                                                                  ",
".........            .........             ........                     ..................              ..................      .........        .........                           .........  ..........................                   ........               .................               ..........................                                                                          .........                                .........          ..........................      ..........................               ....                                                                                                                                                                                                                                                                                                                                                                                                                                                                                                                                                                                                                                                                                                                                                                                                                                                                                                               ",
".........            .........             ........                     ..................              ..................      .........        .........                           .........  ..........................                   ........               .................               ..........................                                                                          .........                                .........          ..........................      ..........................               ....                                                                                                                                                                                                                                                                                                                                                                                                                                                                                                                                                                                                                                                                                                                                                                                                                                                                                                               ",
".........            .........             ........                     ..................              ..................      .........        .........                           .........  ..........................                   ........               .................               ..........................                                                                          .........                                .........          ..........................      ..........................               ....                                                                                                                                                                                                                                                                                                                                                                                                                                                                                                                                                                                                                                                                                                                                                                                                                                                                                                               ",
".........            .........             ........                     ..................                           .........  .........        .........                           .........  .........            .........               ........               .................               ..........................                                          .........                       .........                                .........                   ........               ..........................               ....                                                                                                                                                                                                                                                                                                                                                                                                                                                                                                                                                                                                                                                                                                                                                                                                                                                                                                               ",
".........            .........             ........                 .................                                .........  ..............................                       .........  .........            .........          .........               ....         .................                       .........                                          .........                       .........                       .............                        ........                                                   .....                                                                                                                                                                                                                                                                                                                                                                                                                                                                                                                                                                                                                                                                                                                                                                                                                                                                                                                   ",
".........            .........             ........                 .................                                .........  ..............................                       .........  .........            .........          .........               ....         .................                       .........                                          .........                       .........                       .............                        ........                                                   .....                                                                                                                                                                                                                                                                                                                                                                                                                                                                                                                                                                                                                                                                                                                                                                                                                                                                                                                   ",
".........            .........             ........                 .................                                .........  ..............................                       .........  .........            .........          .........               ....         .................                       .........                                          .........                       .........                       .............                        ........                                                   .....                                                                                                                                                                                                                                                                                                                                                                                                                                                                                                                                                                                                                                                                                                                                                                                                                                                                                                                   ",
".........            .........             ........                 .................                                .........  ..............................                       .........  .........            .........          .........               ....         .................                       .........                                          .........                       .........                       .............                        ........                                                   .....                                                                                                                                                                                                                                                                                                                                                                                                                                                                                                                                                                                                                                                                                                                                                                                                                                                                                                                   ",
"    .........        .....                 ........             .............                   .........            .........                   .........      .........            .........  .........            .........          .........               ....         .................                   .........              .........                       .........                                                                                            ........                                               .....                                                                                                                                                                                                                                                                                                                                                                                                                                                                                                                                                                                                                                                                                                                                                                                                                                                                                                                       ",
"    .........        .....                 ........             .............                   .........            .........                   .........      .........            .........  .........            .........          .........               ....                 .........                   .........              .........                       .........                                                                                            ........                                               .....                                                                                                                                                                                                                                                                                                                                                                                                                                                                                                                                                                                                                                                                                                                                                                                                                                                                                                                       ",
"    .........        .....                 ........             .............                   .........            .........                   .........      .........            .........  .........            .........          .........               ....                 .........                   .........              .........                       .........                                                                                            ........                                               .....                                                                                                                                                                                                                                                                                                                                                                                                                                                                                                                                                                                                                                                                                                                                                                                                                                                                                                                       ",
"    .........        .....                 ........             .............                   .........            .........                   .........      .........            .........  .........            .........          .........               ....                 .........                   .........              .........                       .........                                                                                            ........                                               .....                                                                                                                                                                                                                                                                                                                                                                                                                                                                                                                                                                                                                                                                                                                                                                                                                                                                                                                       ",
"    .........        .....                 ........             .............                       .....            .....                       .........          .....            .....          .....            .....              .........               ....                 .........                   .........              .........                                                                                                                                                                                                                                                                                                                                                                                                                                                                                                                                                                                                                                                                                                                                                                                                                                                                                                                                                                                                                                                                                                               ",
"        .............             ..........................    ..............................      ......................                       .........          ......................          ......................              .........                   ......................          .................                   .........                                                       .........                       .............                                                                           ....                                                                                                                                                                                                                                                                                                                                                                                                                                                                                                                                                                                                                                                                                                                                                                                                                                                                                                                            ",
"        .............             ..........................    ..............................      ......................                       .........          ......................          ......................              .........                   ......................          .................                   .........                                                       .........                       .............                                                                           ....                                                                                                                                                                                                                                                                                                                                                                                                                                                                                                                                                                                                                                                                                                                                                                                                                                                                                                                            ",
"        .............             ..........................    ..............................      ......................                       .........          ......................          ......................              .........                   ......................          .................                   .........                                                       .........                       .............                                                                           ....                                                                                                                                                                                                                                                                                                                                                                                                                                                                                                                                                                                                                                                                                                                                                                                                                                                                                                                            ",
"        .............             ..........................    ..............................      ......................                       .........          ......................          ......................              .........                   ......................          .................                   .........                                                       .........                       .............                                                                           ....                                                                                                                                                                                                                                                                                                                                                                                                                                                                                                                                                                                                                                                                                                                                                                                                                                                                                                                            ",
"                                                                                                                                                                                                                                                                                                                                                                                                                                                                                                                                                                                                                                                                                                                                                                                                                                                                                                                                                                                                                                                                                                                                                                                                                                                                                                                                                                                                                                                                "};
