/* XPM */
static char *result[] = {
/* columns rows colors chars-per-pixel */
"32 32 3 1 ",
"  c #2121FF",
". c #FABAB0",
"X c None",
/* pixels */
"XXXXXXXXXXX          XXXXXXXXXXX",
"XXXXXXXXXXX          XXXXXXXXXXX",
"XXXXXXX                  XXXXXXX",
"XXXXXXX                  XXXXXXX",
"XXXXXXX                  XXXXXXX",
"XXXXX                      XXXXX",
"XXXXX                      XXXXX",
"XX                            XX",
"XX                            XX",
"XX                            XX",
"XX                            XX",
"XX                            XX",
"XX       ....     ....        XX",
"XX       ....     ....        XX",
"         ....     ....          ",
"         ....     ....          ",
"                                ",
"                                ",
"                                ",
"                                ",
"                                ",
"     ....    .....    ....      ",
"     ....    .....    ....      ",
"   ..    ....     ....    ..    ",
"   ..    ....     ....    ..    ",
"                                ",
"                                ",
"     XX       XXXX       XX     ",
"     XX       XXXX       XX     ",
"     XX       XXXX       XX     ",
"  XXXXXXX     XXXX     XXXXXXX  ",
"  XXXXXXX     XXXX     XXXXXXX  "
};
