/* XPM */
static char * ghost_scared_white_xpm[] = {
"32 32 3 1",
" 	c None",
".	c #FFFFFF",
"+	c #E01D1D",
"           ..........           ",
"           ..........           ",
"       ..................       ",
"       ..................       ",
"       ..................       ",
"     ......................     ",
"     ......................     ",
"  ............................  ",
"  ............................  ",
"  ............................  ",
"  ............................  ",
"  ............................  ",
"  .......++++.....++++........  ",
"  .......++++.....++++........  ",
".........++++.....++++..........",
".........++++.....++++..........",
"................................",
"................................",
"................................",
"................................",
"................................",
".....++++....+++++....++++......",
".....++++....+++++....++++......",
"...++....++++.....++++....++....",
"...++....++++.....++++....++....",
"................................",
"................................",
".....  .......    .......  .....",
".....  .......    .......  .....",
".....  .......    .......  .....",
"..       .....    .....       ..",
"..       .....    .....       .."};
