/* XPM */
static char * map_xpm[] = {
"672 672 3 1",
" 	c #010300",
".	c #2121FF",
"+	c #000000",
"                                                                                                                                                                                                                                                                                                                                                                                                                                                                                                                                                                                                                                                                                                ",
"                                                                                                                                                                                                                                                                                                                                                                                                                                                                                                                                                                                                                                                                                                ",
"                                                                                                                                                                                                                                                                                                                                                                                                                                                                                                                                                                                                                                                                                                ",
"                                                                                                                                                                                                                                                                                                                                                                                                                                                                                                                                                                                                                                                                                                ",
"                                                                                                                                                                                                                                                                                                                                                                                                                                                                                                                                                                                                                                                                                                ",
"                                                                                                                                                                                                                                                                                                                                                                                                                                                                                                                                                                                                                                                                                                ",
"                                                                                                                                                                                                                                                                                                                                                                                                                                                                                                                                                                                                                                                                                                ",
"                                                                                                                                                                                                                                                                                                                                                                                                                                                                                                                                                                                                                                                                                                ",
"                                                                                                                                                                                                                                                                                                                                                                                                                                                                                                                                                                                                                                                                                                ",
"                                                                                                                                                                                                                                                                                                                                                                                                                                                                                                                                                                                                                                                                                                ",
"                                                                                                                                                                                                                                                                                                                                                                                                                                                                                                                                                                                                                                                                                                ",
"                                                                                                                                                                                                                                                                                                                                                                                                                                                                                                                                                                                                                                                                                                ",
"                                                                                                                                                                                                                                                                                                                                                                                                                                                                                                                                                                                                                                                                                                ",
"                                                                                                                                                                                                                                                                                                                                                                                                                                                                                                                                                                                                                                                                                                ",
"                                                                                                                                                                                                                                                                                                                                                                                                                                                                                                                                                                                                                                                                                                ",
"                                                                                                                                                                                                                                                                                                                                                                                                                                                                                                                                                                                                                                                                                                ",
"                                                                                                                                                                                                                                                                                                                                                                                                                                                                                                                                                                                                                                                                                                ",
"                                                                                                                                                                                                                                                                                                                                                                                                                                                                                                                                                                                                                                                                                                ",
"                                                                                                                                                                                                                                                                                                                                                                                                                                                                                                                                                                                                                                                                                                ",
"                                                                                                                                                                                                                                                                                                                                                                                                                                                                                                                                                                                                                                                                                                ",
"                                                                                                                                                                                                                                                                                                                                                                                                                                                                                                                                                                                                                                                                                                ",
"                                                                                                                                                                                                                                                                                                                                                                                                                                                                                                                                                                                                                                                                                                ",
"                                                                                                                                                                                                                                                                                                                                                                                                                                                                                                                                                                                                                                                                                                ",
"                                                                                                                                                                                                                                                                                                                                                                                                                                                                                                                                                                                                                                                                                                ",
"                                                                                                                                                                                                                                                                                                                                                                                                                                                                                                                                                                                                                                                                                                ",
"                                                                                                                                                                                                                                                                                                                                                                                                                                                                                                                                                                                                                                                                                                ",
"                                                                                                                                                                                                                                                                                                                                                                                                                                                                                                                                                                                                                                                                                                ",
"                                                                                                                                                                                                                                                                                                                                                                                                                                                                                                                                                                                                                                                                                                ",
"                            .........................................................................................................................................................................................................................................................................................................                       .........................................................................................................................................................................................................................................................................................................                           ",
"                            .........................................................................................................................................................................................................................................................................................................                       .........................................................................................................................................................................................................................................................................................................                           ",
"                            .........................................................................................................................................................................................................................................................................................................                       .........................................................................................................................................................................................................................................................................................................                           ",
"                            .........................................................................................................................................................................................................................................................................................................                       .........................................................................................................................................................................................................................................................................................................                           ",
"                            ....                                                                                                                                                                                                                                                                                                 ....                       ....                                                                                                                                                                                                                                                                                                 ....                           ",
"                            ....                                                                                                                                                                                                                                                                                                 ....                       ....                                                                                                                                                                                                                                                                                                 ....                           ",
"                            ....                                                                                                                                                                                                                                                                                                 ....                       ....                                                                                                                                                                                                                                                                                                 ....                           ",
"                            ....                                                                                                                                                                                                                                                                                                 ....                       ....                                                                                                                                                                                                                                                                                                 ....                           ",
"                            ....                                                                                                                                                                                                                                                                                                 ....                       ....                                                                                                                                                                                                                                                                                                 ....                           ",
"                            ....                                                                                                                                                                                                                                                                                                 ....                       ....                                                                                                                                                                                                                                                                                                 ....                           ",
"                            ....                                                                                                                                                                                                                                                                                                 ....                       ....                                                                                                                                                                                                                                                                                                 ....                           ",
"                            ....                                                                                                                                                                                                                                                                                                 ....                       ....                                                                                                                                                                                                                                                                                                 ....                           ",
"                            ....                                                                                                                                                                                                                                                                                                 ....                       ....                                                                                                                                                                                                                                                                                                 ....                           ",
"                            ....                                                                                                                                                                                                                                                                                                 ....                       ....                                                                                                                                                                                                                                                                                                 ....                           ",
"                            ....                                                                                                                                                                                                                                                                                                 ....                       ....                                                                                                                                                                                                                                                                                                 ....                           ",
"                            ....                                                                                                                                                                                                                                                                                                 ....                       ....                                                                                                                                                                                                                                                                                                 ....                           ",
"                            ....                                                                                                                                                                                                                                                                                                 ....                       ....                                                                                                                                                                                                                                                                                                 ....                           ",
"                            ....                                                                                                                                                                                                                                                                                                 ....                       ....                                                                                                                                                                                                                                                                                                 ....                           ",
"                            ....                                                                                                                                                                                                                                                                                                 ....                       ....                                                                                                                                                                                                                                                                                                 ....                           ",
"                            ....                                                                                                                                                                                                                                                                                                 ....                       ....                                                                                                                                                                                                                                                                                                 ....                           ",
"                            ....                                                                                                                                                                                                                                                                                                 ....                       ....                                                                                                                                                                                                                                                                                                 ....                           ",
"                            ....                                                                                                                                                                                                                                                                                                 ....                       ....                                                                                                                                                                                                                                                                                                 ....                           ",
"                            ....                                                                                                                                                                                                                                                                                                 ....                       ....                                                                                                                                                                                                                                                                                                 ....                           ",
"                            ....                                                                                                                                                                                                                                                                                                 ....                       ....                                                                                                                                                                                                                                                                                                 ....                           ",
"                            ....                                                                                                                                                                                                                                                                                                 ....                       ....                                                                                                                                                                                                                                                                                                 ....                           ",
"                            ....                                                                                                                                                                                                                                                                                                 ....                       ....                                                                                                                                                                                                                                                                                                 ....                           ",
"                            ....                                                                                                                                                                                                                                                                                                 ....                       ....                                                                                                                                                                                                                                                                                                 ....                           ",
"                            ....                                                                                                                                                                                                                                                                                                 ....                       ....                                                                                                                                                                                                                                                                                                 ....                           ",
"                            ....                                                                                                                                                                                                                                                                                                 ....                       ....                                                                                                                                                                                                                                                                                                 ....                           ",
"                            ....                                                                                                                                                                                                                                                                                                 ....                       ....                                                                                                                                                                                                                                                                                                 ....                           ",
"                            ....                                                                                                                                                                                                                                                                                                 ....                       ....                                                                                                                                                                                                                                                                                                 ....                           ",
"                            ....                                                                                                                                                                                                                                                                                                 ....                       ....                                                                                                                                                                                                                                                                                                 ....                           ",
"                            ....                                                                                                                                                                                                                                                                                                 ....                       ....                                                                                                                                                                                                                                                                                                 ....                           ",
"                            ....                                                                                                                                                                                                                                                                                                 ....                       ....                                                                                                                                                                                                                                                                                                 ....                           ",
"                            ....                                                                                                                                                                                                                                                                                                 ....                       ....                                                                                                                                                                                                                                                                                                 ....                           ",
"                            ....                                                                                                                                                                                                                                                                                                 ....                       ....                                                                                                                                                                                                                                                                                                 ....                           ",
"                            ....                                                                                                                                                                                                                                                                                                 ....                       ....                                                                                                                                                                                                                                                                                                 ....                           ",
"                            ....                                 ...............................................................................................                                 ...............................................................................................                                 ....                       ....                                 ...............................................................................................                                 ...............................................................................................                                 ....                           ",
"                            ....                                 ...............................................................................................                                 ...............................................................................................                                 ....                       ....                                 ...............................................................................................                                 ...............................................................................................                                 ....                           ",
"                            ....                                 ...............................................................................................                                 ...............................................................................................                                 ....                       ....                                 ...............................................................................................                                 ...............................................................................................                                 ....                           ",
"                            ....                                 ...............................................................................................                                 ...............................................................................................                                 ....                       ....                                 ...............................................................................................                                 ...............................................................................................                                 ....                           ",
"                            ....                                 ....+++++++++++++++++++++++++++ +++++++++++++++++++++++++++++++ +++++++++++++++++++++++++++....                                 ....                            +++++++++++++++++++++++++++++++ +++++++++++++++++++++++++++....                                 ....                       ....                                 ....+++++++++++++++++++++++++++ +++++++++++++++++++++++++++++++ +++++++++++++++++++++++++++....                                 ....+++++++++++++++++++++++++++ +++++++++++++++++++++++++++++++ +++++++++++++++++++++++++++....                                 ....                           ",
"                            ....                                 ....+++++++++++++++++++++++++++ +++++++++++++++++++++++++++++++ +++++++++++++++++++++++++++....                                 ....                            +++++++++++++++++++++++++++++++ +++++++++++++++++++++++++++....                                 ....                       ....                                 ....+++++++++++++++++++++++++++ +++++++++++++++++++++++++++++++ +++++++++++++++++++++++++++....                                 ....+++++++++++++++++++++++++++ +++++++++++++++++++++++++++++++ +++++++++++++++++++++++++++....                                 ....                           ",
"                            ....                                 ....+++++++++++++++++++++++++++ +++++++++++++++++++++++++++++++ +++++++++++++++++++++++++++....                                 ....                            +++++++++++++++++++++++++++++++ +++++++++++++++++++++++++++....                                 ....                       ....                                 ....+++++++++++++++++++++++++++ +++++++++++++++++++++++++++++++ +++++++++++++++++++++++++++....                                 ....+++++++++++++++++++++++++++ +++++++++++++++++++++++++++++++ +++++++++++++++++++++++++++....                                 ....                           ",
"                            ....                                 ....+++++++++++++++++++++++++++ +++++++++++++++++++++++++++++++ +++++++++++++++++++++++++++....                                 ....                            +++++++++++++++++++++++++++++++ +++++++++++++++++++++++++++....                                 ....                       ....                                 ....+++++++++++++++++++++++++++ +++++++++++++++++++++++++++++++ +++++++++++++++++++++++++++....                                 ....+++++++++++++++++++++++++++ +++++++++++++++++++++++++++++++ +++++++++++++++++++++++++++....                                 ....                           ",
"                            ....                                 ....+++++++++++++++++++++++++++ +++++++++++++++++++++++++++++++ +++++++++++++++++++++++++++....                                 ....                            +++++++++++++++++++++++++++++++ +++++++++++++++++++++++++++....                                 ....                       ....                                 ....+++++++++++++++++++++++++++ +++++++++++++++++++++++++++++++ +++++++++++++++++++++++++++....                                 ....+++++++++++++++++++++++++++ +++++++++++++++++++++++++++++++ +++++++++++++++++++++++++++....                                 ....                           ",
"                            ....                                 ....+++++++++++++++++++++++++++ +++++++++++++++++++++++++++++++ +++++++++++++++++++++++++++....                                 ....                            +++++++++++++++++++++++++++++++ +++++++++++++++++++++++++++....                                 ....                       ....                                 ....+++++++++++++++++++++++++++ +++++++++++++++++++++++++++++++ +++++++++++++++++++++++++++....                                 ....+++++++++++++++++++++++++++ +++++++++++++++++++++++++++++++ +++++++++++++++++++++++++++....                                 ....                           ",
"                            ....                                 ....+++++++++++++++++++++++++++ +++++++++++++++++++++++++++++++ +++++++++++++++++++++++++++....                                 ....                            +++++++++++++++++++++++++++++++ +++++++++++++++++++++++++++....                                 ....                       ....                                 ....+++++++++++++++++++++++++++ +++++++++++++++++++++++++++++++ +++++++++++++++++++++++++++....                                 ....+++++++++++++++++++++++++++ +++++++++++++++++++++++++++++++ +++++++++++++++++++++++++++....                                 ....                           ",
"                            ....                                 ....+++++++++++++++++++++++++++ +++++++++++++++++++++++++++++++ +++++++++++++++++++++++++++....                                 ....                            +++++++++++++++++++++++++++++++ +++++++++++++++++++++++++++....                                 ....                       ....                                 ....+++++++++++++++++++++++++++ +++++++++++++++++++++++++++++++ +++++++++++++++++++++++++++....                                 ....+++++++++++++++++++++++++++ +++++++++++++++++++++++++++++++ +++++++++++++++++++++++++++....                                 ....                           ",
"                            ....                                 ....+++++++++++++++++++++++++++ +++++++++++++++++++++++++++++++ +++++++++++++++++++++++++++....                                 ....                            +++++++++++++++++++++++++++++++ +++++++++++++++++++++++++++....                                 ....                       ....                                 ....+++++++++++++++++++++++++++ +++++++++++++++++++++++++++++++ +++++++++++++++++++++++++++....                                 ....+++++++++++++++++++++++++++ +++++++++++++++++++++++++++++++ +++++++++++++++++++++++++++....                                 ....                           ",
"                            ....                                 ....+++++++++++++++++++++++++++ +++++++++++++++++++++++++++++++ +++++++++++++++++++++++++++....                                 ....                            +++++++++++++++++++++++++++++++ +++++++++++++++++++++++++++....                                 ....                       ....                                 ....+++++++++++++++++++++++++++ +++++++++++++++++++++++++++++++ +++++++++++++++++++++++++++....                                 ....+++++++++++++++++++++++++++ +++++++++++++++++++++++++++++++ +++++++++++++++++++++++++++....                                 ....                           ",
"                            ....                                 ....+++++++++++++++++++++++++++ +++++++++++++++++++++++++++++++ +++++++++++++++++++++++++++....                                 ....                            +++++++++++++++++++++++++++++++ +++++++++++++++++++++++++++....                                 ....                       ....                                 ....+++++++++++++++++++++++++++ +++++++++++++++++++++++++++++++ +++++++++++++++++++++++++++....                                 ....+++++++++++++++++++++++++++ +++++++++++++++++++++++++++++++ +++++++++++++++++++++++++++....                                 ....                           ",
"                            ....                                 ....+++++++++++++++++++++++++++ +++++++++++++++++++++++++++++++ +++++++++++++++++++++++++++....                                 ....                            +++++++++++++++++++++++++++++++ +++++++++++++++++++++++++++....                                 ....                       ....                                 ....+++++++++++++++++++++++++++ +++++++++++++++++++++++++++++++ +++++++++++++++++++++++++++....                                 ....+++++++++++++++++++++++++++ +++++++++++++++++++++++++++++++ +++++++++++++++++++++++++++....                                 ....                           ",
"                            ....                                 ....+++++++++++++++++++++++++++ +++++++++++++++++++++++++++++++ +++++++++++++++++++++++++++....                                 ....                            +++++++++++++++++++++++++++++++ +++++++++++++++++++++++++++....                                 ....                       ....                                 ....+++++++++++++++++++++++++++ +++++++++++++++++++++++++++++++ +++++++++++++++++++++++++++....                                 ....+++++++++++++++++++++++++++ +++++++++++++++++++++++++++++++ +++++++++++++++++++++++++++....                                 ....                           ",
"                            ....                                 ....+++++++++++++++++++++++++++ +++++++++++++++++++++++++++++++ +++++++++++++++++++++++++++....                                 ....                            +++++++++++++++++++++++++++++++ +++++++++++++++++++++++++++....                                 ....                       ....                                 ....+++++++++++++++++++++++++++ +++++++++++++++++++++++++++++++ +++++++++++++++++++++++++++....                                 ....+++++++++++++++++++++++++++ +++++++++++++++++++++++++++++++ +++++++++++++++++++++++++++....                                 ....                           ",
"                            ....                                 ....+++++++++++++++++++++++++++ +++++++++++++++++++++++++++++++ +++++++++++++++++++++++++++....                                 ....                            +++++++++++++++++++++++++++++++ +++++++++++++++++++++++++++....                                 ....                       ....                                 ....+++++++++++++++++++++++++++ +++++++++++++++++++++++++++++++ +++++++++++++++++++++++++++....                                 ....+++++++++++++++++++++++++++ +++++++++++++++++++++++++++++++ +++++++++++++++++++++++++++....                                 ....                           ",
"                            ....                                 ....+++++++++++++++++++++++++++ +++++++++++++++++++++++++++++++ +++++++++++++++++++++++++++....                                 ....                            +++++++++++++++++++++++++++++++ +++++++++++++++++++++++++++....                                 ....                       ....                                 ....+++++++++++++++++++++++++++ +++++++++++++++++++++++++++++++ +++++++++++++++++++++++++++....                                 ....+++++++++++++++++++++++++++ +++++++++++++++++++++++++++++++ +++++++++++++++++++++++++++....                                 ....                           ",
"                            ....                                 ....+++++++++++++++++++++++++++ +++++++++++++++++++++++++++++++ +++++++++++++++++++++++++++....                                 ....                            +++++++++++++++++++++++++++++++ +++++++++++++++++++++++++++....                                 ....                       ....                                 ....+++++++++++++++++++++++++++ +++++++++++++++++++++++++++++++ +++++++++++++++++++++++++++....                                 ....+++++++++++++++++++++++++++ +++++++++++++++++++++++++++++++ +++++++++++++++++++++++++++....                                 ....                           ",
"                            ....                                 ....+++++++++++++++++++++++++++ +++++++++++++++++++++++++++++++ +++++++++++++++++++++++++++....                                 ....                            +++++++++++++++++++++++++++++++ +++++++++++++++++++++++++++....                                 ....                       ....                                 ....+++++++++++++++++++++++++++ +++++++++++++++++++++++++++++++ +++++++++++++++++++++++++++....                                 ....+++++++++++++++++++++++++++ +++++++++++++++++++++++++++++++ +++++++++++++++++++++++++++....                                 ....                           ",
"                            ....                                 ....+++++++++++++++++++++++++++ +++++++++++++++++++++++++++++++ +++++++++++++++++++++++++++....                                 ....                            +++++++++++++++++++++++++++++++ +++++++++++++++++++++++++++....                                 ....                       ....                                 ....+++++++++++++++++++++++++++ +++++++++++++++++++++++++++++++ +++++++++++++++++++++++++++....                                 ....+++++++++++++++++++++++++++ +++++++++++++++++++++++++++++++ +++++++++++++++++++++++++++....                                 ....                           ",
"                            ....                                 ....+++++++++++++++++++++++++++ +++++++++++++++++++++++++++++++ +++++++++++++++++++++++++++....                                 ....                            +++++++++++++++++++++++++++++++ +++++++++++++++++++++++++++....                                 ....                       ....                                 ....+++++++++++++++++++++++++++ +++++++++++++++++++++++++++++++ +++++++++++++++++++++++++++....                                 ....+++++++++++++++++++++++++++ +++++++++++++++++++++++++++++++ +++++++++++++++++++++++++++....                                 ....                           ",
"                            ....                                 ....+++++++++++++++++++++++++++ +++++++++++++++++++++++++++++++ +++++++++++++++++++++++++++....                                 ....                            +++++++++++++++++++++++++++++++ +++++++++++++++++++++++++++....                                 ....                       ....                                 ....+++++++++++++++++++++++++++ +++++++++++++++++++++++++++++++ +++++++++++++++++++++++++++....                                 ....+++++++++++++++++++++++++++ +++++++++++++++++++++++++++++++ +++++++++++++++++++++++++++....                                 ....                           ",
"                            ....                                 ....+++++++++++++++++++++++++++ +++++++++++++++++++++++++++++++ +++++++++++++++++++++++++++....                                 ....                            +++++++++++++++++++++++++++++++ +++++++++++++++++++++++++++....                                 ....                       ....                                 ....+++++++++++++++++++++++++++ +++++++++++++++++++++++++++++++ +++++++++++++++++++++++++++....                                 ....+++++++++++++++++++++++++++ +++++++++++++++++++++++++++++++ +++++++++++++++++++++++++++....                                 ....                           ",
"                            ....                                 ....+++++++++++++++++++++++++++ +++++++++++++++++++++++++++++++ +++++++++++++++++++++++++++....                                 ....                            +++++++++++++++++++++++++++++++ +++++++++++++++++++++++++++....                                 ....                       ....                                 ....+++++++++++++++++++++++++++ +++++++++++++++++++++++++++++++ +++++++++++++++++++++++++++....                                 ....+++++++++++++++++++++++++++ +++++++++++++++++++++++++++++++ +++++++++++++++++++++++++++....                                 ....                           ",
"                            ....                                 ....+++++++++++++++++++++++++++ +++++++++++++++++++++++++++++++ +++++++++++++++++++++++++++....                                 ....                            +++++++++++++++++++++++++++++++ +++++++++++++++++++++++++++....                                 ....                       ....                                 ....+++++++++++++++++++++++++++ +++++++++++++++++++++++++++++++ +++++++++++++++++++++++++++....                                 ....+++++++++++++++++++++++++++ +++++++++++++++++++++++++++++++ +++++++++++++++++++++++++++....                                 ....                           ",
"                            ....                                 ....+++++++++++++++++++++++++++ +++++++++++++++++++++++++++++++ +++++++++++++++++++++++++++....                                 ....                            +++++++++++++++++++++++++++++++ +++++++++++++++++++++++++++....                                 ....                       ....                                 ....+++++++++++++++++++++++++++ +++++++++++++++++++++++++++++++ +++++++++++++++++++++++++++....                                 ....+++++++++++++++++++++++++++ +++++++++++++++++++++++++++++++ +++++++++++++++++++++++++++....                                 ....                           ",
"                            ....                                 ....+++++++++++++++++++++++++++ +++++++++++++++++++++++++++++++ +++++++++++++++++++++++++++....                                 ....                            +++++++++++++++++++++++++++++++ +++++++++++++++++++++++++++....                                 ....                       ....                                 ....+++++++++++++++++++++++++++ +++++++++++++++++++++++++++++++ +++++++++++++++++++++++++++....                                 ....+++++++++++++++++++++++++++ +++++++++++++++++++++++++++++++ +++++++++++++++++++++++++++....                                 ....                           ",
"                            ....                                 ....+++++++++++++++++++++++++++ +++++++++++++++++++++++++++++++ +++++++++++++++++++++++++++....                                 ....                            +++++++++++++++++++++++++++++++ +++++++++++++++++++++++++++....                                 ....                       ....                                 ....+++++++++++++++++++++++++++ +++++++++++++++++++++++++++++++ +++++++++++++++++++++++++++....                                 ....+++++++++++++++++++++++++++ +++++++++++++++++++++++++++++++ +++++++++++++++++++++++++++....                                 ....                           ",
"                            ....                                 ....                                                                                       ....                                 ....                                                                                       ....                                 ....                       ....                                 ....                                                                                       ....                                 ....                                                                                       ....                                 ....                           ",
"                            ....                                 ....+++++++++++++++++++++++++++ +++++++++++++++++++++++++++++++ +++++++++++++++++++++++++++....                                 ....+++++++++++++++++++++++++++ +++++++++++++++++++++++++++++++ +++++++++++++++++++++++++++....                                 ....                       ....                                 ....+++++++++++++++++++++++++++ +++++++++++++++++++++++++++++++ +++++++++++++++++++++++++++....                                 ....+++++++++++++++++++++++++++ +++++++++++++++++++++++++++++++                            ....                                 ....                           ",
"                            ....                                 ....+++++++++++++++++++++++++++ +++++++++++++++++++++++++++++++ +++++++++++++++++++++++++++....                                 ....+++++++++++++++++++++++++++ +++++++++++++++++++++++++++++++ +++++++++++++++++++++++++++....                                 ....                       ....                                 ....+++++++++++++++++++++++++++ +++++++++++++++++++++++++++++++ +++++++++++++++++++++++++++....                                 ....+++++++++++++++++++++++++++ +++++++++++++++++++++++++++++++                            ....                                 ....                           ",
"                            ....                                 ....+++++++++++++++++++++++++++ +++++++++++++++++++++++++++++++ +++++++++++++++++++++++++++....                                 ....+++++++++++++++++++++++++++ +++++++++++++++++++++++++++++++ +++++++++++++++++++++++++++....                                 ....                       ....                                 ....+++++++++++++++++++++++++++ +++++++++++++++++++++++++++++++ +++++++++++++++++++++++++++....                                 ....+++++++++++++++++++++++++++ +++++++++++++++++++++++++++++++                            ....                                 ....                           ",
"                            ....                                 ....+++++++++++++++++++++++++++ +++++++++++++++++++++++++++++++ +++++++++++++++++++++++++++....                                 ....+++++++++++++++++++++++++++ +++++++++++++++++++++++++++++++ +++++++++++++++++++++++++++....                                 ....                       ....                                 ....+++++++++++++++++++++++++++ +++++++++++++++++++++++++++++++ +++++++++++++++++++++++++++....                                 ....+++++++++++++++++++++++++++ +++++++++++++++++++++++++++++++                            ....                                 ....                           ",
"                            ....                                 ....+++++++++++++++++++++++++++ +++++++++++++++++++++++++++++++ +++++++++++++++++++++++++++....                                 ....+++++++++++++++++++++++++++ +++++++++++++++++++++++++++++++ +++++++++++++++++++++++++++....                                 ....                       ....                                 ....+++++++++++++++++++++++++++ +++++++++++++++++++++++++++++++ +++++++++++++++++++++++++++....                                 ....+++++++++++++++++++++++++++ +++++++++++++++++++++++++++++++                            ....                                 ....                           ",
"                            ....                                 ....+++++++++++++++++++++++++++ +++++++++++++++++++++++++++++++ +++++++++++++++++++++++++++....                                 ....+++++++++++++++++++++++++++ +++++++++++++++++++++++++++++++ +++++++++++++++++++++++++++....                                 ....                       ....                                 ....+++++++++++++++++++++++++++ +++++++++++++++++++++++++++++++ +++++++++++++++++++++++++++....                                 ....+++++++++++++++++++++++++++ +++++++++++++++++++++++++++++++                            ....                                 ....                           ",
"                            ....                                 ....+++++++++++++++++++++++++++ +++++++++++++++++++++++++++++++ +++++++++++++++++++++++++++....                                 ....+++++++++++++++++++++++++++ +++++++++++++++++++++++++++++++ +++++++++++++++++++++++++++....                                 ....                       ....                                 ....+++++++++++++++++++++++++++ +++++++++++++++++++++++++++++++ +++++++++++++++++++++++++++....                                 ....+++++++++++++++++++++++++++ +++++++++++++++++++++++++++++++                            ....                                 ....                           ",
"                            ....                                 ....+++++++++++++++++++++++++++ +++++++++++++++++++++++++++++++ +++++++++++++++++++++++++++....                                 ....+++++++++++++++++++++++++++ +++++++++++++++++++++++++++++++ +++++++++++++++++++++++++++....                                 ....                       ....                                 ....+++++++++++++++++++++++++++ +++++++++++++++++++++++++++++++ +++++++++++++++++++++++++++....                                 ....+++++++++++++++++++++++++++ +++++++++++++++++++++++++++++++                            ....                                 ....                           ",
"                            ....                                 ....+++++++++++++++++++++++++++ +++++++++++++++++++++++++++++++ +++++++++++++++++++++++++++....                                 ....+++++++++++++++++++++++++++ +++++++++++++++++++++++++++++++ +++++++++++++++++++++++++++....                                 ....                       ....                                 ....+++++++++++++++++++++++++++ +++++++++++++++++++++++++++++++ +++++++++++++++++++++++++++....                                 ....+++++++++++++++++++++++++++ +++++++++++++++++++++++++++++++                            ....                                 ....                           ",
"                            ....                                 ....+++++++++++++++++++++++++++ +++++++++++++++++++++++++++++++ +++++++++++++++++++++++++++....                                 ....+++++++++++++++++++++++++++ +++++++++++++++++++++++++++++++ +++++++++++++++++++++++++++....                                 ....                       ....                                 ....+++++++++++++++++++++++++++ +++++++++++++++++++++++++++++++ +++++++++++++++++++++++++++....                                 ....+++++++++++++++++++++++++++ +++++++++++++++++++++++++++++++                            ....                                 ....                           ",
"                            ....                                 ....+++++++++++++++++++++++++++ +++++++++++++++++++++++++++++++ +++++++++++++++++++++++++++....                                 ....+++++++++++++++++++++++++++ +++++++++++++++++++++++++++++++ +++++++++++++++++++++++++++....                                 ....                       ....                                 ....+++++++++++++++++++++++++++ +++++++++++++++++++++++++++++++ +++++++++++++++++++++++++++....                                 ....+++++++++++++++++++++++++++ +++++++++++++++++++++++++++++++                            ....                                 ....                           ",
"                            ....                                 ....+++++++++++++++++++++++++++ +++++++++++++++++++++++++++++++ +++++++++++++++++++++++++++....                                 ....+++++++++++++++++++++++++++ +++++++++++++++++++++++++++++++ +++++++++++++++++++++++++++....                                 ....                       ....                                 ....+++++++++++++++++++++++++++ +++++++++++++++++++++++++++++++ +++++++++++++++++++++++++++....                                 ....+++++++++++++++++++++++++++ +++++++++++++++++++++++++++++++                            ....                                 ....                           ",
"                            ....                                 ....+++++++++++++++++++++++++++ +++++++++++++++++++++++++++++++ +++++++++++++++++++++++++++....                                 ....+++++++++++++++++++++++++++ +++++++++++++++++++++++++++++++ +++++++++++++++++++++++++++....                                 ....                       ....                                 ....+++++++++++++++++++++++++++ +++++++++++++++++++++++++++++++ +++++++++++++++++++++++++++....                                 ....+++++++++++++++++++++++++++ +++++++++++++++++++++++++++++++                            ....                                 ....                           ",
"                            ....                                 ....+++++++++++++++++++++++++++ +++++++++++++++++++++++++++++++ +++++++++++++++++++++++++++....                                 ....+++++++++++++++++++++++++++ +++++++++++++++++++++++++++++++ +++++++++++++++++++++++++++....                                 ....                       ....                                 ....+++++++++++++++++++++++++++ +++++++++++++++++++++++++++++++ +++++++++++++++++++++++++++....                                 ....+++++++++++++++++++++++++++ +++++++++++++++++++++++++++++++                            ....                                 ....                           ",
"                            ....                                 ....+++++++++++++++++++++++++++ +++++++++++++++++++++++++++++++ +++++++++++++++++++++++++++....                                 ....+++++++++++++++++++++++++++ +++++++++++++++++++++++++++++++ +++++++++++++++++++++++++++....                                 ....                       ....                                 ....+++++++++++++++++++++++++++ +++++++++++++++++++++++++++++++ +++++++++++++++++++++++++++....                                 ....+++++++++++++++++++++++++++ +++++++++++++++++++++++++++++++                            ....                                 ....                           ",
"                            ....                                 ....+++++++++++++++++++++++++++ +++++++++++++++++++++++++++++++ +++++++++++++++++++++++++++....                                 ....+++++++++++++++++++++++++++ +++++++++++++++++++++++++++++++ +++++++++++++++++++++++++++....                                 ....                       ....                                 ....+++++++++++++++++++++++++++ +++++++++++++++++++++++++++++++ +++++++++++++++++++++++++++....                                 ....+++++++++++++++++++++++++++ +++++++++++++++++++++++++++++++                            ....                                 ....                           ",
"                            ....                                 ....+++++++++++++++++++++++++++ +++++++++++++++++++++++++++++++ +++++++++++++++++++++++++++....                                 ....+++++++++++++++++++++++++++ +++++++++++++++++++++++++++++++ +++++++++++++++++++++++++++....                                 ....                       ....                                 ....+++++++++++++++++++++++++++ +++++++++++++++++++++++++++++++ +++++++++++++++++++++++++++....                                 ....+++++++++++++++++++++++++++ +++++++++++++++++++++++++++++++                            ....                                 ....                           ",
"                            ....                                 ....+++++++++++++++++++++++++++ +++++++++++++++++++++++++++++++ +++++++++++++++++++++++++++....                                 ....+++++++++++++++++++++++++++ +++++++++++++++++++++++++++++++ +++++++++++++++++++++++++++....                                 ....                       ....                                 ....+++++++++++++++++++++++++++ +++++++++++++++++++++++++++++++ +++++++++++++++++++++++++++....                                 ....+++++++++++++++++++++++++++ +++++++++++++++++++++++++++++++                            ....                                 ....                           ",
"                            ....                                 ....+++++++++++++++++++++++++++ +++++++++++++++++++++++++++++++ +++++++++++++++++++++++++++....                                 ....+++++++++++++++++++++++++++ +++++++++++++++++++++++++++++++ +++++++++++++++++++++++++++....                                 ....                       ....                                 ....+++++++++++++++++++++++++++ +++++++++++++++++++++++++++++++ +++++++++++++++++++++++++++....                                 ....+++++++++++++++++++++++++++ +++++++++++++++++++++++++++++++                            ....                                 ....                           ",
"                            ....                                 ....+++++++++++++++++++++++++++ +++++++++++++++++++++++++++++++ +++++++++++++++++++++++++++....                                 ....+++++++++++++++++++++++++++ +++++++++++++++++++++++++++++++ +++++++++++++++++++++++++++....                                 ....                       ....                                 ....+++++++++++++++++++++++++++ +++++++++++++++++++++++++++++++ +++++++++++++++++++++++++++....                                 ....+++++++++++++++++++++++++++ +++++++++++++++++++++++++++++++                            ....                                 ....                           ",
"                            ....                                 ....+++++++++++++++++++++++++++ +++++++++++++++++++++++++++++++ +++++++++++++++++++++++++++....                                 ....+++++++++++++++++++++++++++ +++++++++++++++++++++++++++++++ +++++++++++++++++++++++++++....                                 ....                       ....                                 ....+++++++++++++++++++++++++++ +++++++++++++++++++++++++++++++ +++++++++++++++++++++++++++....                                 ....+++++++++++++++++++++++++++ +++++++++++++++++++++++++++++++                            ....                                 ....                           ",
"                            ....                                 ....+++++++++++++++++++++++++++ +++++++++++++++++++++++++++++++ +++++++++++++++++++++++++++....                                 ....+++++++++++++++++++++++++++ +++++++++++++++++++++++++++++++ +++++++++++++++++++++++++++....                                 ....                       ....                                 ....+++++++++++++++++++++++++++ +++++++++++++++++++++++++++++++ +++++++++++++++++++++++++++....                                 ....+++++++++++++++++++++++++++ +++++++++++++++++++++++++++++++                            ....                                 ....                           ",
"                            ....                                 ....+++++++++++++++++++++++++++ +++++++++++++++++++++++++++++++ +++++++++++++++++++++++++++....                                 ....+++++++++++++++++++++++++++ +++++++++++++++++++++++++++++++ +++++++++++++++++++++++++++....                                 ....                       ....                                 ....+++++++++++++++++++++++++++ +++++++++++++++++++++++++++++++ +++++++++++++++++++++++++++....                                 ....+++++++++++++++++++++++++++ +++++++++++++++++++++++++++++++                            ....                                 ....                           ",
"                            ....                                 ....+++++++++++++++++++++++++++ +++++++++++++++++++++++++++++++ +++++++++++++++++++++++++++....                                 ....+++++++++++++++++++++++++++ +++++++++++++++++++++++++++++++ +++++++++++++++++++++++++++....                                 ....                       ....                                 ....+++++++++++++++++++++++++++ +++++++++++++++++++++++++++++++ +++++++++++++++++++++++++++....                                 ....+++++++++++++++++++++++++++ +++++++++++++++++++++++++++++++                            ....                                 ....                           ",
"                            ....                                 ....+++++++++++++++++++++++++++ +++++++++++++++++++++++++++++++ +++++++++++++++++++++++++++....                                 ....+++++++++++++++++++++++++++ +++++++++++++++++++++++++++++++ +++++++++++++++++++++++++++....                                 ....                       ....                                 ....+++++++++++++++++++++++++++ +++++++++++++++++++++++++++++++ +++++++++++++++++++++++++++....                                 ....+++++++++++++++++++++++++++ +++++++++++++++++++++++++++++++                            ....                                 ....                           ",
"                            ....                                 ....+++++++++++++++++++++++++++ +++++++++++++++++++++++++++++++ +++++++++++++++++++++++++++....                                 ....+++++++++++++++++++++++++++ +++++++++++++++++++++++++++++++ +++++++++++++++++++++++++++....                                 ....                       ....                                 ....+++++++++++++++++++++++++++ +++++++++++++++++++++++++++++++ +++++++++++++++++++++++++++....                                 ....+++++++++++++++++++++++++++ +++++++++++++++++++++++++++++++                            ....                                 ....                           ",
"                            ....                                 ....+++++++++++++++++++++++++++ +++++++++++++++++++++++++++++++ +++++++++++++++++++++++++++....                                 ....+++++++++++++++++++++++++++ +++++++++++++++++++++++++++++++ +++++++++++++++++++++++++++....                                 ....                       ....                                 ....+++++++++++++++++++++++++++ +++++++++++++++++++++++++++++++ +++++++++++++++++++++++++++....                                 ....+++++++++++++++++++++++++++ +++++++++++++++++++++++++++++++                            ....                                 ....                           ",
"                            ....                                 ...............................................................................................                                 ...............................................................................................                                 ...............................                                 ...............................................................................................                                 ...............................................................................................                                 ....                           ",
"                            ....                                 ...............................................................................................                                 ...............................................................................................                                 ...............................                                 ...............................................................................................                                 ...............................................................................................                                 ....                           ",
"                            ....                                 ...............................................................................................                                 ...............................................................................................                                 ...............................                                 ...............................................................................................                                 ...............................................................................................                                 ....                           ",
"                            ....                                 ...............................................................................................                                 ...............................................................................................                                 ...............................                                 ...............................................................................................                                 ...............................................................................................                                 ....                           ",
"                            ....                                                                                                                                                                                                                                                                                                                                                                                                                                                                                                                                                                                                                                 ....                           ",
"                            ....                                                                                                                                                                                                                                                                                                                                                                                                                                                                                                                                                                                                                                 ....                           ",
"                            ....                                                                                                                                                                                                                                                                                                                                                                                                                                                                                                                                                                                                                                 ....                           ",
"                            ....                                                                                                                                                                                                                                                                                                                                                                                                                                                                                                                                                                                                                                 ....                           ",
"                            ....                                                                                                                                                                                                                                                                                                                                                                                                                                                                                                                                                                                                                                 ....                           ",
"                            ....                                                                                                                                                                                                                                                                                                                                                                                                                                                                                                                                                                                                                                 ....                           ",
"                            ....                                                                                                                                                                                                                                                                                                                                                                                                                                                                                                                                                                                                                                 ....                           ",
"                            ....                                                                                                                                                                                                                                                                                                                                                                                                                                                                                                                                                                                                                                 ....                           ",
"                            ....                                                                                                                                                                                                                                                                                                                                                                                                                                                                                                                                                                                                                                 ....                           ",
"                            ....                                                                                                                                                                                                                                                                                                                                                                                                                                                                                                                                                                                                                                 ....                           ",
"                            ....                                                                                                                                                                                                                                                                                                                                                                                                                                                                                                                                                                                                                                 ....                           ",
"                            ....                                                                                                                                                                                                                                                                                                                                                                                                                                                                                                                                                                                                                                 ....                           ",
"                            ....                                                                                                                                                                                                                                                                                                                                                                                                                                                                                                                                                                                                                                 ....                           ",
"                            ....                                                                                                                                                                                                                                                                                                                                                                                                                                                                                                                                                                                                                                 ....                           ",
"                            ....                                                                                                                                                                                                                                                                                                                                                                                                                                                                                                                                                                                                                                 ....                           ",
"                            ....                                                                                                                                                                                                                                                                                                                                                                                                                                                                                                                                                                                                                                 ....                           ",
"                            ....                                                                                                                                                                                                                                                                                                                                                                                                                                                                                                                                                                                                                                 ....                           ",
"                            ....                                                                                                                                                                                                                                                                                                                                                                                                                                                                                                                                                                                                                                 ....                           ",
"                            ....                                                                                                                                                                                                                                                                                                                                                                                                                                                                                                                                                                                                                                 ....                           ",
"                            ....                                                                                                                                                                                                                                                                                                                                                                                                                                                                                                                                                                                                                                 ....                           ",
"                            ....                                                                                                                                                                                                                                                                                                                                                                                                                                                                                                                                                                                                                                 ....                           ",
"                            ....                                                                                                                                                                                                                                                                                                                                                                                                                                                                                                                                                                                                                                 ....                           ",
"                            ....                                                                                                                                                                                                                                                                                                                                                                                                                                                                                                                                                                                                                                 ....                           ",
"                            ....                                                                                                                                                                                                                                                                                                                                                                                                                                                                                                                                                                                                                                 ....                           ",
"                            ....                                                                                                                                                                                                                                                                                                                                                                                                                                                                                                                                                                                                                                 ....                           ",
"                            ....                                                                                                                                                                                                                                                                                                                                                                                                                                                                                                                                                                                                                                 ....                           ",
"                            ....                                                                                                                                                                                                                                                                                                                                                                                                                                                                                                                                                                                                                                 ....                           ",
"                            ....                                                                                                                                                                                                                                                                                                                                                                                                                                                                                                                                                                                                                                 ....                           ",
"                            ....                                                                                                                                                                                                                                                                                                                                                                                                                                                                                                                                                                                                                                 ....                           ",
"                            ....                                                                                                                                                                                                                                                                                                                                                                                                                                                                                                                                                                                                                                 ....                           ",
"                            ....                                                                                                                                                                                                                                                                                                                                                                                                                                                                                                                                                                                                                                 ....                           ",
"                            ....                                                                                                                                                                                                                                                                                                                                                                                                                                                                                                                                                                                                                                 ....                           ",
"                            ....                                                                                                                                                                                                                                                                                                                                                                                                                                                                                                                                                                                                                                 ....                           ",
"                            ....                                 ...............................................................................................                                 ...............................                                                                                                                                                                                                                                 ...............................                                 ...............................................................................................                                 ....                           ",
"                            ....                                 ...............................................................................................                                 ...............................                                                                                                 ...............................                                                                                                 ...............................                                 ...............................................................................................                                 ....                           ",
"                            ....                                 ...............................................................................................                                 ...............................                                                                                                 ...............................                                                                                                 ...............................                                 ...............................................................................................                                 ....                           ",
"                            ....                                 ...............................................................................................                                 ...............................                                                                                                 ...............................                                                                                                 ...............................                                 ...............................................................................................                                 ....                           ",
"                            ....                                 ....+++++++++++++++++++++++++++                                 +++++++++++++++++++++++++++....                                 ....+++++++++++++++++++++++....                                                                                                 ...............................                                                                                                 ....+++++++++++++++++++++++....                                 ....+++++++++++++++++++++++++++ +++++++++++++++++++++++++++++++ +++++++++++++++++++++++++++....                                 ....                           ",
"                            ....                                 ....+++++++++++++++++++++++++++                                 +++++++++++++++++++++++++++....                                 ....+++++++++++++++++++++++....                                                                                                 .... ++++++++++++++++++++++....                                                                                                 ....+++++++++++++++++++++++....                                 ....+++++++++++++++++++++++++++ +++++++++++++++++++++++++++++++ +++++++++++++++++++++++++++....                                 ....                           ",
"                            ....                                 ....+++++++++++++++++++++++++++                                 +++++++++++++++++++++++++++....                                 ....+++++++++++++++++++++++....                                                                                                 .... ++++++++++++++++++++++....                                                                                                 ....+++++++++++++++++++++++....                                 ....+++++++++++++++++++++++++++ +++++++++++++++++++++++++++++++ +++++++++++++++++++++++++++....                                 ....                           ",
"                            ....                                 ....+++++++++++++++++++++++++++                                 +++++++++++++++++++++++++++....                                 ....+++++++++++++++++++++++....                                                                                                 .... ++++++++++++++++++++++....                                                                                                 ....+++++++++++++++++++++++....                                 ....+++++++++++++++++++++++++++ +++++++++++++++++++++++++++++++ +++++++++++++++++++++++++++....                                 ....                           ",
"                            ....                                 ....+++++++++++++++++++++++++++                                 +++++++++++++++++++++++++++....                                 ....+++++++++++++++++++++++....                                                                                                 .... ++++++++++++++++++++++....                                                                                                 ....+++++++++++++++++++++++....                                 ....+++++++++++++++++++++++++++ +++++++++++++++++++++++++++++++ +++++++++++++++++++++++++++....                                 ....                           ",
"                            ....                                 ....+++++++++++++++++++++++++++                                 +++++++++++++++++++++++++++....                                 ....+++++++++++++++++++++++....                                                                                                 .... ++++++++++++++++++++++....                                                                                                 ....+++++++++++++++++++++++....                                 ....+++++++++++++++++++++++++++ +++++++++++++++++++++++++++++++ +++++++++++++++++++++++++++....                                 ....                           ",
"                            ....                                 ....+++++++++++++++++++++++++++                                 +++++++++++++++++++++++++++....                                 ....+++++++++++++++++++++++....                                                                                                 .... ++++++++++++++++++++++....                                                                                                 ....+++++++++++++++++++++++....                                 ....+++++++++++++++++++++++++++ +++++++++++++++++++++++++++++++ +++++++++++++++++++++++++++....                                 ....                           ",
"                            ....                                 ....+++++++++++++++++++++++++++                                 +++++++++++++++++++++++++++....                                 ....+++++++++++++++++++++++....                                                                                                 .... ++++++++++++++++++++++....                                                                                                 ....+++++++++++++++++++++++....                                 ....+++++++++++++++++++++++++++ +++++++++++++++++++++++++++++++ +++++++++++++++++++++++++++....                                 ....                           ",
"                            ....                                 ....+++++++++++++++++++++++++++                                 +++++++++++++++++++++++++++....                                 ....+++++++++++++++++++++++....                                                                                                 .... ++++++++++++++++++++++....                                                                                                 ....+++++++++++++++++++++++....                                 ....+++++++++++++++++++++++++++ +++++++++++++++++++++++++++++++ +++++++++++++++++++++++++++....                                 ....                           ",
"                            ....                                 ....+++++++++++++++++++++++++++                                 +++++++++++++++++++++++++++....                                 ....+++++++++++++++++++++++....                                                                                                 .... ++++++++++++++++++++++....                                                                                                 ....+++++++++++++++++++++++....                                 ....+++++++++++++++++++++++++++ +++++++++++++++++++++++++++++++ +++++++++++++++++++++++++++....                                 ....                           ",
"                            ....                                 ....+++++++++++++++++++++++++++                                 +++++++++++++++++++++++++++....                                 ....+++++++++++++++++++++++....                                                                                                 .... ++++++++++++++++++++++....                                                                                                 ....+++++++++++++++++++++++....                                 ....+++++++++++++++++++++++++++ +++++++++++++++++++++++++++++++ +++++++++++++++++++++++++++....                                 ....                           ",
"                            ....                                 ....+++++++++++++++++++++++++++                                 +++++++++++++++++++++++++++....                                 ....+++++++++++++++++++++++....                                                                                                 .... ++++++++++++++++++++++....                                                                                                 ....+++++++++++++++++++++++....                                 ....+++++++++++++++++++++++++++ +++++++++++++++++++++++++++++++ +++++++++++++++++++++++++++....                                 ....                           ",
"                            ....                                 ....+++++++++++++++++++++++++++                                 +++++++++++++++++++++++++++....                                 ....+++++++++++++++++++++++....                                                                                                 .... ++++++++++++++++++++++....                                                                                                 ....+++++++++++++++++++++++....                                 ....+++++++++++++++++++++++++++ +++++++++++++++++++++++++++++++ +++++++++++++++++++++++++++....                                 ....                           ",
"                            ....                                 ....+++++++++++++++++++++++++++                                 +++++++++++++++++++++++++++....                                 ....+++++++++++++++++++++++....                                                                                                 .... ++++++++++++++++++++++....                                                                                                 ....+++++++++++++++++++++++....                                 ....+++++++++++++++++++++++++++ +++++++++++++++++++++++++++++++ +++++++++++++++++++++++++++....                                 ....                           ",
"                            ....                                 ....+++++++++++++++++++++++++++                                 +++++++++++++++++++++++++++....                                 ....+++++++++++++++++++++++....                                                                                                 .... ++++++++++++++++++++++....                                                                                                 ....+++++++++++++++++++++++....                                 ....+++++++++++++++++++++++++++ +++++++++++++++++++++++++++++++ +++++++++++++++++++++++++++....                                 ....                           ",
"                            ....                                 ....+++++++++++++++++++++++++++                                 +++++++++++++++++++++++++++....                                 ....+++++++++++++++++++++++....                                                                                                 .... ++++++++++++++++++++++....                                                                                                 ....+++++++++++++++++++++++....                                 ....+++++++++++++++++++++++++++ +++++++++++++++++++++++++++++++ +++++++++++++++++++++++++++....                                 ....                           ",
"                            ....                                 ....+++++++++++++++++++++++++++                                 +++++++++++++++++++++++++++....                                 ....+++++++++++++++++++++++....                                                                                                 .... ++++++++++++++++++++++....                                                                                                 ....+++++++++++++++++++++++....                                 ....+++++++++++++++++++++++++++ +++++++++++++++++++++++++++++++ +++++++++++++++++++++++++++....                                 ....                           ",
"                            ....                                 ....+++++++++++++++++++++++++++                                 +++++++++++++++++++++++++++....                                 ....+++++++++++++++++++++++....                                                                                                 .... ++++++++++++++++++++++....                                                                                                 ....+++++++++++++++++++++++....                                 ....+++++++++++++++++++++++++++ +++++++++++++++++++++++++++++++ +++++++++++++++++++++++++++....                                 ....                           ",
"                            ....                                 ....+++++++++++++++++++++++++++                                 +++++++++++++++++++++++++++....                                 ....+++++++++++++++++++++++....                                                                                                 .... ++++++++++++++++++++++....                                                                                                 ....+++++++++++++++++++++++....                                 ....+++++++++++++++++++++++++++ +++++++++++++++++++++++++++++++ +++++++++++++++++++++++++++....                                 ....                           ",
"                            ....                                 ....+++++++++++++++++++++++++++                                 +++++++++++++++++++++++++++....                                 ....+++++++++++++++++++++++....                                                                                                 .... ++++++++++++++++++++++....                                                                                                 ....+++++++++++++++++++++++....                                 ....+++++++++++++++++++++++++++ +++++++++++++++++++++++++++++++ +++++++++++++++++++++++++++....                                 ....                           ",
"                            ....                                 ....+++++++++++++++++++++++++++                                 +++++++++++++++++++++++++++....                                 ....+++++++++++++++++++++++....                                                                                                 .... ++++++++++++++++++++++....                                                                                                 ....+++++++++++++++++++++++....                                 ....+++++++++++++++++++++++++++ +++++++++++++++++++++++++++++++ +++++++++++++++++++++++++++....                                 ....                           ",
"                            ....                                 ....+++++++++++++++++++++++++++                                 +++++++++++++++++++++++++++....                                 ....+++++++++++++++++++++++....                                                                                                 .... ++++++++++++++++++++++....                                                                                                 ....+++++++++++++++++++++++....                                 ....+++++++++++++++++++++++++++ +++++++++++++++++++++++++++++++ +++++++++++++++++++++++++++....                                 ....                           ",
"                            ....                                 ....+++++++++++++++++++++++++++                                 +++++++++++++++++++++++++++....                                 ....+++++++++++++++++++++++....                                                                                                 .... ++++++++++++++++++++++....                                                                                                 ....+++++++++++++++++++++++....                                 ....+++++++++++++++++++++++++++ +++++++++++++++++++++++++++++++ +++++++++++++++++++++++++++....                                 ....                           ",
"                            ....                                 ....+++++++++++++++++++++++++++                                 +++++++++++++++++++++++++++....                                 ....+++++++++++++++++++++++....                                                                                                 .... ++++++++++++++++++++++....                                                                                                 ....+++++++++++++++++++++++....                                 ....+++++++++++++++++++++++++++ +++++++++++++++++++++++++++++++ +++++++++++++++++++++++++++....                                 ....                           ",
"                            ....                                 ....+++++++++++++++++++++++++++                                 +++++++++++++++++++++++++++....                                 ....+++++++++++++++++++++++....                                                                                                 .... ++++++++++++++++++++++....                                                                                                 ....+++++++++++++++++++++++....                                 ....+++++++++++++++++++++++++++ +++++++++++++++++++++++++++++++ +++++++++++++++++++++++++++....                                 ....                           ",
"                            ....                                 ....+++++++++++++++++++++++++++                                 +++++++++++++++++++++++++++....                                 ....+++++++++++++++++++++++....                                                                                                 .... ++++++++++++++++++++++....                                                                                                 ....+++++++++++++++++++++++....                                 ....+++++++++++++++++++++++++++ +++++++++++++++++++++++++++++++ +++++++++++++++++++++++++++....                                 ....                           ",
"                            ....                                 ....+++++++++++++++++++++++++++                                 +++++++++++++++++++++++++++....                                 ....+++++++++++++++++++++++....                                                                                                 .... ++++++++++++++++++++++....                                                                                                 ....+++++++++++++++++++++++....                                 ....+++++++++++++++++++++++++++ +++++++++++++++++++++++++++++++ +++++++++++++++++++++++++++....                                 ....                           ",
"                            ....                                 ....                                                                                       ....                                 ....                       ....                                                                                                 ....                       ....                                                                                                 ....                       ....                                 ....                                                                                       ....                                 ....                           ",
"                            ....                                 ....+++++++++++++++++++++++++++ +++++++++++++++++++++++++++++++ +++++++++++++++++++++++++++....                                 ....+++++++++++++++++++++++....................................................................                                 .... ++++++++++++++++++++++....                                 ....................................................................                       ....                                 ....+++++++++++++++++++++++++++                                 +++++++++++++++++++++++++++....                                 ....                           ",
"                            ....                                 ....+++++++++++++++++++++++++++ +++++++++++++++++++++++++++++++ +++++++++++++++++++++++++++....                                 ....+++++++++++++++++++++++....................................................................                                 .... ++++++++++++++++++++++....                                 ....................................................................                       ....                                 ....+++++++++++++++++++++++++++                                 +++++++++++++++++++++++++++....                                 ....                           ",
"                            ....                                 ....+++++++++++++++++++++++++++ +++++++++++++++++++++++++++++++ +++++++++++++++++++++++++++....                                 ....+++++++++++++++++++++++....................................................................                                 .... ++++++++++++++++++++++....                                 ....................................................................                       ....                                 ....+++++++++++++++++++++++++++                                 +++++++++++++++++++++++++++....                                 ....                           ",
"                            ....                                 ....+++++++++++++++++++++++++++ +++++++++++++++++++++++++++++++ +++++++++++++++++++++++++++....                                 ....+++++++++++++++++++++++....................................................................                                 .... ++++++++++++++++++++++....                                 ....................................................................                       ....                                 ....+++++++++++++++++++++++++++                                 +++++++++++++++++++++++++++....                                 ....                           ",
"                            ....                                 ....+++++++++++++++++++++++++++ +++++++++++++++++++++++++++++++ +++++++++++++++++++++++++++....                                 ....+++++++++++++++++++++++++++ +++++++++++++++++++++++++++++++ +++++++++++++++++++++++++++....                                 .... ++++++++++++++++++++++....                                 ....+++++++++++++++++++++++++++ +++++++++++++++++++++++++++++++                            ....                                 ....+++++++++++++++++++++++++++                                 +++++++++++++++++++++++++++....                                 ....                           ",
"                            ....                                 ....+++++++++++++++++++++++++++ +++++++++++++++++++++++++++++++ +++++++++++++++++++++++++++....                                 ....+++++++++++++++++++++++++++ +++++++++++++++++++++++++++++++ +++++++++++++++++++++++++++....                                 .... ++++++++++++++++++++++....                                 ....+++++++++++++++++++++++++++ +++++++++++++++++++++++++++++++                            ....                                 ....+++++++++++++++++++++++++++                                 +++++++++++++++++++++++++++....                                 ....                           ",
"                            ....                                 ....+++++++++++++++++++++++++++ +++++++++++++++++++++++++++++++ +++++++++++++++++++++++++++....                                 ....+++++++++++++++++++++++++++ +++++++++++++++++++++++++++++++ +++++++++++++++++++++++++++....                                 .... ++++++++++++++++++++++....                                 ....+++++++++++++++++++++++++++ +++++++++++++++++++++++++++++++                            ....                                 ....+++++++++++++++++++++++++++                                 +++++++++++++++++++++++++++....                                 ....                           ",
"                            ....                                 ....+++++++++++++++++++++++++++ +++++++++++++++++++++++++++++++ +++++++++++++++++++++++++++....                                 ....+++++++++++++++++++++++++++ +++++++++++++++++++++++++++++++ +++++++++++++++++++++++++++....                                 .... ++++++++++++++++++++++....                                 ....+++++++++++++++++++++++++++ +++++++++++++++++++++++++++++++                            ....                                 ....+++++++++++++++++++++++++++                                 +++++++++++++++++++++++++++....                                 ....                           ",
"                            ....                                 ....+++++++++++++++++++++++++++ +++++++++++++++++++++++++++++++ +++++++++++++++++++++++++++....                                 ....+++++++++++++++++++++++++++ +++++++++++++++++++++++++++++++ +++++++++++++++++++++++++++....                                 .... ++++++++++++++++++++++....                                 ....+++++++++++++++++++++++++++ +++++++++++++++++++++++++++++++                            ....                                 ....+++++++++++++++++++++++++++                                 +++++++++++++++++++++++++++....                                 ....                           ",
"                            ....                                 ....+++++++++++++++++++++++++++ +++++++++++++++++++++++++++++++ +++++++++++++++++++++++++++....                                 ....+++++++++++++++++++++++++++ +++++++++++++++++++++++++++++++ +++++++++++++++++++++++++++....                                 .... ++++++++++++++++++++++....                                 ....+++++++++++++++++++++++++++ +++++++++++++++++++++++++++++++                            ....                                 ....+++++++++++++++++++++++++++                                 +++++++++++++++++++++++++++....                                 ....                           ",
"                            ....                                 ....+++++++++++++++++++++++++++ +++++++++++++++++++++++++++++++ +++++++++++++++++++++++++++....                                 ....+++++++++++++++++++++++++++ +++++++++++++++++++++++++++++++ +++++++++++++++++++++++++++....                                 .... ++++++++++++++++++++++....                                 ....+++++++++++++++++++++++++++ +++++++++++++++++++++++++++++++                            ....                                 ....+++++++++++++++++++++++++++                                 +++++++++++++++++++++++++++....                                 ....                           ",
"                            ....                                 ....+++++++++++++++++++++++++++ +++++++++++++++++++++++++++++++ +++++++++++++++++++++++++++....                                 ....+++++++++++++++++++++++++++ +++++++++++++++++++++++++++++++ +++++++++++++++++++++++++++....                                 .... ++++++++++++++++++++++....                                 ....+++++++++++++++++++++++++++ +++++++++++++++++++++++++++++++                            ....                                 ....+++++++++++++++++++++++++++                                 +++++++++++++++++++++++++++....                                 ....                           ",
"                            ....                                 ....+++++++++++++++++++++++++++ +++++++++++++++++++++++++++++++ +++++++++++++++++++++++++++....                                 ....+++++++++++++++++++++++++++ +++++++++++++++++++++++++++++++ +++++++++++++++++++++++++++....                                 .... ++++++++++++++++++++++....                                 ....+++++++++++++++++++++++++++ +++++++++++++++++++++++++++++++                            ....                                 ....+++++++++++++++++++++++++++                                 +++++++++++++++++++++++++++....                                 ....                           ",
"                            ....                                 ....+++++++++++++++++++++++++++ +++++++++++++++++++++++++++++++ +++++++++++++++++++++++++++....                                 ....+++++++++++++++++++++++++++ +++++++++++++++++++++++++++++++ +++++++++++++++++++++++++++....                                 .... ++++++++++++++++++++++....                                 ....+++++++++++++++++++++++++++ +++++++++++++++++++++++++++++++                            ....                                 ....+++++++++++++++++++++++++++                                 +++++++++++++++++++++++++++....                                 ....                           ",
"                            ....                                 ....+++++++++++++++++++++++++++ +++++++++++++++++++++++++++++++ +++++++++++++++++++++++++++....                                 ....+++++++++++++++++++++++++++ +++++++++++++++++++++++++++++++ +++++++++++++++++++++++++++....                                 .... ++++++++++++++++++++++....                                 ....+++++++++++++++++++++++++++ +++++++++++++++++++++++++++++++                            ....                                 ....+++++++++++++++++++++++++++                                 +++++++++++++++++++++++++++....                                 ....                           ",
"                            ....                                 ....+++++++++++++++++++++++++++ +++++++++++++++++++++++++++++++ +++++++++++++++++++++++++++....                                 ....+++++++++++++++++++++++++++ +++++++++++++++++++++++++++++++ +++++++++++++++++++++++++++....                                 .... ++++++++++++++++++++++....                                 ....+++++++++++++++++++++++++++ +++++++++++++++++++++++++++++++                            ....                                 ....+++++++++++++++++++++++++++                                 +++++++++++++++++++++++++++....                                 ....                           ",
"                            ....                                 ....+++++++++++++++++++++++++++ +++++++++++++++++++++++++++++++ +++++++++++++++++++++++++++....                                 ....+++++++++++++++++++++++++++ +++++++++++++++++++++++++++++++ +++++++++++++++++++++++++++....                                 .... ++++++++++++++++++++++....                                 ....+++++++++++++++++++++++++++ +++++++++++++++++++++++++++++++                            ....                                 ....+++++++++++++++++++++++++++                                 +++++++++++++++++++++++++++....                                 ....                           ",
"                            ....                                 ....+++++++++++++++++++++++++++ +++++++++++++++++++++++++++++++ +++++++++++++++++++++++++++....                                 ....+++++++++++++++++++++++++++ +++++++++++++++++++++++++++++++ +++++++++++++++++++++++++++....                                 .... ++++++++++++++++++++++....                                 ....+++++++++++++++++++++++++++ +++++++++++++++++++++++++++++++                            ....                                 ....+++++++++++++++++++++++++++                                 +++++++++++++++++++++++++++....                                 ....                           ",
"                            ....                                 ....+++++++++++++++++++++++++++ +++++++++++++++++++++++++++++++ +++++++++++++++++++++++++++....                                 ....+++++++++++++++++++++++++++ +++++++++++++++++++++++++++++++ +++++++++++++++++++++++++++....                                 .... ++++++++++++++++++++++....                                 ....+++++++++++++++++++++++++++ +++++++++++++++++++++++++++++++                            ....                                 ....+++++++++++++++++++++++++++                                 +++++++++++++++++++++++++++....                                 ....                           ",
"                            ....                                 ....+++++++++++++++++++++++++++ +++++++++++++++++++++++++++++++ +++++++++++++++++++++++++++....                                 ....+++++++++++++++++++++++++++ +++++++++++++++++++++++++++++++ +++++++++++++++++++++++++++....                                 .... ++++++++++++++++++++++....                                 ....+++++++++++++++++++++++++++ +++++++++++++++++++++++++++++++                            ....                                 ....+++++++++++++++++++++++++++                                 +++++++++++++++++++++++++++....                                 ....                           ",
"                            ....                                 ....+++++++++++++++++++++++++++ +++++++++++++++++++++++++++++++ +++++++++++++++++++++++++++....                                 ....+++++++++++++++++++++++++++ +++++++++++++++++++++++++++++++ +++++++++++++++++++++++++++....                                 .... ++++++++++++++++++++++....                                 ....+++++++++++++++++++++++++++ +++++++++++++++++++++++++++++++                            ....                                 ....+++++++++++++++++++++++++++                                 +++++++++++++++++++++++++++....                                 ....                           ",
"                            ....                                 ....+++++++++++++++++++++++++++ +++++++++++++++++++++++++++++++ +++++++++++++++++++++++++++....                                 ....+++++++++++++++++++++++++++ +++++++++++++++++++++++++++++++ +++++++++++++++++++++++++++....                                 .... ++++++++++++++++++++++....                                 ....+++++++++++++++++++++++++++ +++++++++++++++++++++++++++++++                            ....                                 ....+++++++++++++++++++++++++++                                 +++++++++++++++++++++++++++....                                 ....                           ",
"                            ....                                 ....+++++++++++++++++++++++++++ +++++++++++++++++++++++++++++++ +++++++++++++++++++++++++++....                                 ....+++++++++++++++++++++++++++ +++++++++++++++++++++++++++++++ +++++++++++++++++++++++++++....                                 .... ++++++++++++++++++++++....                                 ....+++++++++++++++++++++++++++ +++++++++++++++++++++++++++++++                            ....                                 ....+++++++++++++++++++++++++++                                 +++++++++++++++++++++++++++....                                 ....                           ",
"                            ....                                 ....+++++++++++++++++++++++++++ +++++++++++++++++++++++++++++++ +++++++++++++++++++++++++++....                                 ....+++++++++++++++++++++++++++ +++++++++++++++++++++++++++++++ +++++++++++++++++++++++++++....                                 .... ++++++++++++++++++++++....                                 ....+++++++++++++++++++++++++++ +++++++++++++++++++++++++++++++                            ....                                 ....+++++++++++++++++++++++++++                                 +++++++++++++++++++++++++++....                                 ....                           ",
"                            ....                                 ....+++++++++++++++++++++++++++ +++++++++++++++++++++++++++++++ +++++++++++++++++++++++++++....                                 ....+++++++++++++++++++++++++++ +++++++++++++++++++++++++++++++ +++++++++++++++++++++++++++....                                 .... ++++++++++++++++++++++....                                 ....+++++++++++++++++++++++++++ +++++++++++++++++++++++++++++++                            ....                                 ....+++++++++++++++++++++++++++                                 +++++++++++++++++++++++++++....                                 ....                           ",
"                            ....                                 ....+++++++++++++++++++++++++++ +++++++++++++++++++++++++++++++ +++++++++++++++++++++++++++....                                 ....+++++++++++++++++++++++++++ +++++++++++++++++++++++++++++++ +++++++++++++++++++++++++++....                                 .... ++++++++++++++++++++++....                                 ....+++++++++++++++++++++++++++ +++++++++++++++++++++++++++++++                            ....                                 ....+++++++++++++++++++++++++++                                 +++++++++++++++++++++++++++....                                 ....                           ",
"                            ....                                 ....+++++++++++++++++++++++++++ +++++++++++++++++++++++++++++++ +++++++++++++++++++++++++++....                                 ....+++++++++++++++++++++++++++ +++++++++++++++++++++++++++++++ +++++++++++++++++++++++++++....                                 .... ++++++++++++++++++++++....                                 ....+++++++++++++++++++++++++++ +++++++++++++++++++++++++++++++                            ....                                 ....+++++++++++++++++++++++++++                                 +++++++++++++++++++++++++++....                                 ....                           ",
"                            ....                                 ...............................................................................................                                 ....+++++++++++++++++++++++....................................................................                                 .... ++++++++++++++++++++++....                                 ....................................................................                       ....                                 ...............................................................................................                                 ....                           ",
"                            ....                                 ...............................................................................................                                 ....+++++++++++++++++++++++....................................................................                                 .... ++++++++++++++++++++++....                                 ....................................................................                       ....                                 ...............................................................................................                                 ....                           ",
"                            ....                                 ...............................................................................................                                 ....+++++++++++++++++++++++....................................................................                                 .... ++++++++++++++++++++++....                                 ....................................................................                       ....                                 ...............................................................................................                                 ....                           ",
"                            ....                                 ...............................................................................................                                 ....+++++++++++++++++++++++....................................................................                                 .... ++++++++++++++++++++++....                                 ....................................................................                       ....                                 ...............................................................................................                                 ....                           ",
"                            ....                                                                                                                                                                 ....                       ....                                                                                                 ....                       ....                                                                                                 ....                       ....                                                                                                                                                                 ....                           ",
"                            ....                                                                                                                                                                 ....+++++++++++++++++++++++....                                                                                                 .... ++++++++++++++++++++++....                                                                                                 ....                       ....                                                                                                                                                                 ....                           ",
"                            ....                                                                                                                                                                 ....+++++++++++++++++++++++....                                                                                                 .... ++++++++++++++++++++++....                                                                                                 ....                       ....                                                                                                                                                                 ....                           ",
"                            ....                                                                                                                                                                 ....+++++++++++++++++++++++....                                                                                                 .... ++++++++++++++++++++++....                                                                                                 ....                       ....                                                                                                                                                                 ....                           ",
"                            ....                                                                                                                                                                 ....+++++++++++++++++++++++....                                                                                                 .... ++++++++++++++++++++++....                                                                                                 ....                       ....                                                                                                                                                                 ....                           ",
"                            ....                                                                                                                                                                 ....+++++++++++++++++++++++....                                                                                                 .... ++++++++++++++++++++++....                                                                                                 ....                       ....                                                                                                                                                                 ....                           ",
"                            ....                                                                                                                                                                 ....+++++++++++++++++++++++....                                                                                                 .... ++++++++++++++++++++++....                                                                                                 ....                       ....                                                                                                                                                                 ....                           ",
"                            ....                                                                                                                                                                 ....+++++++++++++++++++++++....                                                                                                 .... ++++++++++++++++++++++....                                                                                                 ....                       ....                                                                                                                                                                 ....                           ",
"                            ....                                                                                                                                                                 ....+++++++++++++++++++++++....                                                                                                 .... ++++++++++++++++++++++....                                                                                                 ....                       ....                                                                                                                                                                 ....                           ",
"                            ....                                                                                                                                                                 ....+++++++++++++++++++++++....                                                                                                 .... ++++++++++++++++++++++....                                                                                                 ....                       ....                                                                                                                                                                 ....                           ",
"                            ....                                                                                                                                                                 ....+++++++++++++++++++++++....                                                                                                 .... ++++++++++++++++++++++....                                                                                                 ....                       ....                                                                                                                                                                 ....                           ",
"                            ....                                                                                                                                                                 ....+++++++++++++++++++++++....                                                                                                 .... ++++++++++++++++++++++....                                                                                                 ....                       ....                                                                                                                                                                 ....                           ",
"                            ....                                                                                                                                                                 ....+++++++++++++++++++++++....                                                                                                 .... ++++++++++++++++++++++....                                                                                                 ....                       ....                                                                                                                                                                 ....                           ",
"                            ....                                                                                                                                                                 ....+++++++++++++++++++++++....                                                                                                 .... ++++++++++++++++++++++....                                                                                                 ....                       ....                                                                                                                                                                 ....                           ",
"                            ....                                                                                                                                                                 ....+++++++++++++++++++++++....                                                                                                 .... ++++++++++++++++++++++....                                                                                                 ....                       ....                                                                                                                                                                 ....                           ",
"                            ....                                                                                                                                                                 ....+++++++++++++++++++++++....                                                                                                 .... ++++++++++++++++++++++....                                                                                                 ....                       ....                                                                                                                                                                 ....                           ",
"                            ....                                                                                                                                                                 ....+++++++++++++++++++++++....                                                                                                 .... ++++++++++++++++++++++....                                                                                                 ....                       ....                                                                                                                                                                 ....                           ",
"                            ....                                                                                                                                                                 ....+++++++++++++++++++++++....                                                                                                 .... ++++++++++++++++++++++....                                                                                                 ....                       ....                                                                                                                                                                 ....                           ",
"                            ....                                                                                                                                                                 ....+++++++++++++++++++++++....                                                                                                 .... ++++++++++++++++++++++....                                                                                                 ....                       ....                                                                                                                                                                 ....                           ",
"                            ....                                                                                                                                                                 ....+++++++++++++++++++++++....                                                                                                 .... ++++++++++++++++++++++....                                                                                                 ....                       ....                                                                                                                                                                 ....                           ",
"                            ....                                                                                                                                                                 ....+++++++++++++++++++++++....                                                                                                 .... ++++++++++++++++++++++....                                                                                                 ....                       ....                                                                                                                                                                 ....                           ",
"                            ....                                                                                                                                                                 ....+++++++++++++++++++++++....                                                                                                 .... ++++++++++++++++++++++....                                                                                                 ....                       ....                                                                                                                                                                 ....                           ",
"                            ....                                                                                                                                                                 ....+++++++++++++++++++++++....                                                                                                 .... ++++++++++++++++++++++....                                                                                                 ....                       ....                                                                                                                                                                 ....                           ",
"                            ....                                                                                                                                                                 ....+++++++++++++++++++++++....                                                                                                 .... ++++++++++++++++++++++....                                                                                                 ....                       ....                                                                                                                                                                 ....                           ",
"                            ....                                                                                                                                                                 ....+++++++++++++++++++++++....                                                                                                 .... ++++++++++++++++++++++....                                                                                                 ....                       ....                                                                                                                                                                 ....                           ",
"                            ....                                                                                                                                                                 ....+++++++++++++++++++++++....                                                                                                 .... ++++++++++++++++++++++....                                                                                                 ....                       ....                                                                                                                                                                 ....                           ",
"                            ....                                                                                                                                                                 ....+++++++++++++++++++++++....                                                                                                 .... ++++++++++++++++++++++....                                                                                                 ....                       ....                                                                                                                                                                 ....                           ",
"                            ....                                                                                                                                                                 ....+++++++++++++++++++++++....                                                                                                 .... ++++++++++++++++++++++....                                                                                                 ....                       ....                                                                                                                                                                 ....                           ",
"                            ....                                                                                                                                                                 ...............................                                                                                                 ...............................                                                                                                 ...............................                                                                                                                                                                 ....                           ",
"                            ....                                                                                                                                                                 ...............................                                                                                                 ...............................                                                                                                 ...............................                                                                                                                                                                 ....                           ",
"                            ....                                                                                                                                                                 ...............................                                                                                                 ...............................                                                                                                 ...............................                                                                                                                                                                 ....                           ",
"                            ....                                                                                                                                                                 ...............................                                                                                                 ...............................                                                                                                 ...............................                                                                                                                                                                 ....                           ",
"                            ....                                                                                                                                                                                                                                                                                                                                                                                                                                                                                                                                                                                                                                 ....                           ",
"                            ....................................................................................................                                                                                                                                                                                                                                                                                                                                                                                                                                 ....................................................................................................                           ",
"                            ....................................................................................................                                                                                                                                                                                                                                                                                                                                                                                                                                 ....................................................................................................                           ",
"                            ....................................................................................................                                                                                                                                                                                                                                                                                                                                                                                                                                 ....................................................................................................                           ",
"                            ....................................................................................................                                                                                                                                                                                                                                                                                                                                                                                                                                 ....................................................................................................                           ",
"                                                                                                                            ....                                                                                                                                                                                                                                                                                                                                                                                                                                 ....+++++++++++++++++++++++++++ +++++++++++++++++++++++++++++++ +++++++++++++++++++++++++++++++                                ",
"                                                                                                                            ....                                                                                                                                                                                                                                                                                                                                                                                                                                 ....+++++++++++++++++++++++++++ +++++++++++++++++++++++++++++++ +++++++++++++++++++++++++++++++                                ",
"                                                                                                                            ....                                                                                                                                                                                                                                                                                                                                                                                                                                 ....+++++++++++++++++++++++++++ +++++++++++++++++++++++++++++++ +++++++++++++++++++++++++++++++                                ",
"                                                                                                                            ....                                                                                                                                                                                                                                                                                                                                                                                                                                 ....+++++++++++++++++++++++++++ +++++++++++++++++++++++++++++++ +++++++++++++++++++++++++++++++                                ",
"                                                                                                                            ....                                                                                                                                                                                                                                                                                                                                                                                                                                 ....+++++++++++++++++++++++++++ +++++++++++++++++++++++++++++++ +++++++++++++++++++++++++++++++                                ",
"                                                                                                                            ....                                                                                                                                                                                                                                                                                                                                                                                                                                 ....+++++++++++++++++++++++++++ +++++++++++++++++++++++++++++++ +++++++++++++++++++++++++++++++                                ",
"                                                                                                                            ....                                                                                                                                                                                                                                                                                                                                                                                                                                 ....+++++++++++++++++++++++++++ +++++++++++++++++++++++++++++++ +++++++++++++++++++++++++++++++                                ",
"                                                                                                                            ....                                                                                                                                                                                                                                                                                                                                                                                                                                 ....+++++++++++++++++++++++++++ +++++++++++++++++++++++++++++++ +++++++++++++++++++++++++++++++                                ",
"                                                                                                                            ....                                                                                                                                                                                                                                                                                                                                                                                                                                 ....+++++++++++++++++++++++++++ +++++++++++++++++++++++++++++++ +++++++++++++++++++++++++++++++                                ",
"                                                                                                                            ....                                                                                                                                                                                                                                                                                                                                                                                                                                 ....+++++++++++++++++++++++++++ +++++++++++++++++++++++++++++++ +++++++++++++++++++++++++++++++                                ",
"                                                                                                                            ....                                                                                                                                                                                                                                                                                                                                                                                                                                 ....+++++++++++++++++++++++++++ +++++++++++++++++++++++++++++++ +++++++++++++++++++++++++++++++                                ",
"                                                                                                                            ....                                                                                                                                                                                                                                                                                                                                                                                                                                 ....+++++++++++++++++++++++++++ +++++++++++++++++++++++++++++++ +++++++++++++++++++++++++++++++                                ",
"                                                                                                                            ....                                                                                                                                                                                                                                                                                                                                                                                                                                 ....+++++++++++++++++++++++++++ +++++++++++++++++++++++++++++++ +++++++++++++++++++++++++++++++                                ",
"                                                                                                                            ....                                                                                                                                                                                                                                                                                                                                                                                                                                 ....+++++++++++++++++++++++++++ +++++++++++++++++++++++++++++++ +++++++++++++++++++++++++++++++                                ",
"                                                                                                                            ....                                                                                                                                                                                                                                                                                                                                                                                                                                 ....+++++++++++++++++++++++++++ +++++++++++++++++++++++++++++++ +++++++++++++++++++++++++++++++                                ",
"                                                                                                                            ....                                                                                                                                                                                                                                                                                                                                                                                                                                 ....+++++++++++++++++++++++++++ +++++++++++++++++++++++++++++++ +++++++++++++++++++++++++++++++                                ",
"                                                                                                                            ....                                                                                                                                                                                                                                                                                                                                                                                                                                 ....+++++++++++++++++++++++++++ +++++++++++++++++++++++++++++++ +++++++++++++++++++++++++++++++                                ",
"                                                                                                                            ....                                                                                                                                                                                                                                                                                                                                                                                                                                 ....+++++++++++++++++++++++++++ +++++++++++++++++++++++++++++++ +++++++++++++++++++++++++++++++                                ",
"                                                                                                                            ....                                                                                                                                                                                                                                                                                                                                                                                                                                 ....+++++++++++++++++++++++++++ +++++++++++++++++++++++++++++++ +++++++++++++++++++++++++++++++                                ",
"                                                                                                                            ....                                                                                                                                                                                                                                                                                                                                                                                                                                 ....+++++++++++++++++++++++++++ +++++++++++++++++++++++++++++++ +++++++++++++++++++++++++++++++                                ",
"                                                                                                                            ....                                                                                                                                                                                                                                                                                                                                                                                                                                 ....+++++++++++++++++++++++++++ +++++++++++++++++++++++++++++++ +++++++++++++++++++++++++++++++                                ",
"                                                                                                                            ....                                                                                                                                                                                                                                                                                                                                                                                                                                 ....+++++++++++++++++++++++++++ +++++++++++++++++++++++++++++++ +++++++++++++++++++++++++++++++                                ",
"                                                                                                                            ....                                                                                                                                                                                                                                                                                                                                                                                                                                 ....+++++++++++++++++++++++++++ +++++++++++++++++++++++++++++++ +++++++++++++++++++++++++++++++                                ",
"                                                                                                                            ....                                                                                                                                                                                                                                                                                                                                                                                                                                 ....+++++++++++++++++++++++++++ +++++++++++++++++++++++++++++++ +++++++++++++++++++++++++++++++                                ",
"                                                                                                                            ....                                                                                                                                                                                                                                                                                                                                                                                                                                 ....+++++++++++++++++++++++++++ +++++++++++++++++++++++++++++++ +++++++++++++++++++++++++++++++                                ",
"                                                                                                                            ....                                                                                                                                                                                                                                                                                                                                                                                                                                 ....+++++++++++++++++++++++++++ +++++++++++++++++++++++++++++++ +++++++++++++++++++++++++++++++                                ",
"                                                                                                                            ....                                                                                                                                                                                                                                                                                                                                                                                                                                 ....+++++++++++++++++++++++++++ +++++++++++++++++++++++++++++++ +++++++++++++++++++++++++++++++                                ",
"                                                                                                                            ....                                                                                                                                                                                                                                                                                                                                                                                                                                 ....                                                                                                                           ",
"                                                                                                                            ....                                                                                                                                 ...............................................................                                 ...............................................................                                                                                                                                 ....+++++++++++++++++++++++++++ +++++++++++++++++++++++++++++++ +++++++++++++++++++++++++++++++                                ",
"                                                                                                                            ....                                                                                                                                 ...............................................................                                 ...............................................................                                                                                                                                 ....+++++++++++++++++++++++++++ +++++++++++++++++++++++++++++++ +++++++++++++++++++++++++++++++                                ",
"                                                                                                                            ....                                                                                                                                 ...............................................................                                 ...............................................................                                                                                                                                 ....+++++++++++++++++++++++++++ +++++++++++++++++++++++++++++++ +++++++++++++++++++++++++++++++                                ",
"                                                                                                                            ....                                                                                                                                 ...............................................................                                 ...............................................................                                                                                                                                 ....+++++++++++++++++++++++++++ +++++++++++++++++++++++++++++++ +++++++++++++++++++++++++++++++                                ",
"                                                                                                                            ....                                                                                                                                 ....                                                                                                                                                       ....                                                                                                                                 ....+++++++++++++++++++++++++++ +++++++++++++++++++++++++++++++ +++++++++++++++++++++++++++++++                                ",
"                                                                                                                            ....                                                                                                                                 ....                                                                                                                                                       ....                                                                                                                                 ....+++++++++++++++++++++++++++ +++++++++++++++++++++++++++++++ +++++++++++++++++++++++++++++++                                ",
"                                                                                                                            ....                                                                                                                                 ....                                                                                                                                                       ....                                                                                                                                 ....+++++++++++++++++++++++++++ +++++++++++++++++++++++++++++++ +++++++++++++++++++++++++++++++                                ",
"                                                                                                                            ....                                                                                                                                 ....                                                                                                                                                       ....                                                                                                                                 ....+++++++++++++++++++++++++++ +++++++++++++++++++++++++++++++ +++++++++++++++++++++++++++++++                                ",
"                                                                                                                            ....                                                                                                                                 ....                                                                                                                                                       ....                                                                                                                                 ....+++++++++++++++++++++++++++ +++++++++++++++++++++++++++++++ +++++++++++++++++++++++++++++++                                ",
"                                                                                                                            ....                                                                                                                                 ....                                                                                                                                                       ....                                                                                                                                 ....+++++++++++++++++++++++++++ +++++++++++++++++++++++++++++++ +++++++++++++++++++++++++++++++                                ",
"                                                                                                                            ....                                                                                                                                 ....                                                                                                                                                       ....                                                                                                                                 ....+++++++++++++++++++++++++++ +++++++++++++++++++++++++++++++ +++++++++++++++++++++++++++++++                                ",
"                                                                                                                            ....                                                                                                                                 ....                                                                                                                                                       ....                                                                                                                                 ....+++++++++++++++++++++++++++ +++++++++++++++++++++++++++++++ +++++++++++++++++++++++++++++++                                ",
"                                                                                                                            ....                                                                                                                                 ....                                                                                                                                                       ....                                                                                                                                 ....+++++++++++++++++++++++++++ +++++++++++++++++++++++++++++++ +++++++++++++++++++++++++++++++                                ",
"                                                                                                                            ....                                                                                                                                 ....                                                                                                                                                       ....                                                                                                                                 ....+++++++++++++++++++++++++++ +++++++++++++++++++++++++++++++ +++++++++++++++++++++++++++++++                                ",
"                                                                                                                            ....                                                                                                                                 ....                                                                                                                                                       ....                                                                                                                                 ....+++++++++++++++++++++++++++ +++++++++++++++++++++++++++++++ +++++++++++++++++++++++++++++++                                ",
"                                                                                                                            ....                                                                                                                                 ....                                                                                                                                                       ....                                                                                                                                 ....+++++++++++++++++++++++++++ +++++++++++++++++++++++++++++++ +++++++++++++++++++++++++++++++                                ",
"                                                                                                                            ....                                                                                                                                 ....                                                                                                                                                       ....                                                                                                                                 ....+++++++++++++++++++++++++++ +++++++++++++++++++++++++++++++ +++++++++++++++++++++++++++++++                                ",
"                                                                                                                            ....                                                                                                                                 ....                                                                                                                                                       ....                                                                                                                                 ....+++++++++++++++++++++++++++ +++++++++++++++++++++++++++++++ +++++++++++++++++++++++++++++++                                ",
"                                                                                                                            ....                                                                                                                                 ....                                                                                                                                                       ....                                                                                                                                 ....+++++++++++++++++++++++++++ +++++++++++++++++++++++++++++++ +++++++++++++++++++++++++++++++                                ",
"                                                                                                                            ....                                                                                                                                 ....                                                                                                                                                       ....                                                                                                                                 ....+++++++++++++++++++++++++++ +++++++++++++++++++++++++++++++ +++++++++++++++++++++++++++++++                                ",
"                                                                                                                            ....                                                                                                                                 ....                                                                                                                                                       ....                                                                                                                                 ....+++++++++++++++++++++++++++ +++++++++++++++++++++++++++++++ +++++++++++++++++++++++++++++++                                ",
"                                                                                                                            ....                                                                                                                                 ....                                                                                                                                                       ....                                                                                                                                 ....+++++++++++++++++++++++++++ +++++++++++++++++++++++++++++++ +++++++++++++++++++++++++++++++                                ",
"                                                                                                                            ....                                                                                                                                 ....                                                                                                                                                       ....                                                                                                                                 ....+++++++++++++++++++++++++++ +++++++++++++++++++++++++++++++ +++++++++++++++++++++++++++++++                                ",
"                                                                                                                            ....                                                                                                                                 ....                                                                                                                                                       ....                                                                                                                                 ....+++++++++++++++++++++++++++ +++++++++++++++++++++++++++++++ +++++++++++++++++++++++++++++++                                ",
"                                                                                                                            ....                                                                                                                                 ....                                                                                                                                                       ....                                                                                                                                 ....+++++++++++++++++++++++++++ +++++++++++++++++++++++++++++++ +++++++++++++++++++++++++++++++                                ",
"                                                                                                                            ....                                                                                                                                 ....                                                                                                                                                       ....                                                                                                                                 ....+++++++++++++++++++++++++++ +++++++++++++++++++++++++++++++ +++++++++++++++++++++++++++++++                                ",
"                                                                                                                            ....                                                                                                                                 ....                                                                                                                                                       ....                                                                                                                                 ....+++++++++++++++++++++++++++ +++++++++++++++++++++++++++++++ +++++++++++++++++++++++++++++++                                ",
"                                                                                                                            ....                                                                                                                                 ....                                                                                                                                                       ....                                                                                                                                 ....+++++++++++++++++++++++++++ +++++++++++++++++++++++++++++++ +++++++++++++++++++++++++++++++                                ",
"                                                                                                                            ....                                                                                                                                 ....                                                                                                                                                       ....                                                                                                                                 ....+++++++++++++++++++++++++++ +++++++++++++++++++++++++++++++ +++++++++++++++++++++++++++++++                                ",
"                                                                                                                            ....                                                                                                                                 ....                                                                                                                                                       ....                                                                                                                                 ....+++++++++++++++++++++++++++ +++++++++++++++++++++++++++++++ +++++++++++++++++++++++++++++++                                ",
"                                                                                                                            ....                                                                                                                                 ....                                                                                                                                                       ....                                                                                                                                 ....+++++++++++++++++++++++++++ +++++++++++++++++++++++++++++++ +++++++++++++++++++++++++++++++                                ",
"                                                                                                                            ....                                                                                                                                 ....                                                                                                                                                       ....                                                                                                                                 ....                                                                                                                           ",
"                                                                                                                            ....                                                                 ...............................                                 ....                                                                                                                                                       ....                                 ...............................                                                                 ....+++++++++++++++++++++++++++ +++++++++++++++++++++++++++++++ +++++++++++++++++++++++++++++++                                ",
"                                                                                                                            ....                                                                 ...............................                                 ....                                                                                                                                                       ....                                 ...............................                                                                 ....+++++++++++++++++++++++++++ +++++++++++++++++++++++++++++++ +++++++++++++++++++++++++++++++                                ",
"                                                                                                                            ....                                                                 ...............................                                 ....                                                                                                                                                       ....                                 ...............................                                                                 ....+++++++++++++++++++++++++++ +++++++++++++++++++++++++++++++ +++++++++++++++++++++++++++++++                                ",
"                                                                                                                            ....                                                                 ...............................                                 ....                                                                                                                                                       ....                                 ...............................                                                                 ....+++++++++++++++++++++++++++ +++++++++++++++++++++++++++++++ +++++++++++++++++++++++++++++++                                ",
"                                                                                                                            ....                                                                 ....                       ....                                 ....                                                                                                                                                       ....                                 ....                       ....                                                                 ....+++++++++++++++++++++++++++ +++++++++++++++++++++++++++++++ +++++++++++++++++++++++++++++++                                ",
"                                                                                                                            ....                                                                 ....                       ....                                 ....                                                                                                                                                       ....                                 ....                       ....                                                                 ....+++++++++++++++++++++++++++ +++++++++++++++++++++++++++++++ +++++++++++++++++++++++++++++++                                ",
"                                                                                                                            ....                                                                 ....                       ....                                 ....                                                                                                                                                       ....                                 ....                       ....                                                                 ....+++++++++++++++++++++++++++ +++++++++++++++++++++++++++++++ +++++++++++++++++++++++++++++++                                ",
"                                                                                                                            ....                                                                 ....                       ....                                 ....                                                                                                                                                       ....                                 ....                       ....                                                                 ....+++++++++++++++++++++++++++ +++++++++++++++++++++++++++++++ +++++++++++++++++++++++++++++++                                ",
"                                                                                                                            ....                                                                 ....                       ....                                 ....                                                                                                                                                       ....                                 ....                       ....                                                                 ....+++++++++++++++++++++++++++ +++++++++++++++++++++++++++++++ +++++++++++++++++++++++++++++++                                ",
"                                                                                                                            ....                                                                 ....                       ....                                 ....                                                                                                                                                       ....                                 ....                       ....                                                                 ....+++++++++++++++++++++++++++ +++++++++++++++++++++++++++++++ +++++++++++++++++++++++++++++++                                ",
"                                                                                                                            ....                                                                 ....                       ....                                 ....                                                                                                                                                       ....                                 ....                       ....                                                                 ....+++++++++++++++++++++++++++ +++++++++++++++++++++++++++++++ +++++++++++++++++++++++++++++++                                ",
"                                                                                                                            ....                                                                 ....                       ....                                 ....                                                                                                                                                       ....                                 ....                       ....                                                                 ....+++++++++++++++++++++++++++ +++++++++++++++++++++++++++++++ +++++++++++++++++++++++++++++++                                ",
"                                                                                                                            ....                                                                 ....                       ....                                 ....                                                                                                                                                       ....                                 ....                       ....                                                                 ....+++++++++++++++++++++++++++ +++++++++++++++++++++++++++++++ +++++++++++++++++++++++++++++++                                ",
"                                                                                                                            ....                                                                 ....                       ....                                 ....                                                                                                                                                       ....                                 ....                       ....                                                                 ....+++++++++++++++++++++++++++ +++++++++++++++++++++++++++++++ +++++++++++++++++++++++++++++++                                ",
"                                                                                                                            ....                                                                 ....                       ....                                 ....                                                                                                                                                       ....                                 ....                       ....                                                                 ....+++++++++++++++++++++++++++ +++++++++++++++++++++++++++++++ +++++++++++++++++++++++++++++++                                ",
"                                                                                                                            ....                                                                 ....                       ....                                 ....                                                                                                                                                       ....                                 ....                       ....                                                                 ....+++++++++++++++++++++++++++ +++++++++++++++++++++++++++++++ +++++++++++++++++++++++++++++++                                ",
"                                                                                                                            ....                                                                 ....                       ....                                 ....                                                                                                                                                       ....                                 ....                       ....                                                                 ....+++++++++++++++++++++++++++ +++++++++++++++++++++++++++++++ +++++++++++++++++++++++++++++++                                ",
"                                                                                                                            ....                                                                 ....                       ....                                 ....                                                                                                                                                       ....                                 ....                       ....                                                                 ....+++++++++++++++++++++++++++ +++++++++++++++++++++++++++++++ +++++++++++++++++++++++++++++++                                ",
"                                                                                                                            ....                                                                 ....                       ....                                 ....                                                                                                                                                       ....                                 ....                       ....                                                                 ....+++++++++++++++++++++++++++ +++++++++++++++++++++++++++++++ +++++++++++++++++++++++++++++++                                ",
"                                                                                                                            ....                                                                 ....                       ....                                 ....                                                                                                                                                       ....                                 ....                       ....                                                                 ....+++++++++++++++++++++++++++ +++++++++++++++++++++++++++++++ +++++++++++++++++++++++++++++++                                ",
"                                                                                                                            ....                                                                 ....                       ....                                 ....                                                                                                                                                       ....                                 ....                       ....                                                                 ....+++++++++++++++++++++++++++ +++++++++++++++++++++++++++++++ +++++++++++++++++++++++++++++++                                ",
"                                                                                                                            ....                                                                 ....                       ....                                 ....                                                                                                                                                       ....                                 ....                       ....                                                                 ....+++++++++++++++++++++++++++ +++++++++++++++++++++++++++++++ +++++++++++++++++++++++++++++++                                ",
"                                                                                                                            ....                                                                 ....                       ....                                 ....                                                                                                                                                       ....                                 ....                       ....                                                                 ....+++++++++++++++++++++++++++ +++++++++++++++++++++++++++++++ +++++++++++++++++++++++++++++++                                ",
"                                                                                                                            ....                                                                 ....                       ....                                 ....                                                                                                                                                       ....                                 ....                       ....                                                                 ....+++++++++++++++++++++++++++ +++++++++++++++++++++++++++++++ +++++++++++++++++++++++++++++++                                ",
"                                                                                                                            ....                                                                 ....                       ....                                 ....                                                                                                                                                       ....                                 ....                       ....                                                                 ....+++++++++++++++++++++++++++ +++++++++++++++++++++++++++++++ +++++++++++++++++++++++++++++++                                ",
"                                                                                                                            ....                                                                 ....                       ....                                 ....                                                                                                                                                       ....                                 ....                       ....                                                                 ....+++++++++++++++++++++++++++ +++++++++++++++++++++++++++++++ +++++++++++++++++++++++++++++++                                ",
"                                                                                                                            ....                                                                 ....                       ....                                 ....                                                                                                                                                       ....                                 ....                       ....                                                                 ....+++++++++++++++++++++++++++ +++++++++++++++++++++++++++++++ +++++++++++++++++++++++++++++++                                ",
"................................................................................................................................                                                                 ....                       ....                                 ....                                                                                                                                                       ....                                 ....                       ....                                                                 ...............................................................................................................................",
"................................................................................................................................                                                                 ....                       ....                                 ....                                                                                                                                                       ....                                 ....                       ....                                                                 ...............................................................................................................................",
"................................................................................................................................                                                                 ....                       ....                                 ....                                                                                                                                                       ....                                 ....                       ....                                                                 ...............................................................................................................................",
"................................................................................................................................                                                                 ....                       ....                                 ....                                                                                                                                                       ....                                 ....                       ....                                                                 ...............................................................................................................................",
"                                                                                                                                                                                                 ....                       ....                                 ....                                                                                                                                                       ....                                 ....                       ....                                                                                                                                                                                                ",
"                                                                                                                                                                                                 ....                       ....                                 ....                                                                                                                                                       ....                                 ....                       ....                                                                                                 +++++++++++++++++++++++++++++++ +++++++++++++++++++++++++++++++                                ",
"                                                                                                                                                                                                 ....                       ....                                 ....                                                                                                                                                       ....                                 ....                       ....                                                                                                 +++++++++++++++++++++++++++++++ +++++++++++++++++++++++++++++++                                ",
"                                                                                                                                                                                                 ....                       ....                                 ....                                                                                                                                                       ....                                 ....                       ....                                                                                                 +++++++++++++++++++++++++++++++ +++++++++++++++++++++++++++++++                                ",
"                                                                                                                                                                                                 ....                       ....                                 ....                                                                                                                                                       ....                                 ....                       ....                                                                                                 +++++++++++++++++++++++++++++++ +++++++++++++++++++++++++++++++                                ",
"                                                                                                                                                                                                 ....+++++++++++++++++++++++....                                 ....                                                                                                                                                       ....                                 ....                       ....                                                                                                 +++++++++++++++++++++++++++++++ +++++++++++++++++++++++++++++++                                ",
"                                                                                                                                                                                                 ....+++++++++++++++++++++++....                                 ....                                                                                                                                                       ....                                 ....+++++++++++++++++++++++....                                                                                                 +++++++++++++++++++++++++++++++ +++++++++++++++++++++++++++++++                                ",
"                                                                                                                                                                                                 ....+++++++++++++++++++++++....                                 ....                                                                                                                                                       ....                                 ....+++++++++++++++++++++++....                                                                                                 +++++++++++++++++++++++++++++++ +++++++++++++++++++++++++++++++                                ",
"                                                                                                                                                                                                 ....+++++++++++++++++++++++....                                 ....                                                                                                                                                       ....                                 ....+++++++++++++++++++++++....                                                                                                 +++++++++++++++++++++++++++++++ +++++++++++++++++++++++++++++++                                ",
"                                                                                                                                                                                                 ....+++++++++++++++++++++++....                                 ....                                                                                                                                                       ....                                 ....+++++++++++++++++++++++....                                                                                                 +++++++++++++++++++++++++++++++ +++++++++++++++++++++++++++++++                                ",
"                                                                                                                                                                                                 ....+++++++++++++++++++++++....                                 ....                                                                                                                                                       ....                                 ....+++++++++++++++++++++++....                                                                                                 +++++++++++++++++++++++++++++++ +++++++++++++++++++++++++++++++                                ",
"                                                                                                                                                                                                 ....+++++++++++++++++++++++....                                 ....                                                                                                                                                       ....                                 ....+++++++++++++++++++++++....                                                                                                 +++++++++++++++++++++++++++++++ +++++++++++++++++++++++++++++++                                ",
"                                                                                                                                                                                                 ....+++++++++++++++++++++++....                                 ....                                                                                                                                                       ....                                 ....+++++++++++++++++++++++....                                                                                                 +++++++++++++++++++++++++++++++ +++++++++++++++++++++++++++++++                                ",
"                                                                                                                                                                                                 ....+++++++++++++++++++++++....                                 ....                                                                                                                                                       ....                                 ....+++++++++++++++++++++++....                                                                                                 +++++++++++++++++++++++++++++++ +++++++++++++++++++++++++++++++                                ",
"                                                                                                                                                                                                 ....+++++++++++++++++++++++....                                 ....                                                                                                                                                       ....                                 ....+++++++++++++++++++++++....                                                                                                 +++++++++++++++++++++++++++++++ +++++++++++++++++++++++++++++++                                ",
"                                                                                                                                                                                                 ....+++++++++++++++++++++++....                                 ....                                                                                                                                                       ....                                 ....+++++++++++++++++++++++....                                                                                                 +++++++++++++++++++++++++++++++ +++++++++++++++++++++++++++++++                                ",
"                                                                                                                                                                                                 ....+++++++++++++++++++++++....                                 ....                                                                                                                                                       ....                                 ....+++++++++++++++++++++++....                                                                                                 +++++++++++++++++++++++++++++++ +++++++++++++++++++++++++++++++                                ",
"                                                                                                                                                                                                 ....+++++++++++++++++++++++....                                 ....                                                                                                                                                       ....                                 ....+++++++++++++++++++++++....                                                                                                 +++++++++++++++++++++++++++++++ +++++++++++++++++++++++++++++++                                ",
"                                                                                                                                                                                                 ....+++++++++++++++++++++++....                                 ....                                                                                                                                                       ....                                 ....+++++++++++++++++++++++....                                                                                                 +++++++++++++++++++++++++++++++ +++++++++++++++++++++++++++++++                                ",
"                                                                                                                                                                                                 ....+++++++++++++++++++++++....                                 ....                                                                                                                                                       ....                                 ....+++++++++++++++++++++++....                                                                                                 +++++++++++++++++++++++++++++++ +++++++++++++++++++++++++++++++                                ",
"                                                                                                                                                                                                 ....+++++++++++++++++++++++....                                 ....                                                                                                                                                       ....                                 ....+++++++++++++++++++++++....                                                                                                 +++++++++++++++++++++++++++++++ +++++++++++++++++++++++++++++++                                ",
"                                                                                                                                                                                                 ....+++++++++++++++++++++++....                                 ....                                                                                                                                                       ....                                 ....+++++++++++++++++++++++....                                                                                                 +++++++++++++++++++++++++++++++ +++++++++++++++++++++++++++++++                                ",
"                                                                                                                                                                                                 ....+++++++++++++++++++++++....                                 ....                                                                                                                                                       ....                                 ....+++++++++++++++++++++++....                                                                                                 +++++++++++++++++++++++++++++++ +++++++++++++++++++++++++++++++                                ",
"                                                                                                                                                                                                 ....+++++++++++++++++++++++....                                 ....                                                                                                                                                       ....                                 ....+++++++++++++++++++++++....                                                                                                 +++++++++++++++++++++++++++++++ +++++++++++++++++++++++++++++++                                ",
"                                                                                                                                                                                                 ....+++++++++++++++++++++++....                                 ....                                                                                                                                                       ....                                 ....+++++++++++++++++++++++....                                                                                                 +++++++++++++++++++++++++++++++ +++++++++++++++++++++++++++++++                                ",
"                                                                                                                                                                                                 ....+++++++++++++++++++++++....                                 ....                                                                                                                                                       ....                                 ....+++++++++++++++++++++++....                                                                                                 +++++++++++++++++++++++++++++++ +++++++++++++++++++++++++++++++                                ",
"                                                                                                                                                                                                 ....+++++++++++++++++++++++....                                 ....                                                                                                                                                       ....                                 ....+++++++++++++++++++++++....                                                                                                 +++++++++++++++++++++++++++++++ +++++++++++++++++++++++++++++++                                ",
"                                                                                                                                                                                                 ....+++++++++++++++++++++++....                                 ....                                                                                                                                                       ....                                 ....+++++++++++++++++++++++....                                                                                                 +++++++++++++++++++++++++++++++ +++++++++++++++++++++++++++++++                                ",
"                                                                                                                                                                                                 ....+++++++++++++++++++++++....                                 ....                                                                                                                                                       ....                                 ....+++++++++++++++++++++++....                                                                                                 +++++++++++++++++++++++++++++++ +++++++++++++++++++++++++++++++                                ",
"                                                                                                                                                                                                 ....+++++++++++++++++++++++....                                 ....                                                                                                                                                       ....                                 ....                       ....                                                                                                 +++++++++++++++++++++++++++++++ +++++++++++++++++++++++++++++++                                ",
"                                                                                                                                                                                                 ....+++++++++++++++++++++++....                                 ....                                                                                                                                                       ....                                 ....                       ....                                                                                                 +++++++++++++++++++++++++++++++ +++++++++++++++++++++++++++++++                                ",
"                                                                                                                                                                                                 ....+++++++++++++++++++++++....                                 ....                                                                                                                                                       ....                                 ....                       ....                                                                                                 +++++++++++++++++++++++++++++++ +++++++++++++++++++++++++++++++                                ",
"                                                                                                                                                                                                 ....                       ....                                 ....                                                                                                                                                       ....                                 ....                       ....                                                                                                                                                                                                ",
"................................................................................................................................                                                                 ....+++++++++++++++++++++++....                                 ....                                                                                                                                                       ....                                 ....                       ....                                                                 ...............................................................................................................................",
"................................................................................................................................                                                                 ....+++++++++++++++++++++++....                                 ....                                                                                                                                                       ....                                 ....                       ....                                                                 ...............................................................................................................................",
"................................................................................................................................                                                                 ....+++++++++++++++++++++++....                                 ....                                                                                                                                                       ....                                 ....                       ....                                                                 ...............................................................................................................................",
"................................................................................................................................                                                                 ....+++++++++++++++++++++++....                                 ....                                                                                                                                                       ....                                 ....                       ....                                                                 ...............................................................................................................................",
"                                 +++++++++++++++++++++++++++++++                                 +++++++++++++++++++++++++++....                                                                 ....+++++++++++++++++++++++....                                 ....                                                                                                                                                       ....                                 ....                       ....                                                                 ....+++++++++++++++++++++++++++ +++++++++++++++++++++++++++++++ +++++++++++++++++++++++++++++++                                ",
"                                 +++++++++++++++++++++++++++++++                                 +++++++++++++++++++++++++++....                                                                 ....+++++++++++++++++++++++....                                 ....                                                                                                                                                       ....                                 ....                       ....                                                                 ....+++++++++++++++++++++++++++ +++++++++++++++++++++++++++++++ +++++++++++++++++++++++++++++++                                ",
"                                 +++++++++++++++++++++++++++++++                                 +++++++++++++++++++++++++++....                                                                 ....+++++++++++++++++++++++....                                 ....                                                                                                                                                       ....                                 ....                       ....                                                                 ....+++++++++++++++++++++++++++ +++++++++++++++++++++++++++++++ +++++++++++++++++++++++++++++++                                ",
"                                 +++++++++++++++++++++++++++++++                                 +++++++++++++++++++++++++++....                                                                 ....+++++++++++++++++++++++....                                 ....                                                                                                                                                       ....                                 ....                       ....                                                                 ....+++++++++++++++++++++++++++ +++++++++++++++++++++++++++++++ +++++++++++++++++++++++++++++++                                ",
"                                 +++++++++++++++++++++++++++++++                                 +++++++++++++++++++++++++++....                                                                 ....+++++++++++++++++++++++....                                 ....                                                                                                                                                       ....                                 ....                       ....                                                                 ....+++++++++++++++++++++++++++ +++++++++++++++++++++++++++++++ +++++++++++++++++++++++++++++++                                ",
"                                 +++++++++++++++++++++++++++++++                                 +++++++++++++++++++++++++++....                                                                 ....+++++++++++++++++++++++....                                 ....                                                                                                                                                       ....                                 ....                       ....                                                                 ....+++++++++++++++++++++++++++ +++++++++++++++++++++++++++++++ +++++++++++++++++++++++++++++++                                ",
"                                 +++++++++++++++++++++++++++++++                                 +++++++++++++++++++++++++++....                                                                 ....+++++++++++++++++++++++....                                 ....                                                                                                                                                       ....                                 ....                       ....                                                                 ....+++++++++++++++++++++++++++ +++++++++++++++++++++++++++++++ +++++++++++++++++++++++++++++++                                ",
"                                 +++++++++++++++++++++++++++++++                                 +++++++++++++++++++++++++++....                                                                 ....+++++++++++++++++++++++....                                 ....                                                                                                                                                       ....                                 ....                       ....                                                                 ....+++++++++++++++++++++++++++ +++++++++++++++++++++++++++++++ +++++++++++++++++++++++++++++++                                ",
"                                 +++++++++++++++++++++++++++++++                                 +++++++++++++++++++++++++++....                                                                 ....+++++++++++++++++++++++....                                 ....                                                                                                                                                       ....                                 ....                       ....                                                                 ....+++++++++++++++++++++++++++ +++++++++++++++++++++++++++++++ +++++++++++++++++++++++++++++++                                ",
"                                 +++++++++++++++++++++++++++++++                                 +++++++++++++++++++++++++++....                                                                 ....+++++++++++++++++++++++....                                 ....                                                                                                                                                       ....                                 ....                       ....                                                                 ....+++++++++++++++++++++++++++ +++++++++++++++++++++++++++++++ +++++++++++++++++++++++++++++++                                ",
"                                 +++++++++++++++++++++++++++++++                                 +++++++++++++++++++++++++++....                                                                 ....+++++++++++++++++++++++....                                 ....                                                                                                                                                       ....                                 ....                       ....                                                                 ....+++++++++++++++++++++++++++ +++++++++++++++++++++++++++++++ +++++++++++++++++++++++++++++++                                ",
"                                 +++++++++++++++++++++++++++++++                                 +++++++++++++++++++++++++++....                                                                 ....+++++++++++++++++++++++....                                 ....                                                                                                                                                       ....                                 ....                       ....                                                                 ....+++++++++++++++++++++++++++ +++++++++++++++++++++++++++++++ +++++++++++++++++++++++++++++++                                ",
"                                 +++++++++++++++++++++++++++++++                                 +++++++++++++++++++++++++++....                                                                 ....+++++++++++++++++++++++....                                 ....                                                                                                                                                       ....                                 ....                       ....                                                                 ....+++++++++++++++++++++++++++ +++++++++++++++++++++++++++++++ +++++++++++++++++++++++++++++++                                ",
"                                 +++++++++++++++++++++++++++++++                                 +++++++++++++++++++++++++++....                                                                 ....+++++++++++++++++++++++....                                 ....                                                                                                                                                       ....                                 ....                       ....                                                                 ....+++++++++++++++++++++++++++ +++++++++++++++++++++++++++++++ +++++++++++++++++++++++++++++++                                ",
"                                 +++++++++++++++++++++++++++++++                                 +++++++++++++++++++++++++++....                                                                 ....+++++++++++++++++++++++....                                 ....                                                                                                                                                       ....                                 ....+++++++++++++++++++++++....                                                                 ....+++++++++++++++++++++++++++ +++++++++++++++++++++++++++++++ +++++++++++++++++++++++++++++++                                ",
"                                 +++++++++++++++++++++++++++++++                                 +++++++++++++++++++++++++++....                                                                 ....+++++++++++++++++++++++....                                 ....                                                                                                                                                       ....                                 ....+++++++++++++++++++++++....                                                                 ....+++++++++++++++++++++++++++ +++++++++++++++++++++++++++++++ +++++++++++++++++++++++++++++++                                ",
"                                 +++++++++++++++++++++++++++++++                                 +++++++++++++++++++++++++++....                                                                 ....+++++++++++++++++++++++....                                 ....                                                                                                                                                       ....                                 ....+++++++++++++++++++++++....                                                                 ....+++++++++++++++++++++++++++ +++++++++++++++++++++++++++++++ +++++++++++++++++++++++++++++++                                ",
"                                 +++++++++++++++++++++++++++++++                                 +++++++++++++++++++++++++++....                                                                 ....+++++++++++++++++++++++....                                 ....                                                                                                                                                       ....                                 ....                       ....                                                                 ....+++++++++++++++++++++++++++ +++++++++++++++++++++++++++++++ +++++++++++++++++++++++++++++++                                ",
"                                 +++++++++++++++++++++++++++++++                                 +++++++++++++++++++++++++++....                                                                 ....+++++++++++++++++++++++....                                 ....                                                                                                                                                       ....                                 ....                       ....                                                                 ....+++++++++++++++++++++++++++ +++++++++++++++++++++++++++++++ +++++++++++++++++++++++++++++++                                ",
"                                 +++++++++++++++++++++++++++++++                                 +++++++++++++++++++++++++++....                                                                 ....+++++++++++++++++++++++....                                 ....                                                                                                                                                       ....                                 ....                       ....                                                                 ....+++++++++++++++++++++++++++ +++++++++++++++++++++++++++++++ +++++++++++++++++++++++++++++++                                ",
"                                 +++++++++++++++++++++++++++++++                                 +++++++++++++++++++++++++++....                                                                 ....+++++++++++++++++++++++....                                 ....                                                                                                                                                       ....                                 ....                       ....                                                                 ....+++++++++++++++++++++++++++ +++++++++++++++++++++++++++++++ +++++++++++++++++++++++++++++++                                ",
"                                 +++++++++++++++++++++++++++++++                                 +++++++++++++++++++++++++++....                                                                 ....+++++++++++++++++++++++....                                 ....                                                                                                                                                       ....                                 ....                       ....                                                                 ....+++++++++++++++++++++++++++ +++++++++++++++++++++++++++++++ +++++++++++++++++++++++++++++++                                ",
"                                 +++++++++++++++++++++++++++++++                                 +++++++++++++++++++++++++++....                                                                 ....+++++++++++++++++++++++....                                 ....                                                                                                                                                       ....                                 ....                       ....                                                                 ....+++++++++++++++++++++++++++ +++++++++++++++++++++++++++++++ +++++++++++++++++++++++++++++++                                ",
"                                 +++++++++++++++++++++++++++++++                                 +++++++++++++++++++++++++++....                                                                 ....+++++++++++++++++++++++....                                 ...............................................................................................................................................................                                 ....                       ....                                                                 ....+++++++++++++++++++++++++++ +++++++++++++++++++++++++++++++ +++++++++++++++++++++++++++++++                                ",
"                                 +++++++++++++++++++++++++++++++                                 +++++++++++++++++++++++++++....                                                                 ....+++++++++++++++++++++++....                                 ...............................................................................................................................................................                                 ....                       ....                                                                 ....+++++++++++++++++++++++++++ +++++++++++++++++++++++++++++++ +++++++++++++++++++++++++++++++                                ",
"                                 +++++++++++++++++++++++++++++++                                 +++++++++++++++++++++++++++....                                                                 ....+++++++++++++++++++++++....                                 ...............................................................................................................................................................                                 ....                       ....                                                                 ....+++++++++++++++++++++++++++ +++++++++++++++++++++++++++++++ +++++++++++++++++++++++++++++++                                ",
"                                 +++++++++++++++++++++++++++++++                                 +++++++++++++++++++++++++++....                                                                 ....+++++++++++++++++++++++....                                 ...............................................................................................................................................................                                 ....                       ....                                                                 ....+++++++++++++++++++++++++++ +++++++++++++++++++++++++++++++ +++++++++++++++++++++++++++++++                                ",
"                                                                                                                            ....                                                                 ....                       ....                                                                                                                                                                                                                                 ....                       ....                                                                 ....                                                                                                                           ",
"                                 +++++++++++++++++++++++++++++++                                 +++++++++++++++++++++++++++.... +++++++++++++++++++++++++++++++ +++++++++++++++++++++++++++++++ ....+++++++++++++++++++++++....                                                                                                                                                                                                                                 ....                       ....                                                                 ....+++++++++++++++++++++++++++ +++++++++++++++++++++++++++++++ +++++++++++++++++++++++++++++++                                ",
"                                 +++++++++++++++++++++++++++++++                                 +++++++++++++++++++++++++++.... +++++++++++++++++++++++++++++++ +++++++++++++++++++++++++++++++ ....+++++++++++++++++++++++....                                                                                                                                                                                                                                 ....                       ....                                                                 ....+++++++++++++++++++++++++++ +++++++++++++++++++++++++++++++ +++++++++++++++++++++++++++++++                                ",
"                                 +++++++++++++++++++++++++++++++                                 +++++++++++++++++++++++++++.... +++++++++++++++++++++++++++++++ +++++++++++++++++++++++++++++++ ....+++++++++++++++++++++++....                                                                                                                                                                                                                                 ....                       ....                                                                 ....+++++++++++++++++++++++++++ +++++++++++++++++++++++++++++++ +++++++++++++++++++++++++++++++                                ",
"                                 +++++++++++++++++++++++++++++++                                 +++++++++++++++++++++++++++.... +++++++++++++++++++++++++++++++ +++++++++++++++++++++++++++++++ ....+++++++++++++++++++++++....                                                                                                                                                                                                                                 ....                       ....                                                                 ....+++++++++++++++++++++++++++ +++++++++++++++++++++++++++++++ +++++++++++++++++++++++++++++++                                ",
"                                 +++++++++++++++++++++++++++++++                                 +++++++++++++++++++++++++++.... +++++++++++++++++++++++++++++++ +++++++++++++++++++++++++++++++ ....+++++++++++++++++++++++....                                                                                                                                                                                                                                 ....                       ....                                                                 ....+++++++++++++++++++++++++++ +++++++++++++++++++++++++++++++ +++++++++++++++++++++++++++++++                                ",
"                                 +++++++++++++++++++++++++++++++                                 +++++++++++++++++++++++++++.... +++++++++++++++++++++++++++++++ +++++++++++++++++++++++++++++++ ....+++++++++++++++++++++++....                                                                                                                                                                                                                                 ....                       ....                                                                 ....+++++++++++++++++++++++++++ +++++++++++++++++++++++++++++++ +++++++++++++++++++++++++++++++                                ",
"                                 +++++++++++++++++++++++++++++++                                 +++++++++++++++++++++++++++.... +++++++++++++++++++++++++++++++ +++++++++++++++++++++++++++++++ ....+++++++++++++++++++++++....                                                                                                                                                                                                                                 ....                       ....                                                                 ....+++++++++++++++++++++++++++ +++++++++++++++++++++++++++++++ +++++++++++++++++++++++++++++++                                ",
"                                 +++++++++++++++++++++++++++++++                                 +++++++++++++++++++++++++++.... +++++++++++++++++++++++++++++++ +++++++++++++++++++++++++++++++ ....+++++++++++++++++++++++....                                                                                                                                                                                                                                 ....                       ....                                                                 ....+++++++++++++++++++++++++++ +++++++++++++++++++++++++++++++ +++++++++++++++++++++++++++++++                                ",
"                                 +++++++++++++++++++++++++++++++                                 +++++++++++++++++++++++++++.... +++++++++++++++++++++++++++++++ +++++++++++++++++++++++++++++++ ....+++++++++++++++++++++++....                                                                                                                                                                                                                                 ....                       ....                                                                 ....+++++++++++++++++++++++++++ +++++++++++++++++++++++++++++++ +++++++++++++++++++++++++++++++                                ",
"                                 +++++++++++++++++++++++++++++++                                 +++++++++++++++++++++++++++.... +++++++++++++++++++++++++++++++ +++++++++++++++++++++++++++++++ ....+++++++++++++++++++++++....                                                                                                                                                                                                                                 ....                       ....                                                                 ....+++++++++++++++++++++++++++ +++++++++++++++++++++++++++++++ +++++++++++++++++++++++++++++++                                ",
"                                 +++++++++++++++++++++++++++++++                                 +++++++++++++++++++++++++++.... +++++++++++++++++++++++++++++++ +++++++++++++++++++++++++++++++ ....+++++++++++++++++++++++....                                                                                                                                                                                                                                 ....                       ....                                                                 ....+++++++++++++++++++++++++++ +++++++++++++++++++++++++++++++ +++++++++++++++++++++++++++++++                                ",
"                                 +++++++++++++++++++++++++++++++                                 +++++++++++++++++++++++++++.... +++++++++++++++++++++++++++++++ +++++++++++++++++++++++++++++++ ....+++++++++++++++++++++++....                                                                                                                                                                                                                                 ....+++++++++++++++++++++++....                                                                 ....+++++++++++++++++++++++++++ +++++++++++++++++++++++++++++++ +++++++++++++++++++++++++++++++                                ",
"                                 +++++++++++++++++++++++++++++++                                 +++++++++++++++++++++++++++.... +++++++++++++++++++++++++++++++ +++++++++++++++++++++++++++++++ ....+++++++++++++++++++++++....                                                                                                                                                                                                                                 ....+++++++++++++++++++++++....                                                                 ....+++++++++++++++++++++++++++ +++++++++++++++++++++++++++++++ +++++++++++++++++++++++++++++++                                ",
"                                 +++++++++++++++++++++++++++++++                                 +++++++++++++++++++++++++++.... +++++++++++++++++++++++++++++++ +++++++++++++++++++++++++++++++ ....+++++++++++++++++++++++....                                                                                                                                                                                                                                 ....                       ....                                                                 ....+++++++++++++++++++++++++++ +++++++++++++++++++++++++++++++ +++++++++++++++++++++++++++++++                                ",
"                                 +++++++++++++++++++++++++++++++                                 +++++++++++++++++++++++++++.... +++++++++++++++++++++++++++++++ +++++++++++++++++++++++++++++++ ....+++++++++++++++++++++++....                                                                                                                                                                                                                                 ....                       ....                                                                 ....+++++++++++++++++++++++++++ +++++++++++++++++++++++++++++++ +++++++++++++++++++++++++++++++                                ",
"                                 +++++++++++++++++++++++++++++++                                 +++++++++++++++++++++++++++.... +++++++++++++++++++++++++++++++ +++++++++++++++++++++++++++++++ ....+++++++++++++++++++++++....                                                                                                                                                                                                                                 ....                       ....                                                                 ....+++++++++++++++++++++++++++ +++++++++++++++++++++++++++++++ +++++++++++++++++++++++++++++++                                ",
"                                 +++++++++++++++++++++++++++++++                                 +++++++++++++++++++++++++++.... +++++++++++++++++++++++++++++++ +++++++++++++++++++++++++++++++ ....+++++++++++++++++++++++....                                                                                                                                                                                                                                 ....                       ....                                                                 ....+++++++++++++++++++++++++++ +++++++++++++++++++++++++++++++ +++++++++++++++++++++++++++++++                                ",
"                                 +++++++++++++++++++++++++++++++                                 +++++++++++++++++++++++++++.... +++++++++++++++++++++++++++++++ +++++++++++++++++++++++++++++++ ....+++++++++++++++++++++++....                                                                                                                                                                                                                                 ....                       ....                                                                 ....+++++++++++++++++++++++++++ +++++++++++++++++++++++++++++++ +++++++++++++++++++++++++++++++                                ",
"                                 +++++++++++++++++++++++++++++++                                 +++++++++++++++++++++++++++.... +++++++++++++++++++++++++++++++ +++++++++++++++++++++++++++++++ ....+++++++++++++++++++++++....                                                                                                                                                                                                                                 ....                       ....                                                                 ....+++++++++++++++++++++++++++ +++++++++++++++++++++++++++++++ +++++++++++++++++++++++++++++++                                ",
"                                 +++++++++++++++++++++++++++++++                                 +++++++++++++++++++++++++++.... +++++++++++++++++++++++++++++++ +++++++++++++++++++++++++++++++ ....+++++++++++++++++++++++....                                                                                                                                                                                                                                 ....                       ....                                                                 ....+++++++++++++++++++++++++++ +++++++++++++++++++++++++++++++ +++++++++++++++++++++++++++++++                                ",
"                                 +++++++++++++++++++++++++++++++                                 +++++++++++++++++++++++++++.... +++++++++++++++++++++++++++++++ +++++++++++++++++++++++++++++++ ....+++++++++++++++++++++++....                                                                                                                                                                                                                                 ....                       ....                                                                 ....+++++++++++++++++++++++++++ +++++++++++++++++++++++++++++++ +++++++++++++++++++++++++++++++                                ",
"                                 +++++++++++++++++++++++++++++++                                 +++++++++++++++++++++++++++.... +++++++++++++++++++++++++++++++ +++++++++++++++++++++++++++++++ ....+++++++++++++++++++++++....                                                                                                                                                                                                                                 ....                       ....                                                                 ....+++++++++++++++++++++++++++ +++++++++++++++++++++++++++++++ +++++++++++++++++++++++++++++++                                ",
"                                 +++++++++++++++++++++++++++++++                                 +++++++++++++++++++++++++++.... +++++++++++++++++++++++++++++++ +++++++++++++++++++++++++++++++ ....+++++++++++++++++++++++....                                                                                                                                                                                                                                 ....                       ....                                                                 ....+++++++++++++++++++++++++++ +++++++++++++++++++++++++++++++ +++++++++++++++++++++++++++++++                                ",
"                                 +++++++++++++++++++++++++++++++                                 +++++++++++++++++++++++++++.... +++++++++++++++++++++++++++++++ +++++++++++++++++++++++++++++++ ....+++++++++++++++++++++++....                                                                                                                                                                                                                                 ....                       ....                                                                 ....+++++++++++++++++++++++++++ +++++++++++++++++++++++++++++++ +++++++++++++++++++++++++++++++                                ",
"                                 +++++++++++++++++++++++++++++++                                 +++++++++++++++++++++++++++.... +++++++++++++++++++++++++++++++ +++++++++++++++++++++++++++++++ ....+++++++++++++++++++++++....                                                                                                                                                                                                                                 ....                       ....                                                                 ....+++++++++++++++++++++++++++ +++++++++++++++++++++++++++++++ +++++++++++++++++++++++++++++++                                ",
"                                 +++++++++++++++++++++++++++++++                                 +++++++++++++++++++++++++++.... +++++++++++++++++++++++++++++++ +++++++++++++++++++++++++++++++ ....+++++++++++++++++++++++....                                                                                                                                                                                                                                 ....                       ....                                                                 ....+++++++++++++++++++++++++++ +++++++++++++++++++++++++++++++ +++++++++++++++++++++++++++++++                                ",
"                                 +++++++++++++++++++++++++++++++                                 +++++++++++++++++++++++++++.... +++++++++++++++++++++++++++++++ +++++++++++++++++++++++++++++++ ....+++++++++++++++++++++++....                                                                                                                                                                                                                                 ....                       ....                                                                 ....+++++++++++++++++++++++++++ +++++++++++++++++++++++++++++++ +++++++++++++++++++++++++++++++                                ",
"                                 +++++++++++++++++++++++++++++++                                 +++++++++++++++++++++++++++.... +++++++++++++++++++++++++++++++ +++++++++++++++++++++++++++++++ ....+++++++++++++++++++++++....                                                                                                                                                                                                                                 ....                       ....                                                                 ....+++++++++++++++++++++++++++ +++++++++++++++++++++++++++++++ +++++++++++++++++++++++++++++++                                ",
"                                 +++++++++++++++++++++++++++++++                                 +++++++++++++++++++++++++++.... +++++++++++++++++++++++++++++++ +++++++++++++++++++++++++++++++ ....+++++++++++++++++++++++....                                                                                                                                                                                                                                 ....                       ....                                                                 ....+++++++++++++++++++++++++++ +++++++++++++++++++++++++++++++ +++++++++++++++++++++++++++++++                                ",
"                                 +++++++++++++++++++++++++++++++                                 +++++++++++++++++++++++++++.... +++++++++++++++++++++++++++++++ +++++++++++++++++++++++++++++++ ....+++++++++++++++++++++++....                                                                                                                                                                                                                                 ....                       ....                                                                 ....+++++++++++++++++++++++++++ +++++++++++++++++++++++++++++++ +++++++++++++++++++++++++++++++                                ",
"                                 +++++++++++++++++++++++++++++++                                 +++++++++++++++++++++++++++.... +++++++++++++++++++++++++++++++ +++++++++++++++++++++++++++++++ ....+++++++++++++++++++++++....                                                                                                                                                                                                                                 ....                       ....                                                                 ....+++++++++++++++++++++++++++ +++++++++++++++++++++++++++++++ +++++++++++++++++++++++++++++++                                ",
"                                                                                                                            ....                                                                 ....                       ....                                                                                                                                                                                                                                 ....                       ....                                                                 ....                                                                                                                           ",
"                                 +++++++++++++++++++++++++++++++ +++++++++++++++++++++++++++++++ +++++++++++++++++++++++++++.... +++++++++++++++++++++++++++++++ ....................................+++++++++++++++++++++++.... +++++++++++++++++++++++++++++++ ...............................................................................................................................................................                                 ....                       ....................................                                 ....+++++++++++++++++++++++++++ +++++++++++++++++++++++++++++++ +++++++++++++++++++++++++++++++                                ",
"                                 +++++++++++++++++++++++++++++++ +++++++++++++++++++++++++++++++ +++++++++++++++++++++++++++.... +++++++++++++++++++++++++++++++ ....................................+++++++++++++++++++++++.... +++++++++++++++++++++++++++++++ ...............................................................................................................................................................                                 ....                       ....................................                                 ....+++++++++++++++++++++++++++ +++++++++++++++++++++++++++++++ +++++++++++++++++++++++++++++++                                ",
"                                 +++++++++++++++++++++++++++++++ +++++++++++++++++++++++++++++++ +++++++++++++++++++++++++++.... +++++++++++++++++++++++++++++++ ....................................+++++++++++++++++++++++.... +++++++++++++++++++++++++++++++ ...............................................................................................................................................................                                 ....                       ....................................                                 ....+++++++++++++++++++++++++++ +++++++++++++++++++++++++++++++ +++++++++++++++++++++++++++++++                                ",
"                                 +++++++++++++++++++++++++++++++ +++++++++++++++++++++++++++++++ +++++++++++++++++++++++++++.... +++++++++++++++++++++++++++++++ ....................................+++++++++++++++++++++++.... +++++++++++++++++++++++++++++++ ...............................................................................................................................................................                                 ....++++++++++++++++++++++ ....................................                                 ....+++++++++++++++++++++++++++ +++++++++++++++++++++++++++++++ +++++++++++++++++++++++++++++++                                ",
"                                 +++++++++++++++++++++++++++++++ +++++++++++++++++++++++++++++++ +++++++++++++++++++++++++++.... +++++++++++++++++++++++++++++++ ....+++++++++++++++++++++++++++     +++++++++++++++++++++++.... +++++++++++++++++++++++++++++++ ....+++++++++++++++++++++++++++ +++++++++++++++++++++++++++++++ +++++++++++++++++++++++++++++++ +++++++++++++++++++++++++++++++ +++++++++++++++++++++++++++....                                 ....+++++++++++++++++                                   +++....                                 ....+++++++++++++++++++++++++++ +++++++++++++++++++++++++++++++ +++++++++++++++++++++++++++++++                                ",
"                                 +++++++++++++++++++++++++++++++ +++++++++++++++++++++++++++++++ +++++++++++++++++++++++++++.... +++++++++++++++++++++++++++++++ ....+++++++++++++++++++++++++++     +++++++++++++++++++++++.... +++++++++++++++++++++++++++++++ ....+++++++++++++++++++++++++++ +++++++++++++++++++++++++++++++ +++++++++++++++++++++++++++++++ +++++++++++++++++++++++++++++++ +++++++++++++++++++++++++++....                                 ....+++++++++++++++++                                   +++....                                 ....+++++++++++++++++++++++++++ +++++++++++++++++++++++++++++++ +++++++++++++++++++++++++++++++                                ",
"                                 +++++++++++++++++++++++++++++++ +++++++++++++++++++++++++++++++ +++++++++++++++++++++++++++.... +++++++++++++++++++++++++++++++ ....+++++++++++++++++++++++++++     +++++++++++++++++++++++.... +++++++++++++++++++++++++++++++ ....+++++++++++++++++++++++++++ +++++++++++++++++++++++++++++++ +++++++++++++++++++++++++++++++ +++++++++++++++++++++++++++++++ +++++++++++++++++++++++++++....                                 ....+++++++++++++++++                                   +++....                                 ....+++++++++++++++++++++++++++ +++++++++++++++++++++++++++++++ +++++++++++++++++++++++++++++++                                ",
"                                 +++++++++++++++++++++++++++++++ +++++++++++++++++++++++++++++++ +++++++++++++++++++++++++++.... +++++++++++++++++++++++++++++++ ....+++++++++++++++++++++++++++     +++++++++++++++++++++++.... +++++++++++++++++++++++++++++++ ....+++++++++++++++++++++++++++ +++++++++++++++++++++++++++++++ +++++++++++++++++++++++++++++++ +++++++++++++++++++++++++++++++ +++++++++++++++++++++++++++....                                 ....+++++++++++++++++                                      ....                                 ....+++++++++++++++++++++++++++ +++++++++++++++++++++++++++++++ +++++++++++++++++++++++++++++++                                ",
"                                 +++++++++++++++++++++++++++++++ +++++++++++++++++++++++++++++++ +++++++++++++++++++++++++++.... +++++++++++++++++++++++++++++++ ....+++++++++++++++++++++++++++     +++++++++++++++++++++++.... +++++++++++++++++++++++++++++++ ....+++++++++++++++++++++++++++ +++++++++++++++++++++++++++++++ +++++++++++++++++++++++++++++++ +++++++++++++++++++++++++++++++ +++++++++++++++++++++++++++....                                 ....+++++++++++++++++                                      ....                                 ....+++++++++++++++++++++++++++ +++++++++++++++++++++++++++++++ +++++++++++++++++++++++++++++++                                ",
"                                 +++++++++++++++++++++++++++++++ +++++++++++++++++++++++++++++++ +++++++++++++++++++++++++++.... +++++++++++++++++++++++++++++++ ....+++++++++++++++++++++++++++     +++++++++++++++++++++++.... +++++++++++++++++++++++++++++++ ....+++++++++++++++++++++++++++ +++++++++++++++++++++++++++++++ +++++++++++++++++++++++++++++++ +++++++++++++++++++++++++++++++ +++++++++++++++++++++++++++....                                 ....+++++++++++++++++                                      ....                                 ....+++++++++++++++++++++++++++ +++++++++++++++++++++++++++++++ +++++++++++++++++++++++++++++++                                ",
"                                 +++++++++++++++++++++++++++++++ +++++++++++++++++++++++++++++++ +++++++++++++++++++++++++++.... +++++++++++++++++++++++++++++++ ....+++++++++++++++++++++++++++     +++++++++++++++++++++++.... +++++++++++++++++++++++++++++++ ....+++++++++++++++++++++++++++ +++++++++++++++++++++++++++++++ +++++++++++++++++++++++++++++++ +++++++++++++++++++++++++++++++ +++++++++++++++++++++++++++....                                 ....+++++++++++++++++                                      ....                                 ....+++++++++++++++++++++++++++ +++++++++++++++++++++++++++++++ +++++++++++++++++++++++++++++++                                ",
"                                 +++++++++++++++++++++++++++++++ +++++++++++++++++++++++++++++++ +++++++++++++++++++++++++++.... +++++++++++++++++++++++++++++++ ....+++++++++++++++++++++++++++     +++++++++++++++++++++++.... +++++++++++++++++++++++++++++++ ....+++++++++++++++++++++++++++ +++++++++++++++++++++++++++++++ +++++++++++++++++++++++++++++++ +++++++++++++++++++++++++++++++ +++++++++++++++++++++++++++....                                 ....+++++++++++++++++                                      ....                                 ....+++++++++++++++++++++++++++ +++++++++++++++++++++++++++++++ +++++++++++++++++++++++++++++++                                ",
"                                 +++++++++++++++++++++++++++++++ +++++++++++++++++++++++++++++++ +++++++++++++++++++++++++++.... +++++++++++++++++++++++++++++++ ....+++++++++++++++++++++++++++     +++++++++++++++++++++++.... +++++++++++++++++++++++++++++++ ....+++++++++++++++++++++++++++ +++++++++++++++++++++++++++++++ +++++++++++++++++++++++++++++++ +++++++++++++++++++++++++++++++ +++++++++++++++++++++++++++....                                 ....+++++++++++++++++                                      ....                                 ....+++++++++++++++++++++++++++ +++++++++++++++++++++++++++++++ +++++++++++++++++++++++++++++++                                ",
"                                 +++++++++++++++++++++++++++++++ +++++++++++++++++++++++++++++++ +++++++++++++++++++++++++++.... +++++++++++++++++++++++++++++++ ....+++++++++++++++++++++++++++     +++++++++++++++++++++++.... +++++++++++++++++++++++++++++++ ....+++++++++++++++++++++++++++ +++++++++++++++++++++++++++++++ +++++++++++++++++++++++++++++++ +++++++++++++++++++++++++++++++ +++++++++++++++++++++++++++....                                 ....+++++++++++++++++                                      ....                                 ....+++++++++++++++++++++++++++ +++++++++++++++++++++++++++++++ +++++++++++++++++++++++++++++++                                ",
"                                 +++++++++++++++++++++++++++++++ +++++++++++++++++++++++++++++++ +++++++++++++++++++++++++++.... +++++++++++++++++++++++++++++++ ....++++++++++++++++++++++++        +++++++++++++++++++++++.... +++++++++++++++++++++++++++++++ ....+++++++++++++++++++++++++++ +++++++++++++++++++++++++++++++ +++++++++++++++++++++++++++++++ +++++++++++++++++++++++++++++++ +++++++++++++++++++++++++++....                                 ....+++++++++++++++++                                      ....                                 ....+++++++++++++++++++++++++++ +++++++++++++++++++++++++++++++ +++++++++++++++++++++++++++++++                                ",
"                                 +++++++++++++++++++++++++++++++ +++++++++++++++++++++++++++++++ +++++++++++++++++++++++++++.... +++++++++++++++++++++++++++++++ ....++++++++++++++++++++++++        +++++++++++++++++++++++.... +++++++++++++++++++++++++++++++ ....+++++++++++++++++++++++++++ +++++++++++++++++++++++++++++++ +++++++++++++++++++++++++++++++ +++++++++++++++++++++++++++++++ +++++++++++++++++++++++++++....                                 ....+++++++++++++++++                                      ....                                 ....+++++++++++++++++++++++++++ +++++++++++++++++++++++++++++++ +++++++++++++++++++++++++++++++                                ",
"                                 +++++++++++++++++++++++++++++++ +++++++++++++++++++++++++++++++ +++++++++++++++++++++++++++.... +++++++++++++++++++++++++++++++ ....++++++++++++++++++++++++        +++++++++++++++++++++++.... +++++++++++++++++++++++++++++++ ....+++++++++++++++++++++++++++ +++++++++++++++++++++++++++++++ +++++++++++++++++++++++++++++++ +++++++++++++++++++++++++++++++ +++++++++++++++++++++++++++....                                 ....+++++++++++++++++                                      ....                                 ....+++++++++++++++++++++++++++ +++++++++++++++++++++++++++++++ +++++++++++++++++++++++++++++++                                ",
"                                 +++++++++++++++++++++++++++++++ +++++++++++++++++++++++++++++++ +++++++++++++++++++++++++++.... +++++++++++++++++++++++++++++++ ....++++++++++++++++++++++++        +++++++++++++++++++++++.... +++++++++++++++++++++++++++++++ ....+++++++++++++++++++++++++++ +++++++++++++++++++++++++++++++ +++++++++++++++++++++++++++++++ +++++++++++++++++++++++++++++++ +++++++++++++++++++++++++++....                                 ....+++++++++++++++++                                      ....                                 ....+++++++++++++++++++++++++++ +++++++++++++++++++++++++++++++ +++++++++++++++++++++++++++++++                                ",
"                                 +++++++++++++++++++++++++++++++ +++++++++++++++++++++++++++++++ +++++++++++++++++++++++++++.... +++++++++++++++++++++++++++++++ ....+++++++++++++++++++++++++++     +++++++++++++++++++++++.... +++++++++++++++++++++++++++++++ ....+++++++++++++++++++++++++++ +++++++++++++++++++++++++++++++ +++++++++++++++++++++++++++++++ +++++++++++++++++++++++++++++++ +++++++++++++++++++++++++++....                                 ....+++++++++++++++++                                      ....                                 ....+++++++++++++++++++++++++++ +++++++++++++++++++++++++++++++ +++++++++++++++++++++++++++++++                                ",
"                                 +++++++++++++++++++++++++++++++ +++++++++++++++++++++++++++++++ +++++++++++++++++++++++++++.... +++++++++++++++++++++++++++++++ ....+++++++++++++++++++++++++++     +++++++++++++++++++++++.... +++++++++++++++++++++++++++++++ ....+++++++++++++++++++++++++++ +++++++++++++++++++++++++++++++ +++++++++++++++++++++++++++++++ +++++++++++++++++++++++++++++++ +++++++++++++++++++++++++++....                                 ....+++++++++++++++++                                      ....                                 ....+++++++++++++++++++++++++++ +++++++++++++++++++++++++++++++ +++++++++++++++++++++++++++++++                                ",
"                                 +++++++++++++++++++++++++++++++ +++++++++++++++++++++++++++++++ +++++++++++++++++++++++++++.... +++++++++++++++++++++++++++++++ ....+++++++++++++++++++++++++++     +++++++++++++++++++++++.... +++++++++++++++++++++++++++++++ ....+++++++++++++++++++++++++++ +++++++++++++++++++++++++++++++ +++++++++++++++++++++++++++++++ +++++++++++++++++++++++++++++++ +++++++++++++++++++++++++++....                                 ....+++++++++++++++++                                      ....                                 ....+++++++++++++++++++++++++++ +++++++++++++++++++++++++++++++ +++++++++++++++++++++++++++++++                                ",
"                                 +++++++++++++++++++++++++++++++ +++++++++++++++++++++++++++++++ +++++++++++++++++++++++++++.... +++++++++++++++++++++++++++++++ ....+++++++++++++++++++++++++++     +++++++++++++++++++++++.... +++++++++++++++++++++++++++++++ ....+++++++++++++++++++++++++++ +++++++++++++++++++++++++++++++ +++++++++++++++++++++++++++++++ +++++++++++++++++++++++++++++++ +++++++++++++++++++++++++++....                                 ....+++++++++++++++++                                      ....                                 ....+++++++++++++++++++++++++++ +++++++++++++++++++++++++++++++ +++++++++++++++++++++++++++++++                                ",
"                                 +++++++++++++++++++++++++++++++ +++++++++++++++++++++++++++++++ +++++++++++++++++++++++++++.... +++++++++++++++++++++++++++++++ ....+++++++++++++++++++++++++++     +++++++++++++++++++++++.... +++++++++++++++++++++++++++++++ ....+++++++++++++++++++++++++++ +++++++++++++++++++++++++++++++ +++++++++++++++++++++++++++++++ +++++++++++++++++++++++++++++++ +++++++++++++++++++++++++++....                                 ....+++++++++++++++++                                      ....                                 ....+++++++++++++++++++++++++++ +++++++++++++++++++++++++++++++ +++++++++++++++++++++++++++++++                                ",
"                                 +++++++++++++++++++++++++++++++ +++++++++++++++++++++++++++++++ +++++++++++++++++++++++++++.... +++++++++++++++++++++++++++++++ ....+++++++++++++++++++++++++++     +++++++++++++++++++++++.... +++++++++++++++++++++++++++++++ ....+++++++++++++++++++++++++++ +++++++++++++++++++++++++++++++ +++++++++++++++++++++++++++++++ +++++++++++++++++++++++++++++++ +++++++++++++++++++++++++++....                                 ....+++++++++++++++++                                      ....                                 ....+++++++++++++++++++++++++++ +++++++++++++++++++++++++++++++ +++++++++++++++++++++++++++++++                                ",
"                                 +++++++++++++++++++++++++++++++ +++++++++++++++++++++++++++++++ +++++++++++++++++++++++++++.... +++++++++++++++++++++++++++++++ ....+++++++++++++++++++++++++++     +++++++++++++++++++++++.... +++++++++++++++++++++++++++++++ ....+++++++++++++++++++++++++++ +++++++++++++++++++++++++++++++ +++++++++++++++++++++++++++++++ +++++++++++++++++++++++++++++++ +++++++++++++++++++++++++++....                                 ....+++++++++++++++++                                      ....                                 ....+++++++++++++++++++++++++++ +++++++++++++++++++++++++++++++ +++++++++++++++++++++++++++++++                                ",
"                                 +++++++++++++++++++++++++++++++ +++++++++++++++++++++++++++++++ +++++++++++++++++++++++++++.... +++++++++++++++++++++++++++++++ ....+++++++++++++++++++++++++++     +++++++++++++++++++++++.... +++++++++++++++++++++++++++++++ ....+++++++++++++++++++++++++++ +++++++++++++++++++++++++++++++ +++++++++++++++++++++++++++++++ +++++++++++++++++++++++++++++++ +++++++++++++++++++++++++++....                                 ....+++++++++++++++++                                      ....                                 ....+++++++++++++++++++++++++++ +++++++++++++++++++++++++++++++ +++++++++++++++++++++++++++++++                                ",
"                                 +++++++++++++++++++++++++++++++ +++++++++++++++++++++++++++++++ +++++++++++++++++++++++++++.... +++++++++++++++++++++++++++++++ ....+++++++++++++++++++++++++++     +++++++++++++++++++++++.... +++++++++++++++++++++++++++++++ ....+++++++++++++++++++++++++++ +++++++++++++++++++++++++++++++ +++++++++++++++++++++++++++++++ +++++++++++++++++++++++++++++++ +++++++++++++++++++++++++++....                                 ....+++++++++++++++++                                      ....                                 ....+++++++++++++++++++++++++++ +++++++++++++++++++++++++++++++ +++++++++++++++++++++++++++++++                                ",
"                            .................................................................................................... +++++++++++++++++++++++++++++++ ............................................................... +++++++++++++++++++++++++++++++ ....................................................................+++++++++++++++++++++++....................................................................                                 ...............................................................                                 ....................................................................................................                           ",
"                            .................................................................................................... +++++++++++++++++++++++++++++++ ............................................................... +++++++++++++++++++++++++++++++ ....................................................................+++++++++++++++++++++++....................................................................                                 ...............................................................                                 ....................................................................................................                           ",
"                            .................................................................................................... +++++++++++++++++++++++++++++++ ............................................................... +++++++++++++++++++++++++++++++ ....................................................................+++++++++++++++++++++++....................................................................                                 ...............................................................                                 ....................................................................................................                           ",
"                            .................................................................................................... +++++++++++++++++++++++++++++++ ............................................................... +++++++++++++++++++++++++++++++ ....................................................................+++++++++++++++++++++++....................................................................                                 ...............................................................                                 ....................................................................................................                           ",
"                            ....                                                                                                                                                                                                                                                                                                 ....                       ....                                                                                                                                                                                                                                                                                                 ....                           ",
"                            .... +++++++++++++++++++++++++++++++ +++++++++++++++++++++++++++++++ +++++++++++++++++++++++++++++++ +++++++++++++++++++++++++++++++ +++++++++++++++++++++++++++++++ +++++++++++++++++++++++++++++++ +++++++++++++++++++++++++++++++ +++++++++++++++++++++++++++++++ +++++++++++++++++++++++++++++++ ....                       .... +++++++++++++++++++++++++++++++ +++++++++++++++++++++++++++++++                                 +++++++++++++++++++++++++++++++ +++++++++++++++++++++++++++++++ +++++++++++++++++++++++++++++++ +++++++++++++++++++++++++++++++ +++++++++++++++++++++++++++++++ +++++++++++++++++++++++++++++++ ....                           ",
"                            .... +++++++++++++++++++++++++++++++ +++++++++++++++++++++++++++++++ +++++++++++++++++++++++++++++++ +++++++++++++++++++++++++++++++ +++++++++++++++++++++++++++++++ +++++++++++++++++++++++++++++++ +++++++++++++++++++++++++++++++ +++++++++++++++++++++++++++++++ +++++++++++++++++++++++++++++++ ....                       .... +++++++++++++++++++++++++++++++ +++++++++++++++++++++++++++++++                                 +++++++++++++++++++++++++++++++ +++++++++++++++++++++++++++++++ +++++++++++++++++++++++++++++++ +++++++++++++++++++++++++++++++ +++++++++++++++++++++++++++++++ +++++++++++++++++++++++++++++++ ....                           ",
"                            .... +++++++++++++++++++++++++++++++ +++++++++++++++++++++++++++++++ +++++++++++++++++++++++++++++++ +++++++++++++++++++++++++++++++ +++++++++++++++++++++++++++++++ +++++++++++++++++++++++++++++++ +++++++++++++++++++++++++++++++ +++++++++++++++++++++++++++++++ +++++++++++++++++++++++++++++++ ....                       .... +++++++++++++++++++++++++++++++ +++++++++++++++++++++++++++++++                                 +++++++++++++++++++++++++++++++ +++++++++++++++++++++++++++++++ +++++++++++++++++++++++++++++++ +++++++++++++++++++++++++++++++ +++++++++++++++++++++++++++++++ +++++++++++++++++++++++++++++++ ....                           ",
"                            .... +++++++++++++++++++++++++++++++ +++++++++++++++++++++++++++++++ +++++++++++++++++++++++++++++++ +++++++++++++++++++++++++++++++ +++++++++++++++++++++++++++++++ +++++++++++++++++++++++++++++++ +++++++++++++++++++++++++++++++ +++++++++++++++++++++++++++++++ +++++++++++++++++++++++++++++++ ....                       .... +++++++++++++++++++++++++++++++ +++++++++++++++++++++++++++++++                                 +++++++++++++++++++++++++++++++ +++++++++++++++++++++++++++++++ +++++++++++++++++++++++++++++++ +++++++++++++++++++++++++++++++ +++++++++++++++++++++++++++++++ +++++++++++++++++++++++++++++++ ....                           ",
"                            .... +++++++++++++++++++++++++++++++ +++++++++++++++++++++++++++++++ +++++++++++++++++++++++++++++++ +++++++++++++++++++++++++++++++ +++++++++++++++++++++++++++++++ +++++++++++++++++++++++++++++++ +++++++++++++++++++++++++++++++ +++++++++++++++++++++++++++++++ +++++++++++++++++++++++++++++++ ....                       .... +++++++++++++++++++++++++++++++ +++++++++++++++++++++++++++++++                                 +++++++++++++++++++++++++++++++ +++++++++++++++++++++++++++++++ +++++++++++++++++++++++++++++++ +++++++++++++++++++++++++++++++ +++++++++++++++++++++++++++++++ +++++++++++++++++++++++++++++++ ....                           ",
"                            .... +++++++++++++++++++++++++++++++ +++++++++++++++++++++++++++++++ +++++++++++++++++++++++++++++++ +++++++++++++++++++++++++++++++ +++++++++++++++++++++++++++++++ +++++++++++++++++++++++++++++++ +++++++++++++++++++++++++++++++ +++++++++++++++++++++++++++++++ +++++++++++++++++++++++++++++++ ....                       .... +++++++++++++++++++++++++++++++ +++++++++++++++++++++++++++++++                                 +++++++++++++++++++++++++++++++ +++++++++++++++++++++++++++++++ +++++++++++++++++++++++++++++++ +++++++++++++++++++++++++++++++ +++++++++++++++++++++++++++++++ +++++++++++++++++++++++++++++++ ....                           ",
"                            .... +++++++++++++++++++++++++++++++ +++++++++++++++++++++++++++++++ +++++++++++++++++++++++++++++++ +++++++++++++++++++++++++++++++ +++++++++++++++++++++++++++++++ +++++++++++++++++++++++++++++++ +++++++++++++++++++++++++++++++ +++++++++++++++++++++++++++++++ +++++++++++++++++++++++++++++++ ....                       .... +++++++++++++++++++++++++++++++ +++++++++++++++++++++++++++++++                                 +++++++++++++++++++++++++++++++ +++++++++++++++++++++++++++++++ +++++++++++++++++++++++++++++++ +++++++++++++++++++++++++++++++ +++++++++++++++++++++++++++++++ +++++++++++++++++++++++++++++++ ....                           ",
"                            .... +++++++++++++++++++++++++++++++ +++++++++++++++++++++++++++++++ +++++++++++++++++++++++++++++++ +++++++++++++++++++++++++++++++ +++++++++++++++++++++++++++++++ +++++++++++++++++++++++++++++++ +++++++++++++++++++++++++++++++ +++++++++++++++++++++++++++++++ +++++++++++++++++++++++++++++++ ....                       .... +++++++++++++++++++++++++++++++ +++++++++++++++++++++++++++++++                                 +++++++++++++++++++++++++++++++ +++++++++++++++++++++++++++++++ +++++++++++++++++++++++++++++++ +++++++++++++++++++++++++++++++ +++++++++++++++++++++++++++++++ +++++++++++++++++++++++++++++++ ....                           ",
"                            .... +++++++++++++++++++++++++++++++ +++++++++++++++++++++++++++++++ +++++++++++++++++++++++++++++++ +++++++++++++++++++++++++++++++ +++++++++++++++++++++++++++++++ +++++++++++++++++++++++++++++++ +++++++++++++++++++++++++++++++ +++++++++++++++++++++++++++++++ +++++++++++++++++++++++++++++++ ....                       .... +++++++++++++++++++++++++++++++ +++++++++++++++++++++++++++++++                                 +++++++++++++++++++++++++++++++ +++++++++++++++++++++++++++++++ +++++++++++++++++++++++++++++++ +++++++++++++++++++++++++++++++ +++++++++++++++++++++++++++++++ +++++++++++++++++++++++++++++++ ....                           ",
"                            .... +++++++++++++++++++++++++++++++ +++++++++++++++++++++++++++++++ +++++++++++++++++++++++++++++++ +++++++++++++++++++++++++++++++ +++++++++++++++++++++++++++++++ +++++++++++++++++++++++++++++++ +++++++++++++++++++++++++++++++ +++++++++++++++++++++++++++++++ +++++++++++++++++++++++++++++++ ....                       .... +++++++++++++++++++++++++++++++ +++++++++++++++++++++++++++++++                                 +++++++++++++++++++++++++++++++ +++++++++++++++++++++++++++++++ +++++++++++++++++++++++++++++++ +++++++++++++++++++++++++++++++ +++++++++++++++++++++++++++++++ +++++++++++++++++++++++++++++++ ....                           ",
"                            .... +++++++++++++++++++++++++++++++ +++++++++++++++++++++++++++++++ +++++++++++++++++++++++++++++++ +++++++++++++++++++++++++++++++ +++++++++++++++++++++++++++++++ +++++++++++++++++++++++++++++++ +++++++++++++++++++++++++++++++ +++++++++++++++++++++++++++++++ +++++++++++++++++++++++++++++++ ....                       .... +++++++++++++++++++++++++++++++ +++++++++++++++++++++++++++++++                                 +++++++++++++++++++++++++++++++ +++++++++++++++++++++++++++++++ +++++++++++++++++++++++++++++++ +++++++++++++++++++++++++++++++ +++++++++++++++++++++++++++++++ +++++++++++++++++++++++++++++++ ....                           ",
"                            .... +++++++++++++++++++++++++++++++ +++++++++++++++++++++++++++++++ +++++++++++++++++++++++++++++++ +++++++++++++++++++++++++++++++ +++++++++++++++++++++++++++++++ +++++++++++++++++++++++++++++++ +++++++++++++++++++++++++++++++ +++++++++++++++++++++++++++++++ +++++++++++++++++++++++++++++++ ....                       .... +++++++++++++++++++++++++++++++ +++++++++++++++++++++++++++++++                                 +++++++++++++++++++++++++++++++ +++++++++++++++++++++++++++++++ +++++++++++++++++++++++++++++++ +++++++++++++++++++++++++++++++ +++++++++++++++++++++++++++++++ +++++++++++++++++++++++++++++++ ....                           ",
"                            .... +++++++++++++++++++++++++++++++ +++++++++++++++++++++++++++++++ +++++++++++++++++++++++++++++++ +++++++++++++++++++++++++++++++ +++++++++++++++++++++++++++++++ +++++++++++++++++++++++++++++++ +++++++++++++++++++++++++++++++ +++++++++++++++++++++++++++++++ +++++++++++++++++++++++++++++++ ....                       .... +++++++++++++++++++++++++++++++ +++++++++++++++++++++++++++++++                                 +++++++++++++++++++++++++++++++ +++++++++++++++++++++++++++++++ +++++++++++++++++++++++++++++++ +++++++++++++++++++++++++++++++ +++++++++++++++++++++++++++++++ +++++++++++++++++++++++++++++++ ....                           ",
"                            .... +++++++++++++++++++++++++++++++ +++++++++++++++++++++++++++++++ +++++++++++++++++++++++++++++++ +++++++++++++++++++++++++++++++ +++++++++++++++++++++++++++++++ +++++++++++++++++++++++++++++++ +++++++++++++++++++++++++++++++ +++++++++++++++++++++++++++++++ +++++++++++++++++++++++++++++++ ....                       .... +++++++++++++++++++++++++++++++ +++++++++++++++++++++++++++++++                                 +++++++++++++++++++++++++++++++ +++++++++++++++++++++++++++++++ +++++++++++++++++++++++++++++++ +++++++++++++++++++++++++++++++ +++++++++++++++++++++++++++++++ +++++++++++++++++++++++++++++++ ....                           ",
"                            .... +++++++++++++++++++++++++++++++ +++++++++++++++++++++++++++++++ +++++++++++++++++++++++++++++++ +++++++++++++++++++++++++++++++ +++++++++++++++++++++++++++++++ +++++++++++++++++++++++++++++++ +++++++++++++++++++++++++++++++ +++++++++++++++++++++++++++++++ +++++++++++++++++++++++++++++++ ....                       .... +++++++++++++++++++++++++++++++ +++++++++++++++++++++++++++++++                                 +++++++++++++++++++++++++++++++ +++++++++++++++++++++++++++++++ +++++++++++++++++++++++++++++++ +++++++++++++++++++++++++++++++ +++++++++++++++++++++++++++++++ +++++++++++++++++++++++++++++++ ....                           ",
"                            .... +++++++++++++++++++++++++++++++ +++++++++++++++++++++++++++++++ +++++++++++++++++++++++++++++++ +++++++++++++++++++++++++++++++ +++++++++++++++++++++++++++++++ +++++++++++++++++++++++++++++++ +++++++++++++++++++++++++++++++ +++++++++++++++++++++++++++++++ +++++++++++++++++++++++++++++++ ....                       .... +++++++++++++++++++++++++++++++ +++++++++++++++++++++++++++++++                                 +++++++++++++++++++++++++++++++ +++++++++++++++++++++++++++++++ +++++++++++++++++++++++++++++++ +++++++++++++++++++++++++++++++ +++++++++++++++++++++++++++++++ +++++++++++++++++++++++++++++++ ....                           ",
"                            .... +++++++++++++++++++++++++++++++ +++++++++++++++++++++++++++++++ +++++++++++++++++++++++++++++++ +++++++++++++++++++++++++++++++ +++++++++++++++++++++++++++++++ +++++++++++++++++++++++++++++++ +++++++++++++++++++++++++++++++ +++++++++++++++++++++++++++++++ +++++++++++++++++++++++++++++++ ....                       .... +++++++++++++++++++++++++++++++ +++++++++++++++++++++++++++++++                                 +++++++++++++++++++++++++++++++ +++++++++++++++++++++++++++++++ +++++++++++++++++++++++++++++++ +++++++++++++++++++++++++++++++ +++++++++++++++++++++++++++++++ +++++++++++++++++++++++++++++++ ....                           ",
"                            .... +++++++++++++++++++++++++++++++ +++++++++++++++++++++++++++++++ +++++++++++++++++++++++++++++++ +++++++++++++++++++++++++++++++ +++++++++++++++++++++++++++++++ +++++++++++++++++++++++++++++++ +++++++++++++++++++++++++++++++ +++++++++++++++++++++++++++++++ +++++++++++++++++++++++++++++++ ....                       .... +++++++++++++++++++++++++++++++ +++++++++++++++++++++++++++++++                                 +++++++++++++++++++++++++++++++ +++++++++++++++++++++++++++++++ +++++++++++++++++++++++++++++++ +++++++++++++++++++++++++++++++ +++++++++++++++++++++++++++++++ +++++++++++++++++++++++++++++++ ....                           ",
"                            .... +++++++++++++++++++++++++++++++ +++++++++++++++++++++++++++++++ +++++++++++++++++++++++++++++++ +++++++++++++++++++++++++++++++ +++++++++++++++++++++++++++++++ +++++++++++++++++++++++++++++++ +++++++++++++++++++++++++++++++ +++++++++++++++++++++++++++++++ +++++++++++++++++++++++++++++++ ....                       .... +++++++++++++++++++++++++++++++ +++++++++++++++++++++++++++++++                                 +++++++++++++++++++++++++++++++ +++++++++++++++++++++++++++++++ +++++++++++++++++++++++++++++++ +++++++++++++++++++++++++++++++ +++++++++++++++++++++++++++++++ +++++++++++++++++++++++++++++++ ....                           ",
"                            .... +++++++++++++++++++++++++++++++ +++++++++++++++++++++++++++++++ +++++++++++++++++++++++++++++++ +++++++++++++++++++++++++++++++ +++++++++++++++++++++++++++++++ +++++++++++++++++++++++++++++++ +++++++++++++++++++++++++++++++ +++++++++++++++++++++++++++++++ +++++++++++++++++++++++++++++++ ....                       .... +++++++++++++++++++++++++++++++ +++++++++++++++++++++++++++++++                                 +++++++++++++++++++++++++++++++ +++++++++++++++++++++++++++++++ +++++++++++++++++++++++++++++++ +++++++++++++++++++++++++++++++ +++++++++++++++++++++++++++++++ +++++++++++++++++++++++++++++++ ....                           ",
"                            .... +++++++++++++++++++++++++++++++ +++++++++++++++++++++++++++++++ +++++++++++++++++++++++++++++++ +++++++++++++++++++++++++++++++ +++++++++++++++++++++++++++++++ +++++++++++++++++++++++++++++++ +++++++++++++++++++++++++++++++ +++++++++++++++++++++++++++++++ +++++++++++++++++++++++++++++++ ....                       .... +++++++++++++++++++++++++++++++ +++++++++++++++++++++++++++++++                                 +++++++++++++++++++++++++++++++ +++++++++++++++++++++++++++++++ +++++++++++++++++++++++++++++++ +++++++++++++++++++++++++++++++ +++++++++++++++++++++++++++++++ +++++++++++++++++++++++++++++++ ....                           ",
"                            .... +++++++++++++++++++++++++++++++ +++++++++++++++++++++++++++++++ +++++++++++++++++++++++++++++++ +++++++++++++++++++++++++++++++ +++++++++++++++++++++++++++++++ +++++++++++++++++++++++++++++++ +++++++++++++++++++++++++++++++ +++++++++++++++++++++++++++++++ +++++++++++++++++++++++++++++++ ....                       .... +++++++++++++++++++++++++++++++ +++++++++++++++++++++++++++++++                                 +++++++++++++++++++++++++++++++ +++++++++++++++++++++++++++++++ +++++++++++++++++++++++++++++++ +++++++++++++++++++++++++++++++ +++++++++++++++++++++++++++++++ +++++++++++++++++++++++++++++++ ....                           ",
"                            .... +++++++++++++++++++++++++++++++ +++++++++++++++++++++++++++++++ +++++++++++++++++++++++++++++++ +++++++++++++++++++++++++++++++ +++++++++++++++++++++++++++++++ +++++++++++++++++++++++++++++++ +++++++++++++++++++++++++++++++ +++++++++++++++++++++++++++++++ +++++++++++++++++++++++++++++++ ....                       .... +++++++++++++++++++++++++++++++ +++++++++++++++++++++++++++++++                                 +++++++++++++++++++++++++++++++ +++++++++++++++++++++++++++++++ +++++++++++++++++++++++++++++++ +++++++++++++++++++++++++++++++ +++++++++++++++++++++++++++++++ +++++++++++++++++++++++++++++++ ....                           ",
"                            .... +++++++++++++++++++++++++++++++ +++++++++++++++++++++++++++++++ +++++++++++++++++++++++++++++++ +++++++++++++++++++++++++++++++ +++++++++++++++++++++++++++++++ +++++++++++++++++++++++++++++++ +++++++++++++++++++++++++++++++ +++++++++++++++++++++++++++++++ +++++++++++++++++++++++++++++++ ....                       .... +++++++++++++++++++++++++++++++ +++++++++++++++++++++++++++++++                                 +++++++++++++++++++++++++++++++ +++++++++++++++++++++++++++++++ +++++++++++++++++++++++++++++++ +++++++++++++++++++++++++++++++ +++++++++++++++++++++++++++++++ +++++++++++++++++++++++++++++++ ....                           ",
"                            .... +++++++++++++++++++++++++++++++ +++++++++++++++++++++++++++++++ +++++++++++++++++++++++++++++++ +++++++++++++++++++++++++++++++ +++++++++++++++++++++++++++++++ +++++++++++++++++++++++++++++++ +++++++++++++++++++++++++++++++ +++++++++++++++++++++++++++++++ +++++++++++++++++++++++++++++++ ....                       .... +++++++++++++++++++++++++++++++ +++++++++++++++++++++++++++++++                                 +++++++++++++++++++++++++++++++ +++++++++++++++++++++++++++++++ +++++++++++++++++++++++++++++++ +++++++++++++++++++++++++++++++ +++++++++++++++++++++++++++++++ +++++++++++++++++++++++++++++++ ....                           ",
"                            .... +++++++++++++++++++++++++++++++ +++++++++++++++++++++++++++++++ +++++++++++++++++++++++++++++++ +++++++++++++++++++++++++++++++ +++++++++++++++++++++++++++++++ +++++++++++++++++++++++++++++++ +++++++++++++++++++++++++++++++ +++++++++++++++++++++++++++++++ +++++++++++++++++++++++++++++++ ....                       .... +++++++++++++++++++++++++++++++ +++++++++++++++++++++++++++++++                                 +++++++++++++++++++++++++++++++ +++++++++++++++++++++++++++++++ +++++++++++++++++++++++++++++++ +++++++++++++++++++++++++++++++ +++++++++++++++++++++++++++++++ +++++++++++++++++++++++++++++++ ....                           ",
"                            .... +++++++++++++++++++++++++++++++ +++++++++++++++++++++++++++++++ +++++++++++++++++++++++++++++++ +++++++++++++++++++++++++++++++ +++++++++++++++++++++++++++++++ +++++++++++++++++++++++++++++++ +++++++++++++++++++++++++++++++ +++++++++++++++++++++++++++++++ +++++++++++++++++++++++++++++++ ....                       .... +++++++++++++++++++++++++++++++ +++++++++++++++++++++++++++++++                                 +++++++++++++++++++++++++++++++ +++++++++++++++++++++++++++++++ +++++++++++++++++++++++++++++++ +++++++++++++++++++++++++++++++ +++++++++++++++++++++++++++++++ +++++++++++++++++++++++++++++++ ....                           ",
"                            .... +++++++++++++++++++++++++++++++ +++++++++++++++++++++++++++++++ +++++++++++++++++++++++++++++++ +++++++++++++++++++++++++++++++ +++++++++++++++++++++++++++++++ +++++++++++++++++++++++++++++++ +++++++++++++++++++++++++++++++ +++++++++++++++++++++++++++++++ +++++++++++++++++++++++++++++++ ....                       .... +++++++++++++++++++++++++++++++ +++++++++++++++++++++++++++++++                                 +++++++++++++++++++++++++++++++ +++++++++++++++++++++++++++++++ +++++++++++++++++++++++++++++++ +++++++++++++++++++++++++++++++ +++++++++++++++++++++++++++++++ +++++++++++++++++++++++++++++++ ....                           ",
"                            .... +++++++++++++++++++++++++++++++ +++++++++++++++++++++++++++++++ +++++++++++++++++++++++++++++++ +++++++++++++++++++++++++++++++ +++++++++++++++++++++++++++++++ +++++++++++++++++++++++++++++++ +++++++++++++++++++++++++++++++ +++++++++++++++++++++++++++++++ +++++++++++++++++++++++++++++++ ....                       .... +++++++++++++++++++++++++++++++ +++++++++++++++++++++++++++++++                                 +++++++++++++++++++++++++++++++ +++++++++++++++++++++++++++++++ +++++++++++++++++++++++++++++++ +++++++++++++++++++++++++++++++ +++++++++++++++++++++++++++++++ +++++++++++++++++++++++++++++++ ....                           ",
"                            .... +++++++++++++++++++++++++++++++ +++++++++++++++++++++++++++++++ +++++++++++++++++++++++++++++++ +++++++++++++++++++++++++++++++ +++++++++++++++++++++++++++++++ +++++++++++++++++++++++++++++++ +++++++++++++++++++++++++++++++ +++++++++++++++++++++++++++++++ +++++++++++++++++++++++++++++++ ....                       .... +++++++++++++++++++++++++++++++ +++++++++++++++++++++++++++++++                                 +++++++++++++++++++++++++++++++ +++++++++++++++++++++++++++++++ +++++++++++++++++++++++++++++++ +++++++++++++++++++++++++++++++ +++++++++++++++++++++++++++++++ +++++++++++++++++++++++++++++++ ....                           ",
"                            .... +++++++++++++++++++++++++++++++ +++++++++++++++++++++++++++++++ +++++++++++++++++++++++++++++++ +++++++++++++++++++++++++++++++ +++++++++++++++++++++++++++++++ +++++++++++++++++++++++++++++++ +++++++++++++++++++++++++++++++ +++++++++++++++++++++++++++++++ +++++++++++++++++++++++++++++++ ....                       .... +++++++++++++++++++++++++++++++ +++++++++++++++++++++++++++++++                                 +++++++++++++++++++++++++++++++ +++++++++++++++++++++++++++++++ +++++++++++++++++++++++++++++++ +++++++++++++++++++++++++++++++ +++++++++++++++++++++++++++++++ +++++++++++++++++++++++++++++++ ....                           ",
"                            ....                                                                                                                                                                                                                                                                                                 ....                       ....                                                                                                                                                                                                                                                                                                 ....                           ",
"                            .... +++++++++++++++++++++++++++++++ +++++++++++++++++++++++++++++++ ............................................................... +++++++++++++++++++++++++++++++ ............................................................... +++++++++++++++++++++++++++++++ +++++++++++++++++++++++++++++++ ....+++++++++++++++++++++++.... +++++++++++++++++++++++++++++++ +++++++++++++++++++++++++++++++ ............................................................... +++++++++++++++++++++++++++++++ ............................................................... +++++++++++++++++++++++++++++++ +++++++++++++++++++++++++++++++ ....                           ",
"                            .... +++++++++++++++++++++++++++++++ +++++++++++++++++++++++++++++++ ............................................................... +++++++++++++++++++++++++++++++ ............................................................... +++++++++++++++++++++++++++++++ +++++++++++++++++++++++++++++++ ....+++++++++++++++++++++++.... +++++++++++++++++++++++++++++++ +++++++++++++++++++++++++++++++ ............................................................... +++++++++++++++++++++++++++++++ ............................................................... +++++++++++++++++++++++++++++++ +++++++++++++++++++++++++++++++ ....                           ",
"                            .... +++++++++++++++++++++++++++++++ +++++++++++++++++++++++++++++++ ............................................................... +++++++++++++++++++++++++++++++ ............................................................... +++++++++++++++++++++++++++++++ +++++++++++++++++++++++++++++++ ....+++++++++++++++++++++++.... +++++++++++++++++++++++++++++++ +++++++++++++++++++++++++++++++ ............................................................... +++++++++++++++++++++++++++++++ ............................................................... +++++++++++++++++++++++++++++++ +++++++++++++++++++++++++++++++ ....                           ",
"                            .... +++++++++++++++++++++++++++++++ +++++++++++++++++++++++++++++++ ............................................................... +++++++++++++++++++++++++++++++ ............................................................... +++++++++++++++++++++++++++++++ +++++++++++++++++++++++++++++++ ....+++++++++++++++++++++++.... +++++++++++++++++++++++++++++++ +++++++++++++++++++++++++++++++ ............................................................... +++++++++++++++++++++++++++++++ ............................................................... +++++++++++++++++++++++++++++++ +++++++++++++++++++++++++++++++ ....                           ",
"                            .... +++++++++++++++++++++++++++++++ +++++++++++++++++++++++++++++++ ....+++++++++++++++++++++++++++ +++++++++++++++++++++++++++.... +++++++++++++++++++++++++++++++ ....+++++++++++++++++++++++++++ +++++++++++++++++++++++++++.... +++++++++++++++++++++++++++++++ +++++++++++++++++++++++++++++++ ....+++++++++++++++++++++++.... +++++++++++++++++++++++++++++++ +++++++++++++++++++++++++++++++ ....                                                       .... +++++++++++++++++++++++++++++++ ....                                                       .... +++++++++++++++++++++++++++++++ +++++++++++++++++++++++++++++++ ....                           ",
"                            .... +++++++++++++++++++++++++++++++ +++++++++++++++++++++++++++++++ ....+++++++++++++++++++++++++++ +++++++++++++++++++++++++++.... +++++++++++++++++++++++++++++++ ....+++++++++++++++++++++++++++ +++++++++++++++++++++++++++.... +++++++++++++++++++++++++++++++ +++++++++++++++++++++++++++++++ ....+++++++++++++++++++++++.... +++++++++++++++++++++++++++++++ +++++++++++++++++++++++++++++++ ....                                                       .... +++++++++++++++++++++++++++++++ ....                                                       .... +++++++++++++++++++++++++++++++ +++++++++++++++++++++++++++++++ ....                           ",
"                            .... +++++++++++++++++++++++++++++++ +++++++++++++++++++++++++++++++ ....+++++++++++++++++++++++++++ +++++++++++++++++++++++++++.... +++++++++++++++++++++++++++++++ ....+++++++++++++++++++++++++++ +++++++++++++++++++++++++++.... +++++++++++++++++++++++++++++++ +++++++++++++++++++++++++++++++ ....+++++++++++++++++++++++.... +++++++++++++++++++++++++++++++ +++++++++++++++++++++++++++++++ ....                                                       .... +++++++++++++++++++++++++++++++ ....                                                       .... +++++++++++++++++++++++++++++++ +++++++++++++++++++++++++++++++ ....                           ",
"                            .... +++++++++++++++++++++++++++++++ +++++++++++++++++++++++++++++++ ....+++++++++++++++++++++++++++ +++++++++++++++++++++++++++.... +++++++++++++++++++++++++++++++ ....+++++++++++++++++++++++++++ +++++++++++++++++++++++++++.... +++++++++++++++++++++++++++++++ +++++++++++++++++++++++++++++++ ....+++++++++++++++++++++++.... +++++++++++++++++++++++++++++++ +++++++++++++++++++++++++++++++ ....                                                       .... +++++++++++++++++++++++++++++++ ....                                                       .... +++++++++++++++++++++++++++++++ +++++++++++++++++++++++++++++++ ....                           ",
"                            .... +++++++++++++++++++++++++++++++ +++++++++++++++++++++++++++++++ ....+++++++++++++++++++++++++++ +++++++++++++++++++++++++++.... +++++++++++++++++++++++++++++++ ....+++++++++++++++++++++++++++ +++++++++++++++++++++++++++.... +++++++++++++++++++++++++++++++ +++++++++++++++++++++++++++++++ ....+++++++++++++++++++++++.... +++++++++++++++++++++++++++++++ +++++++++++++++++++++++++++++++ ....                                                       .... +++++++++++++++++++++++++++++++ ....                                                       .... +++++++++++++++++++++++++++++++ +++++++++++++++++++++++++++++++ ....                           ",
"                            .... +++++++++++++++++++++++++++++++ +++++++++++++++++++++++++++++++ ....+++++++++++++++++++++++++++ +++++++++++++++++++++++++++.... +++++++++++++++++++++++++++++++ ....+++++++++++++++++++++++++++ +++++++++++++++++++++++++++.... +++++++++++++++++++++++++++++++ +++++++++++++++++++++++++++++++ ....+++++++++++++++++++++++.... +++++++++++++++++++++++++++++++ +++++++++++++++++++++++++++++++ ....                                                       .... +++++++++++++++++++++++++++++++ ....                                                       .... +++++++++++++++++++++++++++++++ +++++++++++++++++++++++++++++++ ....                           ",
"                            .... +++++++++++++++++++++++++++++++ +++++++++++++++++++++++++++++++ ....+++++++++++++++++++++++++++ +++++++++++++++++++++++++++.... +++++++++++++++++++++++++++++++ ....+++++++++++++++++++++++++++ +++++++++++++++++++++++++++.... +++++++++++++++++++++++++++++++ +++++++++++++++++++++++++++++++ ....+++++++++++++++++++++++.... +++++++++++++++++++++++++++++++ +++++++++++++++++++++++++++++++ ....                                                       .... +++++++++++++++++++++++++++++++ ....                                                       .... +++++++++++++++++++++++++++++++ +++++++++++++++++++++++++++++++ ....                           ",
"                            .... +++++++++++++++++++++++++++++++ +++++++++++++++++++++++++++++++ ....+++++++++++++++++++++++++++ +++++++++++++++++++++++++++.... +++++++++++++++++++++++++++++++ ....+++++++++++++++++++++++++++ +++++++++++++++++++++++++++.... +++++++++++++++++++++++++++++++ +++++++++++++++++++++++++++++++ ....+++++++++++++++++++++++.... +++++++++++++++++++++++++++++++ +++++++++++++++++++++++++++++++ ....                                                       .... +++++++++++++++++++++++++++++++ ....                                                       .... +++++++++++++++++++++++++++++++ +++++++++++++++++++++++++++++++ ....                           ",
"                            .... +++++++++++++++++++++++++++++++ +++++++++++++++++++++++++++++++ ....+++++++++++++++++++++++++++ +++++++++++++++++++++++++++.... +++++++++++++++++++++++++++++++ ....+++++++++++++++++++++++++++ +++++++++++++++++++++++++++.... +++++++++++++++++++++++++++++++ +++++++++++++++++++++++++++++++ ....+++++++++++++++++++++++.... +++++++++++++++++++++++++++++++ +++++++++++++++++++++++++++++++ ....                                                       .... +++++++++++++++++++++++++++++++ ....                                                       .... +++++++++++++++++++++++++++++++ +++++++++++++++++++++++++++++++ ....                           ",
"                            .... +++++++++++++++++++++++++++++++ +++++++++++++++++++++++++++++++ ....+++++++++++++++++++++++++++ +++++++++++++++++++++++++++.... +++++++++++++++++++++++++++++++ ....+++++++++++++++++++++++++++ +++++++++++++++++++++++++++.... +++++++++++++++++++++++++++++++ +++++++++++++++++++++++++++++++ ....+++++++++++++++++++++++.... +++++++++++++++++++++++++++++++ +++++++++++++++++++++++++++++++ ....                                                       .... +++++++++++++++++++++++++++++++ ....                                                       .... +++++++++++++++++++++++++++++++ +++++++++++++++++++++++++++++++ ....                           ",
"                            .... +++++++++++++++++++++++++++++++ +++++++++++++++++++++++++++++++ ....+++++++++++++++++++++++++++ +++++++++++++++++++++++++++.... +++++++++++++++++++++++++++++++ ....+++++++++++++++++++++++++++ +++++++++++++++++++++++++++.... +++++++++++++++++++++++++++++++ +++++++++++++++++++++++++++++++ ....+++++++++++++++++++++++.... +++++++++++++++++++++++++++++++ +++++++++++++++++++++++++++++++ ....                                                       .... +++++++++++++++++++++++++++++++ ....                                                       .... +++++++++++++++++++++++++++++++ +++++++++++++++++++++++++++++++ ....                           ",
"                            .... +++++++++++++++++++++++++++++++ +++++++++++++++++++++++++++++++ ....+++++++++++++++++++++++++++ +++++++++++++++++++++++++++.... +++++++++++++++++++++++++++++++ ....+++++++++++++++++++++++++++ +++++++++++++++++++++++++++.... +++++++++++++++++++++++++++++++ +++++++++++++++++++++++++++++++ ....+++++++++++++++++++++++.... +++++++++++++++++++++++++++++++ +++++++++++++++++++++++++++++++ ....                                                       .... +++++++++++++++++++++++++++++++ ....                                                       .... +++++++++++++++++++++++++++++++ +++++++++++++++++++++++++++++++ ....                           ",
"                            .... +++++++++++++++++++++++++++++++ +++++++++++++++++++++++++++++++ ....+++++++++++++++++++++++++++ +++++++++++++++++++++++++++.... +++++++++++++++++++++++++++++++ ....+++++++++++++++++++++++++++ +++++++++++++++++++++++++++.... +++++++++++++++++++++++++++++++ +++++++++++++++++++++++++++++++ ....+++++++++++++++++++++++.... +++++++++++++++++++++++++++++++ +++++++++++++++++++++++++++++++ ....                                                       .... +++++++++++++++++++++++++++++++ ....                                                       .... +++++++++++++++++++++++++++++++ +++++++++++++++++++++++++++++++ ....                           ",
"                            .... +++++++++++++++++++++++++++++++ +++++++++++++++++++++++++++++++ ....+++++++++++++++++++++++++++ +++++++++++++++++++++++++++.... +++++++++++++++++++++++++++++++ ....+++++++++++++++++++++++++++ +++++++++++++++++++++++++++.... +++++++++++++++++++++++++++++++ +++++++++++++++++++++++++++++++ ....+++++++++++++++++++++++.... +++++++++++++++++++++++++++++++ +++++++++++++++++++++++++++++++ ....                                                       .... +++++++++++++++++++++++++++++++ ....                                                       .... +++++++++++++++++++++++++++++++ +++++++++++++++++++++++++++++++ ....                           ",
"                            .... +++++++++++++++++++++++++++++++ +++++++++++++++++++++++++++++++ ....+++++++++++++++++++++++++++ +++++++++++++++++++++++++++.... +++++++++++++++++++++++++++++++ ....+++++++++++++++++++++++++++ +++++++++++++++++++++++++++.... +++++++++++++++++++++++++++++++ +++++++++++++++++++++++++++++++ ....+++++++++++++++++++++++.... +++++++++++++++++++++++++++++++ +++++++++++++++++++++++++++++++ ....                                                       .... +++++++++++++++++++++++++++++++ ....                                                       .... +++++++++++++++++++++++++++++++ +++++++++++++++++++++++++++++++ ....                           ",
"                            .... +++++++++++++++++++++++++++++++ +++++++++++++++++++++++++++++++ ....+++++++++++++++++++++++++++ +++++++++++++++++++++++++++.... +++++++++++++++++++++++++++++++ ....+++++++++++++++++++++++++++ +++++++++++++++++++++++++++.... +++++++++++++++++++++++++++++++ +++++++++++++++++++++++++++++++ ....+++++++++++++++++++++++.... +++++++++++++++++++++++++++++++ +++++++++++++++++++++++++++++++ ....                                                       .... +++++++++++++++++++++++++++++++ ....                                                       .... +++++++++++++++++++++++++++++++ +++++++++++++++++++++++++++++++ ....                           ",
"                            .... +++++++++++++++++++++++++++++++ +++++++++++++++++++++++++++++++ ....+++++++++++++++++++++++++++ +++++++++++++++++++++++++++.... +++++++++++++++++++++++++++++++ ....+++++++++++++++++++++++++++ +++++++++++++++++++++++++++.... +++++++++++++++++++++++++++++++ +++++++++++++++++++++++++++++++ ....+++++++++++++++++++++++.... +++++++++++++++++++++++++++++++ +++++++++++++++++++++++++++++++ ....                                                       .... +++++++++++++++++++++++++++++++ ....                                                       .... +++++++++++++++++++++++++++++++ +++++++++++++++++++++++++++++++ ....                           ",
"                            .... +++++++++++++++++++++++++++++++ +++++++++++++++++++++++++++++++ ....+++++++++++++++++++++++++++ +++++++++++++++++++++++++++.... +++++++++++++++++++++++++++++++ ....+++++++++++++++++++++++++++ +++++++++++++++++++++++++++.... +++++++++++++++++++++++++++++++ +++++++++++++++++++++++++++++++ ....+++++++++++++++++++++++.... +++++++++++++++++++++++++++++++ +++++++++++++++++++++++++++++++ ....                                                       .... +++++++++++++++++++++++++++++++ ....                                                       .... +++++++++++++++++++++++++++++++ +++++++++++++++++++++++++++++++ ....                           ",
"                            .... +++++++++++++++++++++++++++++++ +++++++++++++++++++++++++++++++ ....+++++++++++++++++++++++++++ +++++++++++++++++++++++++++.... +++++++++++++++++++++++++++++++ ....+++++++++++++++++++++++++++ +++++++++++++++++++++++++++.... +++++++++++++++++++++++++++++++ +++++++++++++++++++++++++++++++ ....+++++++++++++++++++++++.... +++++++++++++++++++++++++++++++ +++++++++++++++++++++++++++++++ ....                                                       .... +++++++++++++++++++++++++++++++ ....                                                       .... +++++++++++++++++++++++++++++++ +++++++++++++++++++++++++++++++ ....                           ",
"                            .... +++++++++++++++++++++++++++++++ +++++++++++++++++++++++++++++++ ....+++++++++++++++++++++++++++ +++++++++++++++++++++++++++.... +++++++++++++++++++++++++++++++ ....+++++++++++++++++++++++++++ +++++++++++++++++++++++++++.... +++++++++++++++++++++++++++++++ +++++++++++++++++++++++++++++++ ....+++++++++++++++++++++++.... +++++++++++++++++++++++++++++++ +++++++++++++++++++++++++++++++ ....                                                       .... +++++++++++++++++++++++++++++++ ....                                                       .... +++++++++++++++++++++++++++++++ +++++++++++++++++++++++++++++++ ....                           ",
"                            .... +++++++++++++++++++++++++++++++ +++++++++++++++++++++++++++++++ ....+++++++++++++++++++++++++++ +++++++++++++++++++++++++++.... +++++++++++++++++++++++++++++++ ....+++++++++++++++++++++++++++ +++++++++++++++++++++++++++.... +++++++++++++++++++++++++++++++ +++++++++++++++++++++++++++++++ ....+++++++++++++++++++++++.... +++++++++++++++++++++++++++++++ +++++++++++++++++++++++++++++++ ....                                                       .... +++++++++++++++++++++++++++++++ ....                                                       .... +++++++++++++++++++++++++++++++ +++++++++++++++++++++++++++++++ ....                           ",
"                            .... +++++++++++++++++++++++++++++++ +++++++++++++++++++++++++++++++ ....+++++++++++++++++++++++++++ +++++++++++++++++++++++++++.... +++++++++++++++++++++++++++++++ ....+++++++++++++++++++++++++++ +++++++++++++++++++++++++++.... +++++++++++++++++++++++++++++++ +++++++++++++++++++++++++++++++ ....+++++++++++++++++++++++.... +++++++++++++++++++++++++++++++ +++++++++++++++++++++++++++++++ ....                                                       .... +++++++++++++++++++++++++++++++ ....                                                       .... +++++++++++++++++++++++++++++++ +++++++++++++++++++++++++++++++ ....                           ",
"                            .... +++++++++++++++++++++++++++++++ +++++++++++++++++++++++++++++++ ....+++++++++++++++++++++++++++ +++++++++++++++++++++++++++.... +++++++++++++++++++++++++++++++ ....+++++++++++++++++++++++++++ +++++++++++++++++++++++++++.... +++++++++++++++++++++++++++++++ +++++++++++++++++++++++++++++++ ....+++++++++++++++++++++++.... +++++++++++++++++++++++++++++++ +++++++++++++++++++++++++++++++ ....                                                       .... +++++++++++++++++++++++++++++++ ....                                                       .... +++++++++++++++++++++++++++++++ +++++++++++++++++++++++++++++++ ....                           ",
"                            .... +++++++++++++++++++++++++++++++ +++++++++++++++++++++++++++++++ ....................................+++++++++++++++++++++++.... +++++++++++++++++++++++++++++++ ....+++++++++++++++++++++++.................................... +++++++++++++++++++++++++++++++ +++++++++++++++++++++++++++++++ ............................... +++++++++++++++++++++++++++++++ +++++++++++++++++++++++++++++++ ....................................                       .... +++++++++++++++++++++++++++++++ ....                       .................................... +++++++++++++++++++++++++++++++ +++++++++++++++++++++++++++++++ ....                           ",
"                            .... +++++++++++++++++++++++++++++++ +++++++++++++++++++++++++++++++ ....................................+++++++++++++++++++++++.... +++++++++++++++++++++++++++++++ ....+++++++++++++++++++++++.................................... +++++++++++++++++++++++++++++++ +++++++++++++++++++++++++++++++ ............................... +++++++++++++++++++++++++++++++ +++++++++++++++++++++++++++++++ ....................................                       .... +++++++++++++++++++++++++++++++ ....                       .................................... +++++++++++++++++++++++++++++++ +++++++++++++++++++++++++++++++ ....                           ",
"                            .... +++++++++++++++++++++++++++++++ +++++++++++++++++++++++++++++++ ....................................+++++++++++++++++++++++.... +++++++++++++++++++++++++++++++ ....+++++++++++++++++++++++.................................... +++++++++++++++++++++++++++++++ +++++++++++++++++++++++++++++++ ............................... +++++++++++++++++++++++++++++++ +++++++++++++++++++++++++++++++ ....................................                       .... +++++++++++++++++++++++++++++++ ....                       .................................... +++++++++++++++++++++++++++++++ +++++++++++++++++++++++++++++++ ....                           ",
"                            .... +++++++++++++++++++++++++++++++ +++++++++++++++++++++++++++++++ ....................................+++++++++++++++++++++++.... +++++++++++++++++++++++++++++++ ....+++++++++++++++++++++++.................................... +++++++++++++++++++++++++++++++ +++++++++++++++++++++++++++++++ ............................... +++++++++++++++++++++++++++++++ +++++++++++++++++++++++++++++++ ....................................                       .... +++++++++++++++++++++++++++++++ ....                       .................................... +++++++++++++++++++++++++++++++ +++++++++++++++++++++++++++++++ ....                           ",
"                            ....                                                                                                 ....                       ....                                 ....                       ....                                                                                                                                                                                                                                 ....                       ....                                 ....                       ....                                                                                                 ....                           ",
"                            .................................... +++++++++++++++++++++++++++++++ +++++++++++++++++++++++++++++++ ....+++++++++++++++++++++++.... +++++++++++++++++++++++++++++++ ....                       ....                               . +++++++++++++++++++++++++++++++ +++++++++++++++++++++++++++++++ +++++++++++++++++++++++++++++++ +++++++++++++++++++++++++++++++ +++++++++++++++++++++++++++++++ +++++++++++++++++++++++++++++++ ....                       .... +++++++++++++++++++++++++++++++ ....+++++++++++++++++++++++.... +++++++++++++++++++++++++++++++ +++++++++++++++++++++++++++++++ ....................................                           ",
"                            .................................... +++++++++++++++++++++++++++++++ +++++++++++++++++++++++++++++++ ....+++++++++++++++++++++++.... +++++++++++++++++++++++++++++++ ....                       ....                                 +++++++++++++++++++++++++++++++ +++++++++++++++++++++++++++++++ +++++++++++++++++++++++++++++++ +++++++++++++++++++++++++++++++ +++++++++++++++++++++++++++++++ +++++++++++++++++++++++++++++++ ....                       .... +++++++++++++++++++++++++++++++ ....+++++++++++++++++++++++.... +++++++++++++++++++++++++++++++ +++++++++++++++++++++++++++++++ ....................................                           ",
"                            .................................... +++++++++++++++++++++++++++++++ +++++++++++++++++++++++++++++++ ....+++++++++++++++++++++++.... +++++++++++++++++++++++++++++++ ....                       ....                                 +++++++++++++++++++++++++++++++ +++++++++++++++++++++++++++++++ +++++++++++++++++++++++++++++++ +++++++++++++++++++++++++++++++ +++++++++++++++++++++++++++++++ +++++++++++++++++++++++++++++++ ....                       .... +++++++++++++++++++++++++++++++ ....+++++++++++++++++++++++.... +++++++++++++++++++++++++++++++ +++++++++++++++++++++++++++++++ ....................................                           ",
"                            .................................... +++++++++++++++++++++++++++++++ +++++++++++++++++++++++++++++++ ....+++++++++++++++++++++++.... +++++++++++++++++++++++++++++++ ....                       ....                                 +++++++++++++++++++++++++++++++ +++++++++++++++++++++++++++++++ +++++++++++++++++++++++++++++++ +++++++++++++++++++++++++++++++ +++++++++++++++++++++++++++++++ +++++++++++++++++++++++++++++++ ....                       .... +++++++++++++++++++++++++++++++ ....+++++++++++++++++++++++.... +++++++++++++++++++++++++++++++ +++++++++++++++++++++++++++++++ ....................................                           ",
"                                                            .... +++++++++++++++++++++++++++++++ +++++++++++++++++++++++++++++++ ....+++++++++++++++++++++++.... +++++++++++++++++++++++++++++++ ....+++++++++++++++++++++++.... +++++++++++++++++++++++++++     +++++++++++++++++++++++++++++++ +++++++++++++++++++++++++++++++ +++++++++++++++++++++++++++++++ +++++++++++++++++++++++++++++++ +++++++++++++++++++++++++++++++ +++++++++++++++++++++++++++++++ ....                       .... +++++++++++++++++++++++++++++++ ....+++++++++++++++++++++++.... +++++++++++++++++++++++++++++++ +++++++++++++++++++++++++++++++ ....                                                           ",
"                                                            .... +++++++++++++++++++++++++++++++ +++++++++++++++++++++++++++++++ ....+++++++++++++++++++++++.... +++++++++++++++++++++++++++++++ ....+++++++++++++++++++++++.... +++++++++++++++++++++++++++     +++++++++++++++++++++++++++++++ +++++++++++++++++++++++++++++++ +++++++++++++++++++++++++++++++ +++++++++++++++++++++++++++++++ +++++++++++++++++++++++++++++++ +++++++++++++++++++++++++++++++ ....                       .... +++++++++++++++++++++++++++++++ ....+++++++++++++++++++++++.... +++++++++++++++++++++++++++++++ +++++++++++++++++++++++++++++++ ....                                                           ",
"                                                            .... +++++++++++++++++++++++++++++++ +++++++++++++++++++++++++++++++ ....+++++++++++++++++++++++.... +++++++++++++++++++++++++++++++ ....+++++++++++++++++++++++.... +++++++++++++++++++++++++++     +++++++++++++++++++++++++++++++ +++++++++++++++++++++++++++++++ +++++++++++++++++++++++++++++++ +++++++++++++++++++++++++++++++ +++++++++++++++++++++++++++++++ +++++++++++++++++++++++++++++++ ....                       .... +++++++++++++++++++++++++++++++ ....+++++++++++++++++++++++.... +++++++++++++++++++++++++++++++ +++++++++++++++++++++++++++++++ ....                                                           ",
"                                                            .... +++++++++++++++++++++++++++++++ +++++++++++++++++++++++++++++++ ....+++++++++++++++++++++++.... +++++++++++++++++++++++++++++++ ....+++++++++++++++++++++++.... +++++++++++++++++++++++++++     +++++++++++++++++++++++++++++++ +++++++++++++++++++++++++++++++ +++++++++++++++++++++++++++++++ +++++++++++++++++++++++++++++++ +++++++++++++++++++++++++++++++ +++++++++++++++++++++++++++++++ ....                       .... +++++++++++++++++++++++++++++++ ....+++++++++++++++++++++++.... +++++++++++++++++++++++++++++++ +++++++++++++++++++++++++++++++ ....                                                           ",
"                                 +++++++++++++++++++++++++++.... +++++++++++++++++++++++++++++++ +++++++++++++++++++++++++++++++ ....+++++++++++++++++++++++.... +++++++++++++++++++++++++++++++ ....+++++++++++++++++++++++.... +++++++++++++++++++++++++++     +++++++++++++++++++++++++++++++ +++++++++++++++++++++++++++++++ +++++++++++++++++++++++++++++++ +++++++++++++++++++++++++++++++ +++++++++++++++++++++++++++++++ +++++++++++++++++++++++++++++++ ....                       .... +++++++++++++++++++++++++++++++ ....+++++++++++++++++++++++.... +++++++++++++++++++++++++++++++ +++++++++++++++++++++++++++++++ ....                                                           ",
"                                 +++++++++++++++++++++++++++.... +++++++++++++++++++++++++++++++ +++++++++++++++++++++++++++++++ ....+++++++++++++++++++++++.... +++++++++++++++++++++++++++++++ ....+++++++++++++++++++++++.... +++++++++++++++++++++++++++     +++++++++++++++++++++++++++++++ +++++++++++++++++++++++++++++++ +++++++++++++++++++++++++++++++ +++++++++++++++++++++++++++++++ +++++++++++++++++++++++++++++++ +++++++++++++++++++++++++++++++ ....                       .... +++++++++++++++++++++++++++++++ ....+++++++++++++++++++++++.... +++++++++++++++++++++++++++++++ +++++++++++++++++++++++++++++++ ....                                                           ",
"                                 +++++++++++++++++++++++++++.... +++++++++++++++++++++++++++++++ +++++++++++++++++++++++++++++++ ....+++++++++++++++++++++++.... +++++++++++++++++++++++++++++++ ....+++++++++++++++++++++++.... +++++++++++++++++++++++++++     +++++++++++++++++++++++++++++++ +++++++++++++++++++++++++++++++ +++++++++++++++++++++++++++++++ +++++++++++++++++++++++++++++++ +++++++++++++++++++++++++++++++ +++++++++++++++++++++++++++++++ ....                       .... +++++++++++++++++++++++++++++++ ....+++++++++++++++++++++++.... +++++++++++++++++++++++++++++++ +++++++++++++++++++++++++++++++ ....                                                           ",
"                                 +++++++++++++++++++++++++++.... +++++++++++++++++++++++++++++++ +++++++++++++++++++++++++++++++ ....+++++++++++++++++++++++.... +++++++++++++++++++++++++++++++ ....+++++++++++++++++++++++.... +++++++++++++++++++++++++++     +++++++++++++++++++++++++++++++ +++++++++++++++++++++++++++++++ +++++++++++++++++++++++++++++++ +++++++++++++++++++++++++++++++ +++++++++++++++++++++++++++++++ +++++++++++++++++++++++++++++++ ....                       .... +++++++++++++++++++++++++++++++ ....+++++++++++++++++++++++.... +++++++++++++++++++++++++++++++ +++++++++++++++++++++++++++++++ ....                                                           ",
"                                 +++++++++++++++++++++++++++.... +++++++++++++++++++++++++++++++ +++++++++++++++++++++++++++++++ ....+++++++++++++++++++++++.... +++++++++++++++++++++++++++++++ ....+++++++++++++++++++++++.... +++++++++++++++++++++++++++     +++++++++++++++++++++++++++++++ +++++++++++++++++++++++++++++++ +++++++++++++++++++++++++++++++ +++++++++++++++++++++++++++++++ +++++++++++++++++++++++++++++++ +++++++++++++++++++++++++++++++ ....                       .... +++++++++++++++++++++++++++++++ ....+++++++++++++++++++++++.... +++++++++++++++++++++++++++++++ +++++++++++++++++++++++++++++++ ....                                                           ",
"                                 +++++++++++++++++++++++++++.... +++++++++++++++++++++++++++++++ +++++++++++++++++++++++++++++++ ....+++++++++++++++++++++++.... +++++++++++++++++++++++++++++++ ....+++++++++++++++++++++++.... +++++++++++++++++++++++++++     +++++++++++++++++++++++++++++++ +++++++++++++++++++++++++++++++ +++++++++++++++++++++++++++++++ +++++++++++++++++++++++++++++++ +++++++++++++++++++++++++++++++ +++++++++++++++++++++++++++++++ ....                       .... +++++++++++++++++++++++++++++++ ....+++++++++++++++++++++++.... +++++++++++++++++++++++++++++++ +++++++++++++++++++++++++++++++ ....                                                           ",
"                                 +++++++++++++++++++++++++++.... +++++++++++++++++++++++++++++++ +++++++++++++++++++++++++++++++ ....+++++++++++++++++++++++.... +++++++++++++++++++++++++++++++ ....+++++++++++++++++++++++.... +++++++++++++++++++++++++++     +++++++++++++++++++++++++++++++ +++++++++++++++++++++++++++++++ +++++++++++++++++++++++++++++++ +++++++++++++++++++++++++++++++ +++++++++++++++++++++++++++++++ +++++++++++++++++++++++++++++++ ....                       .... +++++++++++++++++++++++++++++++ ....+++++++++++++++++++++++.... +++++++++++++++++++++++++++++++ +++++++++++++++++++++++++++++++ ....                                                           ",
"                                 +++++++++++++++++++++++++++.... +++++++++++++++++++++++++++++++ +++++++++++++++++++++++++++++++ ....+++++++++++++++++++++++.... +++++++++++++++++++++++++++++++ ....+++++++++++++++++++++++.... +++++++++++++++++++++++++++     +++++++++++++++++++++++++++++++ +++++++++++++++++++++++++++++++ +++++++++++++++++++++++++++++++ +++++++++++++++++++++++++++++++ +++++++++++++++++++++++++++++++ +++++++++++++++++++++++++++++++ ....                       .... +++++++++++++++++++++++++++++++ ....+++++++++++++++++++++++.... +++++++++++++++++++++++++++++++ +++++++++++++++++++++++++++++++ ....                                                           ",
"                                 +++++++++++++++++++++++++++.... +++++++++++++++++++++++++++++++ +++++++++++++++++++++++++++++++ ....+++++++++++++++++++++++.... +++++++++++++++++++++++++++++++ ....+++++++++++++++++++++++.... +++++++++++++++++++++++++++     +++++++++++++++++++++++++++++++ +++++++++++++++++++++++++++++++ +++++++++++++++++++++++++++++++ +++++++++++++++++++++++++++++++ +++++++++++++++++++++++++++++++ +++++++++++++++++++++++++++++++ ....                       .... +++++++++++++++++++++++++++++++ ....+++++++++++++++++++++++.... +++++++++++++++++++++++++++++++ +++++++++++++++++++++++++++++++ ....                                                           ",
"                                 +++++++++++++++++++++++++++.... +++++++++++++++++++++++++++++++ +++++++++++++++++++++++++++++++ ....+++++++++++++++++++++++.... +++++++++++++++++++++++++++++++ ....+++++++++++++++++++++++.... +++++++++++++++++++++++++++     +++++++++++++++++++++++++++++++ +++++++++++++++++++++++++++++++ +++++++++++++++++++++++++++++++ +++++++++++++++++++++++++++++++ +++++++++++++++++++++++++++++++ +++++++++++++++++++++++++++++++ ....                       .... +++++++++++++++++++++++++++++++ ....+++++++++++++++++++++++.... +++++++++++++++++++++++++++++++ +++++++++++++++++++++++++++++++ ....                                                           ",
"                                 +++++++++++++++++++++++++++.... +++++++++++++++++++++++++++++++ +++++++++++++++++++++++++++++++ ....+++++++++++++++++++++++.... +++++++++++++++++++++++++++++++ ....+++++++++++++++++++++++.... +++++++++++++++++++++++++++     +++++++++++++++++++++++++++++++ +++++++++++++++++++++++++++++++ +++++++++++++++++++++++++++++++ +++++++++++++++++++++++++++++++ +++++++++++++++++++++++++++++++ +++++++++++++++++++++++++++++++ ....                       .... +++++++++++++++++++++++++++++++ ....+++++++++++++++++++++++.... +++++++++++++++++++++++++++++++ +++++++++++++++++++++++++++++++ ....                                                           ",
"                                 +++++++++++++++++++++++++++.... +++++++++++++++++++++++++++++++ +++++++++++++++++++++++++++++++ ....+++++++++++++++++++++++.... +++++++++++++++++++++++++++++++ ....+++++++++++++++++++++++.... +++++++++++++++++++++++++++     +++++++++++++++++++++++++++++++ +++++++++++++++++++++++++++++++ +++++++++++++++++++++++++++++++ +++++++++++++++++++++++++++++++ +++++++++++++++++++++++++++++++ +++++++++++++++++++++++++++++++ ....                       .... +++++++++++++++++++++++++++++++ ....+++++++++++++++++++++++.... +++++++++++++++++++++++++++++++ +++++++++++++++++++++++++++++++ ....                                                           ",
"                                 +++++++++++++++++++++++++++.... +++++++++++++++++++++++++++++++ +++++++++++++++++++++++++++++++ ....+++++++++++++++++++++++.... +++++++++++++++++++++++++++++++ ....+++++++++++++++++++++++.... +++++++++++++++++++++++++++     +++++++++++++++++++++++++++++++ +++++++++++++++++++++++++++++++ +++++++++++++++++++++++++++++++ +++++++++++++++++++++++++++++++ +++++++++++++++++++++++++++++++ +++++++++++++++++++++++++++++++ ....                       .... +++++++++++++++++++++++++++++++ ....+++++++++++++++++++++++.... +++++++++++++++++++++++++++++++ +++++++++++++++++++++++++++++++ ....                                                           ",
"                                 +++++++++++++++++++++++++++.... +++++++++++++++++++++++++++++++ +++++++++++++++++++++++++++++++ ....+++++++++++++++++++++++.... +++++++++++++++++++++++++++++++ ....+++++++++++++++++++++++.... +++++++++++++++++++++++++++     +++++++++++++++++++++++++++++++ +++++++++++++++++++++++++++++++ +++++++++++++++++++++++++++++++ +++++++++++++++++++++++++++++++ +++++++++++++++++++++++++++++++ +++++++++++++++++++++++++++++++ ....                       .... +++++++++++++++++++++++++++++++ ....+++++++++++++++++++++++.... +++++++++++++++++++++++++++++++ +++++++++++++++++++++++++++++++ ....                                                           ",
"                                 +++++++++++++++++++++++++++.... +++++++++++++++++++++++++++++++ +++++++++++++++++++++++++++++++ ....+++++++++++++++++++++++.... +++++++++++++++++++++++++++++++ ....+++++++++++++++++++++++.... +++++++++++++++++++++++++++     +++++++++++++++++++++++++++++++ +++++++++++++++++++++++++++++++ +++++++++++++++++++++++++++++++ +++++++++++++++++++++++++++++++ +++++++++++++++++++++++++++++++ +++++++++++++++++++++++++++++++ ....                       .... +++++++++++++++++++++++++++++++ ....+++++++++++++++++++++++.... +++++++++++++++++++++++++++++++ +++++++++++++++++++++++++++++++ ....                                                           ",
"                                 +++++++++++++++++++++++++++.... +++++++++++++++++++++++++++++++ +++++++++++++++++++++++++++++++ ....+++++++++++++++++++++++.... +++++++++++++++++++++++++++++++ ....+++++++++++++++++++++++.... +++++++++++++++++++++++++++     +++++++++++++++++++++++++++++++ +++++++++++++++++++++++++++++++ +++++++++++++++++++++++++++++++ +++++++++++++++++++++++++++++++ +++++++++++++++++++++++++++++++ +++++++++++++++++++++++++++++++ ....                       .... +++++++++++++++++++++++++++++++ ....+++++++++++++++++++++++.... +++++++++++++++++++++++++++++++ +++++++++++++++++++++++++++++++ ....                                                           ",
"                                 +++++++++++++++++++++++++++.... +++++++++++++++++++++++++++++++ +++++++++++++++++++++++++++++++ ....+++++++++++++++++++++++.... +++++++++++++++++++++++++++++++ ....+++++++++++++++++++++++.... +++++++++++++++++++++++++++     +++++++++++++++++++++++++++++++ +++++++++++++++++++++++++++++++ +++++++++++++++++++++++++++++++ +++++++++++++++++++++++++++++++ +++++++++++++++++++++++++++++++ +++++++++++++++++++++++++++++++ ....                       .... +++++++++++++++++++++++++++++++ ....+++++++++++++++++++++++.... +++++++++++++++++++++++++++++++ +++++++++++++++++++++++++++++++ ....                                                           ",
"                                 +++++++++++++++++++++++++++.... +++++++++++++++++++++++++++++++ +++++++++++++++++++++++++++++++ ....+++++++++++++++++++++++.... +++++++++++++++++++++++++++++++ ....+++++++++++++++++++++++.... +++++++++++++++++++++++++++     +++++++++++++++++++++++++++++++ +++++++++++++++++++++++++++++++ +++++++++++++++++++++++++++++++ +++++++++++++++++++++++++++++++ +++++++++++++++++++++++++++++++ +++++++++++++++++++++++++++++++ ....                       .... +++++++++++++++++++++++++++++++ ....+++++++++++++++++++++++.... +++++++++++++++++++++++++++++++ +++++++++++++++++++++++++++++++ ....                                                           ",
"                                 +++++++++++++++++++++++++++.... +++++++++++++++++++++++++++++++ +++++++++++++++++++++++++++++++ ....+++++++++++++++++++++++.... +++++++++++++++++++++++++++++++ ....+++++++++++++++++++++++.... +++++++++++++++++++++++++++     +++++++++++++++++++++++++++++++ +++++++++++++++++++++++++++++++ +++++++++++++++++++++++++++++++ +++++++++++++++++++++++++++++++ +++++++++++++++++++++++++++++++ +++++++++++++++++++++++++++++++ ....                       .... +++++++++++++++++++++++++++++++ ....+++++++++++++++++++++++.... +++++++++++++++++++++++++++++++ +++++++++++++++++++++++++++++++ ....                                                           ",
"                            .................................... +++++++++++++++++++++++++++++++ +++++++++++++++++++++++++++++++ ............................... +++++++++++++++++++++++++++++++ ....++++++++++++++++++++++ ....                                 +++++++++++++++++++++++++++++++ +++++++++++++++++++++++++++++++ +++++++++++++++++++++++++++++++ +++++++++++++++++++++++++++++++ +++++++++++++++++++++++++++++++ +++++++++++++++++++++++++++++++ ....                       .... +++++++++++++++++++++++++++++++ ............................... +++++++++++++++++++++++++++++++ +++++++++++++++++++++++++++++++ ....................................                           ",
"                            .................................... +++++++++++++++++++++++++++++++ +++++++++++++++++++++++++++++++ ............................... +++++++++++++++++++++++++++++++ ....++++++++++++++++++++++ ....                                 +++++++++++++++++++++++++++++++ +++++++++++++++++++++++++++++++ +++++++++++++++++++++++++++++++ +++++++++++++++++++++++++++++++ +++++++++++++++++++++++++++++++ +++++++++++++++++++++++++++++++ ....                       .... +++++++++++++++++++++++++++++++ ............................... +++++++++++++++++++++++++++++++ +++++++++++++++++++++++++++++++ ....................................                           ",
"                            .................................... +++++++++++++++++++++++++++++++ +++++++++++++++++++++++++++++++ ............................... +++++++++++++++++++++++++++++++ ....++++++++++++++++++++++ ....                                 +++++++++++++++++++++++++++++++ +++++++++++++++++++++++++++++++ +++++++++++++++++++++++++++++++ +++++++++++++++++++++++++++++++ +++++++++++++++++++++++++++++++ +++++++++++++++++++++++++++++++ ....                       .... +++++++++++++++++++++++++++++++ ............................... +++++++++++++++++++++++++++++++ +++++++++++++++++++++++++++++++ ....................................                           ",
"                            .................................... +++++++++++++++++++++++++++++++ +++++++++++++++++++++++++++++++ ............................... +++++++++++++++++++++++++++++++ ....++++++++++++++++++++++ ....                                 +++++++++++++++++++++++++++++++ +++++++++++++++++++++++++++++++ +++++++++++++++++++++++++++++++ +++++++++++++++++++++++++++++++ +++++++++++++++++++++++++++++++ +++++++++++++++++++++++++++++++ ....                       .... +++++++++++++++++++++++++++++++ ............................... +++++++++++++++++++++++++++++++ +++++++++++++++++++++++++++++++ ....................................                           ",
"                            ....                                                                                                                                                                 ....                       ....                                                                                                                                                                                                                                 ....                       ....                                                                                                                                                                 ....                           ",
"                            .... +++++++++++++++++++++++++++++++ +++++++++++++++++++++++++++++++ +++++++++++++++++++++++++++++++ +++++++++++++++++++++++++++++++ +++++++++++++++++++++++++++++++ ....+++++++++++++++++++++++.... +++++++++++++++++++++++++++++++ +++++++++++++++++++++++++++++++ ............................................................................................... +++++++++++++++++++++++++++++++ +++++++++++++++++++++++++++++++ ....                       .... +++++++++++++++++++++++++++++++ +++++++++++++++++++++++++++++++ +++++++++++++++++++++++++++++++ +++++++++++++++++++++++++++++++ +++++++++++++++++++++++++++++++ ....                           ",
"                            .... +++++++++++++++++++++++++++++++ +++++++++++++++++++++++++++++++ +++++++++++++++++++++++++++++++ +++++++++++++++++++++++++++++++ +++++++++++++++++++++++++++++++ ....+++++++++++++++++++++++.... +++++++++++++++++++++++++++++++ +++++++++++++++++++++++++++++++ ............................................................................................... +++++++++++++++++++++++++++++++ +++++++++++++++++++++++++++++++ ....                       .... +++++++++++++++++++++++++++++++ +++++++++++++++++++++++++++++++ +++++++++++++++++++++++++++++++ +++++++++++++++++++++++++++++++ +++++++++++++++++++++++++++++++ ....                           ",
"                            .... +++++++++++++++++++++++++++++++ +++++++++++++++++++++++++++++++ +++++++++++++++++++++++++++++++ +++++++++++++++++++++++++++++++ +++++++++++++++++++++++++++++++ ....+++++++++++++++++++++++.... +++++++++++++++++++++++++++++++ +++++++++++++++++++++++++++++++ ............................................................................................... +++++++++++++++++++++++++++++++ +++++++++++++++++++++++++++++++ ....                       .... +++++++++++++++++++++++++++++++ +++++++++++++++++++++++++++++++ +++++++++++++++++++++++++++++++ +++++++++++++++++++++++++++++++ +++++++++++++++++++++++++++++++ ....                           ",
"                            .... +++++++++++++++++++++++++++++++ +++++++++++++++++++++++++++++++ +++++++++++++++++++++++++++++++ +++++++++++++++++++++++++++++++ +++++++++++++++++++++++++++++++ ....+++++++++++++++++++++++.... +++++++++++++++++++++++++++++++ +++++++++++++++++++++++++++++++ ............................................................................................... +++++++++++++++++++++++++++++++ +++++++++++++++++++++++++++++++ ....                       .... +++++++++++++++++++++++++++++++ +++++++++++++++++++++++++++++++ +++++++++++++++++++++++++++++++ +++++++++++++++++++++++++++++++ +++++++++++++++++++++++++++++++ ....                           ",
"                            .... +++++++++++++++++++++++++++++++ +++++++++++++++++++++++++++++++ +++++++++++++++++++++++++++++++ +++++++++++++++++++++++++++++++ +++++++++++++++++++++++++++++++ ....+++++++++++++++++++++++.... +++++++++++++++++++++++++++++++ +++++++++++++++++++++++++++++++ ....+++++++++++++++++++++++++++                                 +++++++++++++++++++++++++++.... +++++++++++++++++++++++++++++++ +++++++++++++++++++++++++++++++ ....                       .... +++++++++++++++++++++++++++++++ +++++++++++++++++++++++++++++++ +++++++++++++++++++++++++++++++ +++++++++++++++++++++++++++++++ +++++++++++++++++++++++++++++++ ....                           ",
"                            .... +++++++++++++++++++++++++++++++ +++++++++++++++++++++++++++++++ +++++++++++++++++++++++++++++++ +++++++++++++++++++++++++++++++ +++++++++++++++++++++++++++++++ ....+++++++++++++++++++++++.... +++++++++++++++++++++++++++++++ +++++++++++++++++++++++++++++++ ....+++++++++++++++++++++++++++                                 +++++++++++++++++++++++++++.... +++++++++++++++++++++++++++++++ +++++++++++++++++++++++++++++++ ....                       .... +++++++++++++++++++++++++++++++ +++++++++++++++++++++++++++++++ +++++++++++++++++++++++++++++++ +++++++++++++++++++++++++++++++ +++++++++++++++++++++++++++++++ ....                           ",
"                            .... +++++++++++++++++++++++++++++++ +++++++++++++++++++++++++++++++ +++++++++++++++++++++++++++++++ +++++++++++++++++++++++++++++++ +++++++++++++++++++++++++++++++ ....+++++++++++++++++++++++.... +++++++++++++++++++++++++++++++ +++++++++++++++++++++++++++++++ ....+++++++++++++++++++++++++++                                 +++++++++++++++++++++++++++.... +++++++++++++++++++++++++++++++ +++++++++++++++++++++++++++++++ ....                       .... +++++++++++++++++++++++++++++++ +++++++++++++++++++++++++++++++ +++++++++++++++++++++++++++++++ +++++++++++++++++++++++++++++++ +++++++++++++++++++++++++++++++ ....                           ",
"                            .... +++++++++++++++++++++++++++++++ +++++++++++++++++++++++++++++++ +++++++++++++++++++++++++++++++ +++++++++++++++++++++++++++++++ +++++++++++++++++++++++++++++++ ....+++++++++++++++++++++++.... +++++++++++++++++++++++++++++++ +++++++++++++++++++++++++++++++ ....+++++++++++++++++++++++++++                                 +++++++++++++++++++++++++++.... +++++++++++++++++++++++++++++++ +++++++++++++++++++++++++++++++ ....                       .... +++++++++++++++++++++++++++++++ +++++++++++++++++++++++++++++++ +++++++++++++++++++++++++++++++ +++++++++++++++++++++++++++++++ +++++++++++++++++++++++++++++++ ....                           ",
"                            .... +++++++++++++++++++++++++++++++ +++++++++++++++++++++++++++++++ +++++++++++++++++++++++++++++++ +++++++++++++++++++++++++++++++ +++++++++++++++++++++++++++++++ ....+++++++++++++++++++++++.... +++++++++++++++++++++++++++++++ +++++++++++++++++++++++++++++++ ....+++++++++++++++++++++++++++                                 +++++++++++++++++++++++++++.... +++++++++++++++++++++++++++++++ +++++++++++++++++++++++++++++++ ....                       .... +++++++++++++++++++++++++++++++ +++++++++++++++++++++++++++++++ +++++++++++++++++++++++++++++++ +++++++++++++++++++++++++++++++ +++++++++++++++++++++++++++++++ ....                           ",
"                            .... +++++++++++++++++++++++++++++++ +++++++++++++++++++++++++++++++ +++++++++++++++++++++++++++++++ +++++++++++++++++++++++++++++++ +++++++++++++++++++++++++++++++ ....+++++++++++++++++++++++.... +++++++++++++++++++++++++++++++ +++++++++++++++++++++++++++++++ ....+++++++++++++++++++++++++++                                 +++++++++++++++++++++++++++.... +++++++++++++++++++++++++++++++ +++++++++++++++++++++++++++++++ ....                       .... +++++++++++++++++++++++++++++++ +++++++++++++++++++++++++++++++ +++++++++++++++++++++++++++++++ +++++++++++++++++++++++++++++++ +++++++++++++++++++++++++++++++ ....                           ",
"                            .... +++++++++++++++++++++++++++++++ +++++++++++++++++++++++++++++++ +++++++++++++++++++++++++++++++ +++++++++++++++++++++++++++++++ +++++++++++++++++++++++++++++++ ....+++++++++++++++++++++++.... +++++++++++++++++++++++++++++++ +++++++++++++++++++++++++++++++ ....+++++++++++++++++++++++++++                                 +++++++++++++++++++++++++++.... +++++++++++++++++++++++++++++++ +++++++++++++++++++++++++++++++ ....                       .... +++++++++++++++++++++++++++++++ +++++++++++++++++++++++++++++++ +++++++++++++++++++++++++++++++ +++++++++++++++++++++++++++++++ +++++++++++++++++++++++++++++++ ....                           ",
"                            .... +++++++++++++++++++++++++++++++ +++++++++++++++++++++++++++++++ +++++++++++++++++++++++++++++++ +++++++++++++++++++++++++++++++ +++++++++++++++++++++++++++++++ ....+++++++++++++++++++++++.... +++++++++++++++++++++++++++++++ +++++++++++++++++++++++++++++++ ....+++++++++++++++++++++++++++                                 +++++++++++++++++++++++++++.... +++++++++++++++++++++++++++++++ +++++++++++++++++++++++++++++++ ....                       .... +++++++++++++++++++++++++++++++ +++++++++++++++++++++++++++++++ +++++++++++++++++++++++++++++++ +++++++++++++++++++++++++++++++ +++++++++++++++++++++++++++++++ ....                           ",
"                            .... +++++++++++++++++++++++++++++++ +++++++++++++++++++++++++++++++ +++++++++++++++++++++++++++++++ +++++++++++++++++++++++++++++++ +++++++++++++++++++++++++++++++ ....+++++++++++++++++++++++.... +++++++++++++++++++++++++++++++ +++++++++++++++++++++++++++++++ ....+++++++++++++++++++++++++++                                 +++++++++++++++++++++++++++.... +++++++++++++++++++++++++++++++ +++++++++++++++++++++++++++++++ ....                       .... +++++++++++++++++++++++++++++++ +++++++++++++++++++++++++++++++ +++++++++++++++++++++++++++++++ +++++++++++++++++++++++++++++++ +++++++++++++++++++++++++++++++ ....                           ",
"                            .... +++++++++++++++++++++++++++++++ +++++++++++++++++++++++++++++++ +++++++++++++++++++++++++++++++ +++++++++++++++++++++++++++++++ +++++++++++++++++++++++++++++++ ....+++++++++++++++++++++++.... +++++++++++++++++++++++++++++++ +++++++++++++++++++++++++++++++ ....+++++++++++++++++++++++++++                                 +++++++++++++++++++++++++++.... +++++++++++++++++++++++++++++++ +++++++++++++++++++++++++++++++ ....                       .... +++++++++++++++++++++++++++++++ +++++++++++++++++++++++++++++++ +++++++++++++++++++++++++++++++ +++++++++++++++++++++++++++++++ +++++++++++++++++++++++++++++++ ....                           ",
"                            .... +++++++++++++++++++++++++++++++ +++++++++++++++++++++++++++++++ +++++++++++++++++++++++++++++++ +++++++++++++++++++++++++++++++ +++++++++++++++++++++++++++++++ ....+++++++++++++++++++++++.... +++++++++++++++++++++++++++++++ +++++++++++++++++++++++++++++++ ....+++++++++++++++++++++++++++                                 +++++++++++++++++++++++++++.... +++++++++++++++++++++++++++++++ +++++++++++++++++++++++++++++++ ....                       .... +++++++++++++++++++++++++++++++ +++++++++++++++++++++++++++++++ +++++++++++++++++++++++++++++++ +++++++++++++++++++++++++++++++ +++++++++++++++++++++++++++++++ ....                           ",
"                            .... +++++++++++++++++++++++++++++++ +++++++++++++++++++++++++++++++ +++++++++++++++++++++++++++++++ +++++++++++++++++++++++++++++++ +++++++++++++++++++++++++++++++ ....+++++++++++++++++++++++.... +++++++++++++++++++++++++++++++ +++++++++++++++++++++++++++++++ ....+++++++++++++++++++++++++++                                 +++++++++++++++++++++++++++.... +++++++++++++++++++++++++++++++ +++++++++++++++++++++++++++++++ ....                       .... +++++++++++++++++++++++++++++++ +++++++++++++++++++++++++++++++ +++++++++++++++++++++++++++++++ +++++++++++++++++++++++++++++++ +++++++++++++++++++++++++++++++ ....                           ",
"                            .... +++++++++++++++++++++++++++++++ +++++++++++++++++++++++++++++++ +++++++++++++++++++++++++++++++ +++++++++++++++++++++++++++++++ +++++++++++++++++++++++++++++++ ....+++++++++++++++++++++++.... +++++++++++++++++++++++++++++++ +++++++++++++++++++++++++++++++ ....+++++++++++++++++++++++++++                                 +++++++++++++++++++++++++++.... +++++++++++++++++++++++++++++++ +++++++++++++++++++++++++++++++ ....                       .... +++++++++++++++++++++++++++++++ +++++++++++++++++++++++++++++++ +++++++++++++++++++++++++++++++ +++++++++++++++++++++++++++++++ +++++++++++++++++++++++++++++++ ....                           ",
"                            .... +++++++++++++++++++++++++++++++ +++++++++++++++++++++++++++++++ +++++++++++++++++++++++++++++++ +++++++++++++++++++++++++++++++ +++++++++++++++++++++++++++++++ ....+++++++++++++++++++++++.... +++++++++++++++++++++++++++++++ +++++++++++++++++++++++++++++++ ....+++++++++++++++++++++++++++                                 +++++++++++++++++++++++++++.... +++++++++++++++++++++++++++++++ +++++++++++++++++++++++++++++++ ....                       .... +++++++++++++++++++++++++++++++ +++++++++++++++++++++++++++++++ +++++++++++++++++++++++++++++++ +++++++++++++++++++++++++++++++ +++++++++++++++++++++++++++++++ ....                           ",
"                            .... +++++++++++++++++++++++++++++++ +++++++++++++++++++++++++++++++ +++++++++++++++++++++++++++++++ +++++++++++++++++++++++++++++++ +++++++++++++++++++++++++++++++ ....+++++++++++++++++++++++.... +++++++++++++++++++++++++++++++ +++++++++++++++++++++++++++++++ ....+++++++++++++++++++++++++++                                 +++++++++++++++++++++++++++.... +++++++++++++++++++++++++++++++ +++++++++++++++++++++++++++++++ ....                       .... +++++++++++++++++++++++++++++++ +++++++++++++++++++++++++++++++ +++++++++++++++++++++++++++++++ +++++++++++++++++++++++++++++++ +++++++++++++++++++++++++++++++ ....                           ",
"                            .... +++++++++++++++++++++++++++++++ +++++++++++++++++++++++++++++++ +++++++++++++++++++++++++++++++ +++++++++++++++++++++++++++++++ +++++++++++++++++++++++++++++++ ....+++++++++++++++++++++++.... +++++++++++++++++++++++++++++++ +++++++++++++++++++++++++++++++ ....+++++++++++++++++++++++++++                                 +++++++++++++++++++++++++++.... +++++++++++++++++++++++++++++++ +++++++++++++++++++++++++++++++ ....                       .... +++++++++++++++++++++++++++++++ +++++++++++++++++++++++++++++++ +++++++++++++++++++++++++++++++ +++++++++++++++++++++++++++++++ +++++++++++++++++++++++++++++++ ....                           ",
"                            .... +++++++++++++++++++++++++++++++ +++++++++++++++++++++++++++++++ +++++++++++++++++++++++++++++++ +++++++++++++++++++++++++++++++ +++++++++++++++++++++++++++++++ ....+++++++++++++++++++++++.... +++++++++++++++++++++++++++++++ +++++++++++++++++++++++++++++++ ....+++++++++++++++++++++++++++                                 +++++++++++++++++++++++++++.... +++++++++++++++++++++++++++++++ +++++++++++++++++++++++++++++++ ....                       .... +++++++++++++++++++++++++++++++ +++++++++++++++++++++++++++++++ +++++++++++++++++++++++++++++++ +++++++++++++++++++++++++++++++ +++++++++++++++++++++++++++++++ ....                           ",
"                            .... +++++++++++++++++++++++++++++++ +++++++++++++++++++++++++++++++ +++++++++++++++++++++++++++++++ +++++++++++++++++++++++++++++++ +++++++++++++++++++++++++++++++ ....+++++++++++++++++++++++.... +++++++++++++++++++++++++++++++ +++++++++++++++++++++++++++++++ ....+++++++++++++++++++++++++++                                 +++++++++++++++++++++++++++.... +++++++++++++++++++++++++++++++ +++++++++++++++++++++++++++++++ ....                       .... +++++++++++++++++++++++++++++++ +++++++++++++++++++++++++++++++ +++++++++++++++++++++++++++++++ +++++++++++++++++++++++++++++++ +++++++++++++++++++++++++++++++ ....                           ",
"                            .... +++++++++++++++++++++++++++++++ +++++++++++++++++++++++++++++++ +++++++++++++++++++++++++++++++ +++++++++++++++++++++++++++++++ +++++++++++++++++++++++++++++++ ....+++++++++++++++++++++++.... +++++++++++++++++++++++++++++++ +++++++++++++++++++++++++++++++ ....+++++++++++++++++++++++++++                                 +++++++++++++++++++++++++++.... +++++++++++++++++++++++++++++++ +++++++++++++++++++++++++++++++ ....                       .... +++++++++++++++++++++++++++++++ +++++++++++++++++++++++++++++++ +++++++++++++++++++++++++++++++ +++++++++++++++++++++++++++++++ +++++++++++++++++++++++++++++++ ....                           ",
"                            .... +++++++++++++++++++++++++++++++ +++++++++++++++++++++++++++++++ +++++++++++++++++++++++++++++++ +++++++++++++++++++++++++++++++ +++++++++++++++++++++++++++++++ ....+++++++++++++++++++++++.... +++++++++++++++++++++++++++++++ +++++++++++++++++++++++++++++++ ....+++++++++++++++++++++++++++                                 +++++++++++++++++++++++++++.... +++++++++++++++++++++++++++++++ +++++++++++++++++++++++++++++++ ....                       .... +++++++++++++++++++++++++++++++ +++++++++++++++++++++++++++++++ +++++++++++++++++++++++++++++++ +++++++++++++++++++++++++++++++ +++++++++++++++++++++++++++++++ ....                           ",
"                            .... +++++++++++++++++++++++++++++++ +++++++++++++++++++++++++++++++ +++++++++++++++++++++++++++++++ +++++++++++++++++++++++++++++++ +++++++++++++++++++++++++++++++ ....+++++++++++++++++++++++.... +++++++++++++++++++++++++++++++ +++++++++++++++++++++++++++++++ ....+++++++++++++++++++++++++++                                 +++++++++++++++++++++++++++.... +++++++++++++++++++++++++++++++ +++++++++++++++++++++++++++++++ ....                       .... +++++++++++++++++++++++++++++++ +++++++++++++++++++++++++++++++ +++++++++++++++++++++++++++++++ +++++++++++++++++++++++++++++++ +++++++++++++++++++++++++++++++ ....                           ",
"                            .... +++++++++++++++++++++++++++++++ +++++++++++++++++++++++++++++++ +++++++++++++++++++++++++++++++ +++++++++++++++++++++++++++++++ +++++++++++++++++++++++++++++++ ....+++++++++++++++++++++++.... +++++++++++++++++++++++++++++++ +++++++++++++++++++++++++++++++ ....+++++++++++++++++++++++++++                                 +++++++++++++++++++++++++++.... +++++++++++++++++++++++++++++++ +++++++++++++++++++++++++++++++ ....                       .... +++++++++++++++++++++++++++++++ +++++++++++++++++++++++++++++++ +++++++++++++++++++++++++++++++ +++++++++++++++++++++++++++++++ +++++++++++++++++++++++++++++++ ....                           ",
"                            .... +++++++++++++++++++++++++++++++ +++++++++++++++++++++++++++++++ +++++++++++++++++++++++++++++++ +++++++++++++++++++++++++++++++ +++++++++++++++++++++++++++++++ ....+++++++++++++++++++++++.... +++++++++++++++++++++++++++++++ +++++++++++++++++++++++++++++++ ....+++++++++++++++++++++++++++                                 +++++++++++++++++++++++++++.... +++++++++++++++++++++++++++++++ +++++++++++++++++++++++++++++++ ....                       .... +++++++++++++++++++++++++++++++ +++++++++++++++++++++++++++++++ +++++++++++++++++++++++++++++++ +++++++++++++++++++++++++++++++ +++++++++++++++++++++++++++++++ ....                           ",
"                            .... +++++++++++++++++++++++++++++++ +++++++++++++++++++++++++++++++ +++++++++++++++++++++++++++++++ +++++++++++++++++++++++++++++++ +++++++++++++++++++++++++++++++ ............................... +++++++++++++++++++++++++++++++ +++++++++++++++++++++++++++++++ ............................................................................................... +++++++++++++++++++++++++++++++ +++++++++++++++++++++++++++++++ ............................... +++++++++++++++++++++++++++++++ +++++++++++++++++++++++++++++++ +++++++++++++++++++++++++++++++ +++++++++++++++++++++++++++++++ +++++++++++++++++++++++++++++++ ....                           ",
"                            .... +++++++++++++++++++++++++++++++ +++++++++++++++++++++++++++++++ +++++++++++++++++++++++++++++++ +++++++++++++++++++++++++++++++ +++++++++++++++++++++++++++++++ ............................... +++++++++++++++++++++++++++++++ +++++++++++++++++++++++++++++++ ............................................................................................... +++++++++++++++++++++++++++++++ +++++++++++++++++++++++++++++++ ............................... +++++++++++++++++++++++++++++++ +++++++++++++++++++++++++++++++ +++++++++++++++++++++++++++++++ +++++++++++++++++++++++++++++++ +++++++++++++++++++++++++++++++ ....                           ",
"                            .... +++++++++++++++++++++++++++++++ +++++++++++++++++++++++++++++++ +++++++++++++++++++++++++++++++ +++++++++++++++++++++++++++++++ +++++++++++++++++++++++++++++++ ............................... +++++++++++++++++++++++++++++++ +++++++++++++++++++++++++++++++ ............................................................................................... +++++++++++++++++++++++++++++++ +++++++++++++++++++++++++++++++ ............................... +++++++++++++++++++++++++++++++ +++++++++++++++++++++++++++++++ +++++++++++++++++++++++++++++++ +++++++++++++++++++++++++++++++ +++++++++++++++++++++++++++++++ ....                           ",
"                            .... +++++++++++++++++++++++++++++++ +++++++++++++++++++++++++++++++ +++++++++++++++++++++++++++++++ +++++++++++++++++++++++++++++++ +++++++++++++++++++++++++++++++ ............................... +++++++++++++++++++++++++++++++ +++++++++++++++++++++++++++++++ ............................................................................................... +++++++++++++++++++++++++++++++ +++++++++++++++++++++++++++++++ ............................... +++++++++++++++++++++++++++++++ +++++++++++++++++++++++++++++++ +++++++++++++++++++++++++++++++ +++++++++++++++++++++++++++++++ +++++++++++++++++++++++++++++++ ....                           ",
"                            ....                                                                                                                                                                                                                                                                                                                                                                                                                                                                                                                                                                                                                                 ....                           ",
"                            .... +++++++++++++++++++++++++++++++ +++++++++++++++++++++++++++++++ +++++++++++++++++++++++++++++++ +++++++++++++++++++++++++++++++ +++++++++++++++++++++++++++++++ +++++++++++++++++++++++++++++++ +++++++++++++++++++++++++++++++ +++++++++++++++++++++++++++++++ +++++++++++++++++++++++++++++++ +++++++++++++++++++++++++++++++ +++++++++++++++++++++++++++++++ +++++++++++++++++++++++++++++++ +++++++++++++++++++++++++++++++ +++++++++++++++++++++++++++++++ +++++++++++++++++++++++++++++++ +++++++++++++++++++++++++++++++ +++++++++++++++++++++++++++++++ +++++++++++++++++++++++++++++++ +++++++++++++++++++++++++++++++ ....                           ",
"                            .... +++++++++++++++++++++++++++++++ +++++++++++++++++++++++++++++++ +++++++++++++++++++++++++++++++ +++++++++++++++++++++++++++++++ +++++++++++++++++++++++++++++++ +++++++++++++++++++++++++++++++ +++++++++++++++++++++++++++++++ +++++++++++++++++++++++++++++++ +++++++++++++++++++++++++++++++ +++++++++++++++++++++++++++++++ +++++++++++++++++++++++++++++++ +++++++++++++++++++++++++++++++ +++++++++++++++++++++++++++++++ +++++++++++++++++++++++++++++++ +++++++++++++++++++++++++++++++ +++++++++++++++++++++++++++++++ +++++++++++++++++++++++++++++++ +++++++++++++++++++++++++++++++ +++++++++++++++++++++++++++++++ ....                           ",
"                            .... +++++++++++++++++++++++++++++++ +++++++++++++++++++++++++++++++ +++++++++++++++++++++++++++++++ +++++++++++++++++++++++++++++++ +++++++++++++++++++++++++++++++ +++++++++++++++++++++++++++++++ +++++++++++++++++++++++++++++++ +++++++++++++++++++++++++++++++ +++++++++++++++++++++++++++++++ +++++++++++++++++++++++++++++++ +++++++++++++++++++++++++++++++ +++++++++++++++++++++++++++++++ +++++++++++++++++++++++++++++++ +++++++++++++++++++++++++++++++ +++++++++++++++++++++++++++++++ +++++++++++++++++++++++++++++++ +++++++++++++++++++++++++++++++ +++++++++++++++++++++++++++++++ +++++++++++++++++++++++++++++++ ....                           ",
"                            .... +++++++++++++++++++++++++++++++ +++++++++++++++++++++++++++++++ +++++++++++++++++++++++++++++++ +++++++++++++++++++++++++++++++ +++++++++++++++++++++++++++++++ +++++++++++++++++++++++++++++++ +++++++++++++++++++++++++++++++ +++++++++++++++++++++++++++++++ +++++++++++++++++++++++++++++++ +++++++++++++++++++++++++++++++ +++++++++++++++++++++++++++++++ +++++++++++++++++++++++++++++++ +++++++++++++++++++++++++++++++ +++++++++++++++++++++++++++++++ +++++++++++++++++++++++++++++++ +++++++++++++++++++++++++++++++ +++++++++++++++++++++++++++++++ +++++++++++++++++++++++++++++++ +++++++++++++++++++++++++++++++ ....                           ",
"                            .... +++++++++++++++++++++++++++++++ +++++++++++++++++++++++++++++++ +++++++++++++++++++++++++++++++ +++++++++++++++++++++++++++++++ +++++++++++++++++++++++++++++++ +++++++++++++++++++++++++++++++ +++++++++++++++++++++++++++++++ +++++++++++++++++++++++++++++++ +++++++++++++++++++++++++++++++ +++++++++++++++++++++++++++++++ +++++++++++++++++++++++++++++++ +++++++++++++++++++++++++++++++ +++++++++++++++++++++++++++++++ +++++++++++++++++++++++++++++++ +++++++++++++++++++++++++++++++ +++++++++++++++++++++++++++++++ +++++++++++++++++++++++++++++++ +++++++++++++++++++++++++++++++ +++++++++++++++++++++++++++++++ ....                           ",
"                            .... +++++++++++++++++++++++++++++++ +++++++++++++++++++++++++++++++ +++++++++++++++++++++++++++++++ +++++++++++++++++++++++++++++++ +++++++++++++++++++++++++++++++ +++++++++++++++++++++++++++++++ +++++++++++++++++++++++++++++++ +++++++++++++++++++++++++++++++ +++++++++++++++++++++++++++++++ +++++++++++++++++++++++++++++++ +++++++++++++++++++++++++++++++ +++++++++++++++++++++++++++++++ +++++++++++++++++++++++++++++++ +++++++++++++++++++++++++++++++ +++++++++++++++++++++++++++++++ +++++++++++++++++++++++++++++++ +++++++++++++++++++++++++++++++ +++++++++++++++++++++++++++++++ +++++++++++++++++++++++++++++++ ....                           ",
"                            .... +++++++++++++++++++++++++++++++ +++++++++++++++++++++++++++++++ +++++++++++++++++++++++++++++++ +++++++++++++++++++++++++++++++ +++++++++++++++++++++++++++++++ +++++++++++++++++++++++++++++++ +++++++++++++++++++++++++++++++ +++++++++++++++++++++++++++++++ +++++++++++++++++++++++++++++++ +++++++++++++++++++++++++++++++ +++++++++++++++++++++++++++++++ +++++++++++++++++++++++++++++++ +++++++++++++++++++++++++++++++ +++++++++++++++++++++++++++++++ +++++++++++++++++++++++++++++++ +++++++++++++++++++++++++++++++ +++++++++++++++++++++++++++++++ +++++++++++++++++++++++++++++++ +++++++++++++++++++++++++++++++ ....                           ",
"                            .... +++++++++++++++++++++++++++++++ +++++++++++++++++++++++++++++++ +++++++++++++++++++++++++++++++ +++++++++++++++++++++++++++++++ +++++++++++++++++++++++++++++++ +++++++++++++++++++++++++++++++ +++++++++++++++++++++++++++++++ +++++++++++++++++++++++++++++++ +++++++++++++++++++++++++++++++ +++++++++++++++++++++++++++++++ +++++++++++++++++++++++++++++++ +++++++++++++++++++++++++++++++ +++++++++++++++++++++++++++++++ +++++++++++++++++++++++++++++++ +++++++++++++++++++++++++++++++ +++++++++++++++++++++++++++++++ +++++++++++++++++++++++++++++++ +++++++++++++++++++++++++++++++ +++++++++++++++++++++++++++++++ ....                           ",
"                            .... +++++++++++++++++++++++++++++++ +++++++++++++++++++++++++++++++ +++++++++++++++++++++++++++++++ +++++++++++++++++++++++++++++++ +++++++++++++++++++++++++++++++ +++++++++++++++++++++++++++++++ +++++++++++++++++++++++++++++++ +++++++++++++++++++++++++++++++ +++++++++++++++++++++++++++++++ +++++++++++++++++++++++++++++++ +++++++++++++++++++++++++++++++ +++++++++++++++++++++++++++++++ +++++++++++++++++++++++++++++++ +++++++++++++++++++++++++++++++ +++++++++++++++++++++++++++++++ +++++++++++++++++++++++++++++++ +++++++++++++++++++++++++++++++ +++++++++++++++++++++++++++++++ +++++++++++++++++++++++++++++++ ....                           ",
"                            .... +++++++++++++++++++++++++++++++ +++++++++++++++++++++++++++++++ +++++++++++++++++++++++++++++++ +++++++++++++++++++++++++++++++ +++++++++++++++++++++++++++++++ +++++++++++++++++++++++++++++++ +++++++++++++++++++++++++++++++ +++++++++++++++++++++++++++++++ +++++++++++++++++++++++++++++++ +++++++++++++++++++++++++++++++ +++++++++++++++++++++++++++++++ +++++++++++++++++++++++++++++++ +++++++++++++++++++++++++++++++ +++++++++++++++++++++++++++++++ +++++++++++++++++++++++++++++++ +++++++++++++++++++++++++++++++ +++++++++++++++++++++++++++++++ +++++++++++++++++++++++++++++++ +++++++++++++++++++++++++++++++ ....                           ",
"                            .... +++++++++++++++++++++++++++++++ +++++++++++++++++++++++++++++++ +++++++++++++++++++++++++++++++ +++++++++++++++++++++++++++++++ +++++++++++++++++++++++++++++++ +++++++++++++++++++++++++++++++ +++++++++++++++++++++++++++++++ +++++++++++++++++++++++++++++++ +++++++++++++++++++++++++++++++ +++++++++++++++++++++++++++++++ +++++++++++++++++++++++++++++++ +++++++++++++++++++++++++++++++ +++++++++++++++++++++++++++++++ +++++++++++++++++++++++++++++++ +++++++++++++++++++++++++++++++ +++++++++++++++++++++++++++++++ +++++++++++++++++++++++++++++++ +++++++++++++++++++++++++++++++ +++++++++++++++++++++++++++++++ ....                           ",
"                            .... +++++++++++++++++++++++++++++++ +++++++++++++++++++++++++++++++ +++++++++++++++++++++++++++++++ +++++++++++++++++++++++++++++++ +++++++++++++++++++++++++++++++ +++++++++++++++++++++++++++++++ +++++++++++++++++++++++++++++++ +++++++++++++++++++++++++++++++ +++++++++++++++++++++++++++++++ +++++++++++++++++++++++++++++++ +++++++++++++++++++++++++++++++ +++++++++++++++++++++++++++++++ +++++++++++++++++++++++++++++++ +++++++++++++++++++++++++++++++ +++++++++++++++++++++++++++++++ +++++++++++++++++++++++++++++++ +++++++++++++++++++++++++++++++ +++++++++++++++++++++++++++++++ +++++++++++++++++++++++++++++++ ....                           ",
"                            .... +++++++++++++++++++++++++++++++ +++++++++++++++++++++++++++++++ +++++++++++++++++++++++++++++++ +++++++++++++++++++++++++++++++ +++++++++++++++++++++++++++++++ +++++++++++++++++++++++++++++++ +++++++++++++++++++++++++++++++ +++++++++++++++++++++++++++++++ +++++++++++++++++++++++++++++++ +++++++++++++++++++++++++++++++ +++++++++++++++++++++++++++++++ +++++++++++++++++++++++++++++++ +++++++++++++++++++++++++++++++ +++++++++++++++++++++++++++++++ +++++++++++++++++++++++++++++++ +++++++++++++++++++++++++++++++ +++++++++++++++++++++++++++++++ +++++++++++++++++++++++++++++++ +++++++++++++++++++++++++++++++ ....                           ",
"                            .... +++++++++++++++++++++++++++++++ +++++++++++++++++++++++++++++++ +++++++++++++++++++++++++++++++ +++++++++++++++++++++++++++++++ +++++++++++++++++++++++++++++++ +++++++++++++++++++++++++++++++ +++++++++++++++++++++++++++++++ +++++++++++++++++++++++++++++++ +++++++++++++++++++++++++++++++ +++++++++++++++++++++++++++++++ +++++++++++++++++++++++++++++++ +++++++++++++++++++++++++++++++ +++++++++++++++++++++++++++++++ +++++++++++++++++++++++++++++++ +++++++++++++++++++++++++++++++ +++++++++++++++++++++++++++++++ +++++++++++++++++++++++++++++++ +++++++++++++++++++++++++++++++ +++++++++++++++++++++++++++++++ ....                           ",
"                            .... +++++++++++++++++++++++++++++++ +++++++++++++++++++++++++++++++ +++++++++++++++++++++++++++++++ +++++++++++++++++++++++++++++++ +++++++++++++++++++++++++++++++ +++++++++++++++++++++++++++++++ +++++++++++++++++++++++++++++++ +++++++++++++++++++++++++++++++ +++++++++++++++++++++++++++++++ +++++++++++++++++++++++++++++++ +++++++++++++++++++++++++++++++ +++++++++++++++++++++++++++++++ +++++++++++++++++++++++++++++++ +++++++++++++++++++++++++++++++ +++++++++++++++++++++++++++++++ +++++++++++++++++++++++++++++++ +++++++++++++++++++++++++++++++ +++++++++++++++++++++++++++++++ +++++++++++++++++++++++++++++++ ....                           ",
"                            .... +++++++++++++++++++++++++++++++ +++++++++++++++++++++++++++++++ +++++++++++++++++++++++++++++++ +++++++++++++++++++++++++++++++ +++++++++++++++++++++++++++++++ +++++++++++++++++++++++++++++++ +++++++++++++++++++++++++++++++ +++++++++++++++++++++++++++++++ +++++++++++++++++++++++++++++++ +++++++++++++++++++++++++++++++ +++++++++++++++++++++++++++++++ +++++++++++++++++++++++++++++++ +++++++++++++++++++++++++++++++ +++++++++++++++++++++++++++++++ +++++++++++++++++++++++++++++++ +++++++++++++++++++++++++++++++ +++++++++++++++++++++++++++++++ +++++++++++++++++++++++++++++++ +++++++++++++++++++++++++++++++ ....                           ",
"                            .... +++++++++++++++++++++++++++++++ +++++++++++++++++++++++++++++++ +++++++++++++++++++++++++++++++ +++++++++++++++++++++++++++++++ +++++++++++++++++++++++++++++++ +++++++++++++++++++++++++++++++ +++++++++++++++++++++++++++++++ +++++++++++++++++++++++++++++++ +++++++++++++++++++++++++++++++ +++++++++++++++++++++++++++++++ +++++++++++++++++++++++++++++++ +++++++++++++++++++++++++++++++ +++++++++++++++++++++++++++++++ +++++++++++++++++++++++++++++++ +++++++++++++++++++++++++++++++ +++++++++++++++++++++++++++++++ +++++++++++++++++++++++++++++++ +++++++++++++++++++++++++++++++ +++++++++++++++++++++++++++++++ ....                           ",
"                            .... +++++++++++++++++++++++++++++++ +++++++++++++++++++++++++++++++ +++++++++++++++++++++++++++++++ +++++++++++++++++++++++++++++++ +++++++++++++++++++++++++++++++ +++++++++++++++++++++++++++++++ +++++++++++++++++++++++++++++++ +++++++++++++++++++++++++++++++ +++++++++++++++++++++++++++++++ +++++++++++++++++++++++++++++++ +++++++++++++++++++++++++++++++ +++++++++++++++++++++++++++++++ +++++++++++++++++++++++++++++++ +++++++++++++++++++++++++++++++ +++++++++++++++++++++++++++++++ +++++++++++++++++++++++++++++++ +++++++++++++++++++++++++++++++ +++++++++++++++++++++++++++++++ +++++++++++++++++++++++++++++++ ....                           ",
"                            .... +++++++++++++++++++++++++++++++ +++++++++++++++++++++++++++++++ +++++++++++++++++++++++++++++++ +++++++++++++++++++++++++++++++ +++++++++++++++++++++++++++++++ +++++++++++++++++++++++++++++++ +++++++++++++++++++++++++++++++ +++++++++++++++++++++++++++++++ +++++++++++++++++++++++++++++++ +++++++++++++++++++++++++++++++ +++++++++++++++++++++++++++++++ +++++++++++++++++++++++++++++++ +++++++++++++++++++++++++++++++ +++++++++++++++++++++++++++++++ +++++++++++++++++++++++++++++++ +++++++++++++++++++++++++++++++ +++++++++++++++++++++++++++++++ +++++++++++++++++++++++++++++++ +++++++++++++++++++++++++++++++ ....                           ",
"                            .... +++++++++++++++++++++++++++++++ +++++++++++++++++++++++++++++++ +++++++++++++++++++++++++++++++ +++++++++++++++++++++++++++++++ +++++++++++++++++++++++++++++++ +++++++++++++++++++++++++++++++ +++++++++++++++++++++++++++++++ +++++++++++++++++++++++++++++++ +++++++++++++++++++++++++++++++ +++++++++++++++++++++++++++++++ +++++++++++++++++++++++++++++++ +++++++++++++++++++++++++++++++ +++++++++++++++++++++++++++++++ +++++++++++++++++++++++++++++++ +++++++++++++++++++++++++++++++ +++++++++++++++++++++++++++++++ +++++++++++++++++++++++++++++++ +++++++++++++++++++++++++++++++ +++++++++++++++++++++++++++++++ ....                           ",
"                            .... +++++++++++++++++++++++++++++++ +++++++++++++++++++++++++++++++ +++++++++++++++++++++++++++++++ +++++++++++++++++++++++++++++++ +++++++++++++++++++++++++++++++ +++++++++++++++++++++++++++++++ +++++++++++++++++++++++++++++++ +++++++++++++++++++++++++++++++ +++++++++++++++++++++++++++++++ +++++++++++++++++++++++++++++++ +++++++++++++++++++++++++++++++ +++++++++++++++++++++++++++++++ +++++++++++++++++++++++++++++++ +++++++++++++++++++++++++++++++ +++++++++++++++++++++++++++++++ +++++++++++++++++++++++++++++++ +++++++++++++++++++++++++++++++ +++++++++++++++++++++++++++++++ +++++++++++++++++++++++++++++++ ....                           ",
"                            .... +++++++++++++++++++++++++++++++ +++++++++++++++++++++++++++++++ +++++++++++++++++++++++++++++++ +++++++++++++++++++++++++++++++ +++++++++++++++++++++++++++++++ +++++++++++++++++++++++++++++++ +++++++++++++++++++++++++++++++ +++++++++++++++++++++++++++++++ +++++++++++++++++++++++++++++++ +++++++++++++++++++++++++++++++ +++++++++++++++++++++++++++++++ +++++++++++++++++++++++++++++++ +++++++++++++++++++++++++++++++ +++++++++++++++++++++++++++++++ +++++++++++++++++++++++++++++++ +++++++++++++++++++++++++++++++ +++++++++++++++++++++++++++++++ +++++++++++++++++++++++++++++++ +++++++++++++++++++++++++++++++ ....                           ",
"                            .... +++++++++++++++++++++++++++++++ +++++++++++++++++++++++++++++++ +++++++++++++++++++++++++++++++ +++++++++++++++++++++++++++++++ +++++++++++++++++++++++++++++++ +++++++++++++++++++++++++++++++ +++++++++++++++++++++++++++++++ +++++++++++++++++++++++++++++++ +++++++++++++++++++++++++++++++ +++++++++++++++++++++++++++++++ +++++++++++++++++++++++++++++++ +++++++++++++++++++++++++++++++ +++++++++++++++++++++++++++++++ +++++++++++++++++++++++++++++++ +++++++++++++++++++++++++++++++ +++++++++++++++++++++++++++++++ +++++++++++++++++++++++++++++++ +++++++++++++++++++++++++++++++ +++++++++++++++++++++++++++++++ ....                           ",
"                            .... +++++++++++++++++++++++++++++++ +++++++++++++++++++++++++++++++ +++++++++++++++++++++++++++++++ +++++++++++++++++++++++++++++++ +++++++++++++++++++++++++++++++ +++++++++++++++++++++++++++++++ +++++++++++++++++++++++++++++++ +++++++++++++++++++++++++++++++ +++++++++++++++++++++++++++++++ +++++++++++++++++++++++++++++++ +++++++++++++++++++++++++++++++ +++++++++++++++++++++++++++++++ +++++++++++++++++++++++++++++++ +++++++++++++++++++++++++++++++ +++++++++++++++++++++++++++++++ +++++++++++++++++++++++++++++++ +++++++++++++++++++++++++++++++ +++++++++++++++++++++++++++++++ +++++++++++++++++++++++++++++++ ....                           ",
"                            .... +++++++++++++++++++++++++++++++ +++++++++++++++++++++++++++++++ +++++++++++++++++++++++++++++++ +++++++++++++++++++++++++++++++ +++++++++++++++++++++++++++++++ +++++++++++++++++++++++++++++++ +++++++++++++++++++++++++++++++ +++++++++++++++++++++++++++++++ +++++++++++++++++++++++++++++++ +++++++++++++++++++++++++++++++ +++++++++++++++++++++++++++++++ +++++++++++++++++++++++++++++++ +++++++++++++++++++++++++++++++ +++++++++++++++++++++++++++++++ +++++++++++++++++++++++++++++++ +++++++++++++++++++++++++++++++ +++++++++++++++++++++++++++++++ +++++++++++++++++++++++++++++++ +++++++++++++++++++++++++++++++ ....                           ",
"                            .... +++++++++++++++++++++++++++++++ +++++++++++++++++++++++++++++++ +++++++++++++++++++++++++++++++ +++++++++++++++++++++++++++++++ +++++++++++++++++++++++++++++++ +++++++++++++++++++++++++++++++ +++++++++++++++++++++++++++++++ +++++++++++++++++++++++++++++++ +++++++++++++++++++++++++++++++ +++++++++++++++++++++++++++++++ +++++++++++++++++++++++++++++++ +++++++++++++++++++++++++++++++ +++++++++++++++++++++++++++++++ +++++++++++++++++++++++++++++++ +++++++++++++++++++++++++++++++ +++++++++++++++++++++++++++++++ +++++++++++++++++++++++++++++++ +++++++++++++++++++++++++++++++ +++++++++++++++++++++++++++++++ ....                           ",
"                            .... +++++++++++++++++++++++++++++++ +++++++++++++++++++++++++++++++ +++++++++++++++++++++++++++++++ +++++++++++++++++++++++++++++++ +++++++++++++++++++++++++++++++ +++++++++++++++++++++++++++++++ +++++++++++++++++++++++++++++++ +++++++++++++++++++++++++++++++ +++++++++++++++++++++++++++++++ +++++++++++++++++++++++++++++++ +++++++++++++++++++++++++++++++ +++++++++++++++++++++++++++++++ +++++++++++++++++++++++++++++++ +++++++++++++++++++++++++++++++ +++++++++++++++++++++++++++++++ +++++++++++++++++++++++++++++++ +++++++++++++++++++++++++++++++ +++++++++++++++++++++++++++++++ +++++++++++++++++++++++++++++++ ....                           ",
"                            .... +++++++++++++++++++++++++++++++ +++++++++++++++++++++++++++++++ +++++++++++++++++++++++++++++++ +++++++++++++++++++++++++++++++ +++++++++++++++++++++++++++++++ +++++++++++++++++++++++++++++++ +++++++++++++++++++++++++++++++ +++++++++++++++++++++++++++++++ +++++++++++++++++++++++++++++++ +++++++++++++++++++++++++++++++ +++++++++++++++++++++++++++++++ +++++++++++++++++++++++++++++++ +++++++++++++++++++++++++++++++ +++++++++++++++++++++++++++++++ +++++++++++++++++++++++++++++++ +++++++++++++++++++++++++++++++ +++++++++++++++++++++++++++++++ +++++++++++++++++++++++++++++++ +++++++++++++++++++++++++++++++ ....                           ",
"                            .... +++++++++++++++++++++++++++++++ +++++++++++++++++++++++++++++++ +++++++++++++++++++++++++++++++ +++++++++++++++++++++++++++++++ +++++++++++++++++++++++++++++++ +++++++++++++++++++++++++++++++ +++++++++++++++++++++++++++++++ +++++++++++++++++++++++++++++++ +++++++++++++++++++++++++++++++ +++++++++++++++++++++++++++++++ +++++++++++++++++++++++++++++++ +++++++++++++++++++++++++++++++ +++++++++++++++++++++++++++++++ +++++++++++++++++++++++++++++++ +++++++++++++++++++++++++++++++ +++++++++++++++++++++++++++++++ +++++++++++++++++++++++++++++++ +++++++++++++++++++++++++++++++ +++++++++++++++++++++++++++++++ ....                           ",
"                            .... +++++++++++++++++++++++++++++++ +++++++++++++++++++++++++++++++ +++++++++++++++++++++++++++++++ +++++++++++++++++++++++++++++++ +++++++++++++++++++++++++++++++ +++++++++++++++++++++++++++++++ +++++++++++++++++++++++++++++++ +++++++++++++++++++++++++++++++ +++++++++++++++++++++++++++++++ +++++++++++++++++++++++++++++++ +++++++++++++++++++++++++++++++ +++++++++++++++++++++++++++++++ +++++++++++++++++++++++++++++++ +++++++++++++++++++++++++++++++ +++++++++++++++++++++++++++++++ +++++++++++++++++++++++++++++++ +++++++++++++++++++++++++++++++ +++++++++++++++++++++++++++++++ +++++++++++++++++++++++++++++++ ....                           ",
"                            .... +++++++++++++++++++++++++++++++ +++++++++++++++++++++++++++++++ +++++++++++++++++++++++++++++++ +++++++++++++++++++++++++++++++ +++++++++++++++++++++++++++++++ +++++++++++++++++++++++++++++++ +++++++++++++++++++++++++++++++ +++++++++++++++++++++++++++++++ +++++++++++++++++++++++++++++++ +++++++++++++++++++++++++++++++ +++++++++++++++++++++++++++++++ +++++++++++++++++++++++++++++++ +++++++++++++++++++++++++++++++ +++++++++++++++++++++++++++++++ +++++++++++++++++++++++++++++++ +++++++++++++++++++++++++++++++ +++++++++++++++++++++++++++++++ +++++++++++++++++++++++++++++++ +++++++++++++++++++++++++++++++ ....                           ",
"                            ....                                                                                                                                                                                                                                                                                                                                                                                                                                                                                                                                                                                                                                 ....                           ",
"                            .........................................................................................................................................................................................................................................................................................................................................................................................................................................................................................................................................................................................................................................                           ",
"                            .........................................................................................................................................................................................................................................................................................................................................................................................................................................................................................................................................................................................................................................                           ",
"                            .........................................................................................................................................................................................................................................................................................................................................................................................................................................................................................................................................................................................................................................                           ",
"                            .........................................................................................................................................................................................................................................................................................................................................................................................................................................................................................................................................................................................................................................                           ",
"                                                                                                                                                                                                                                                                                                                                                                                                                                                                                                                                                                                                                                                                                                ",
"                                                                                                                                                                                                                                                                                                                                                                                                                                                                                                                                                                                                                                                                                                ",
"                                                                                                                                                                                                                                                                                                                                                                                                                                                                                                                                                                                                                                                                                                ",
"                                                                                                                                                                                                                                                                                                                                                                                                                                                                                                                                                                                                                                                                                                ",
"                                                                                                                                                                                                                                                                                                                                                                                                                                                                                                                                                                                                                                                                                                ",
"                                                                                                                                                                                                                                                                                                                                                                                                                                                                                                                                                                                                                                                                                                ",
"                                                                                                                                                                                                                                                                                                                                                                                                                                                                                                                                                                                                                                                                                                ",
"                                                                                                                                                                                                                                                                                                                                                                                                                                                                                                                                                                                                                                                                                                ",
"                                                                                                                                                                                                                                                                                                                                                                                                                                                                                                                                                                                                                                                                                                ",
"                                                                                                                                                                                                                                                                                                                                                                                                                                                                                                                                                                                                                                                                                                ",
"                                                                                                                                                                                                                                                                                                                                                                                                                                                                                                                                                                                                                                                                                                ",
"                                                                                                                                                                                                                                                                                                                                                                                                                                                                                                                                                                                                                                                                                                ",
"                                                                                                                                                                                                                                                                                                                                                                                                                                                                                                                                                                                                                                                                                                ",
"                                                                                                                                                                                                                                                                                                                                                                                                                                                                                                                                                                                                                                                                                                ",
"                                                                                                                                                                                                                                                                                                                                                                                                                                                                                                                                                                                                                                                                                                ",
"                                                                                                                                                                                                                                                                                                                                                                                                                                                                                                                                                                                                                                                                                                ",
"                                                                                                                                                                                                                                                                                                                                                                                                                                                                                                                                                                                                                                                                                                ",
"                                                                                                                                                                                                                                                                                                                                                                                                                                                                                                                                                                                                                                                                                                ",
"                                                                                                                                                                                                                                                                                                                                                                                                                                                                                                                                                                                                                                                                                                ",
"                                                                                                                                                                                                                                                                                                                                                                                                                                                                                                                                                                                                                                                                                                ",
"                                                                                                                                                                                                                                                                                                                                                                                                                                                                                                                                                                                                                                                                                                ",
"                                                                                                                                                                                                                                                                                                                                                                                                                                                                                                                                                                                                                                                                                                ",
"                                                                                                                                                                                                                                                                                                                                                                                                                                                                                                                                                                                                                                                                                                ",
"                                                                                                                                                                                                                                                                                                                                                                                                                                                                                                                                                                                                                                                                                                ",
"                                                                                                                                                                                                                                                                                                                                                                                                                                                                                                                                                                                                                                                                                                ",
"                                                                                                                                                                                                                                                                                                                                                                                                                                                                                                                                                                                                                                                                                                ",
"                                                                                                                                                                                                                                                                                                                                                                                                                                                                                                                                                                                                                                                                                                "};
