/* XPM */
static char *result[] = {
/* columns rows colors chars-per-pixel */
"672 672 149 2 ",
"   c #000001",
".  c #090103",
"X  c #020901",
"o  c #0A0905",
"O  c #01010B",
"+  c #09010B",
"@  c #01090B",
"#  c #090909",
"$  c #100102",
"%  c #010012",
"&  c #090012",
"*  c #000813",
"=  c #02001C",
"-  c #08001B",
";  c #01081A",
":  c #161616",
">  c #181818",
",  c #010023",
"<  c #0A0021",
"1  c #010923",
"2  c #01002B",
"3  c #08022B",
"4  c #01092D",
"5  c #000033",
"6  c #010A34",
"7  c #00003B",
"8  c #080039",
"9  c #01093C",
"0  c #000143",
"q  c #090243",
"w  c #000944",
"e  c #00014B",
"r  c #09044A",
"t  c #02094C",
"y  c #010254",
"u  c #090354",
"i  c #010953",
"p  c #00015A",
"a  c #0A015C",
"s  c #02095C",
"d  c #010163",
"f  c #090364",
"g  c #010A63",
"h  c #0A0964",
"j  c #02026C",
"k  c #0A046C",
"l  c #02096C",
"z  c #0B0A6D",
"x  c #020374",
"c  c #090373",
"v  c #020974",
"b  c #090A75",
"n  c #02027A",
"m  c #09037D",
"M  c #030A7C",
"N  c #0A097C",
"B  c #10017C",
"V  c #010185",
"C  c #090484",
"Z  c #030984",
"A  c #0A0984",
"S  c #02028C",
"D  c #0A048C",
"F  c #030A8C",
"G  c #0A0A8C",
"H  c #110E8C",
"J  c #020394",
"K  c #0A0593",
"L  c #030992",
"P  c #0B0993",
"I  c #03039A",
"U  c #09059C",
"Y  c #03099B",
"T  c #0A099C",
"R  c #110A93",
"E  c #12029D",
"W  c #110999",
"Q  c #051090",
"!  c #031099",
"~  c #08109F",
"^  c #0403A3",
"/  c #0A04A4",
"(  c #030AA4",
")  c #0B09A4",
"_  c #0305AB",
"`  c #0A04AC",
"'  c #0509AC",
"]  c #0909AE",
"[  c #1006A6",
"{  c #110BA5",
"}  c #1007AD",
"|  c #120CAA",
" . c #0505B5",
".. c #0904B3",
"X. c #0409B2",
"o. c #0A09B4",
"O. c #0505BC",
"+. c #0A05BA",
"@. c #0409BB",
"#. c #0909BB",
"$. c #1105B3",
"%. c #1009B4",
"&. c #1105BC",
"*. c #1109BC",
"=. c #0506C4",
"-. c #0A04C4",
";. c #0408C2",
":. c #0A09C4",
">. c #0505CA",
",. c #0B04CD",
"<. c #0608CE",
"1. c #0908C9",
"2. c #1104C4",
"3. c #1108C2",
"4. c #1104CE",
"5. c #1109CC",
"6. c #0910C0",
"7. c #0505D4",
"8. c #0A05D2",
"9. c #0409D3",
"0. c #0A09D2",
"q. c #0505DC",
"w. c #0A04DC",
"e. c #0409DD",
"r. c #0A09DB",
"t. c #1104D4",
"y. c #1109D3",
"u. c #1104DB",
"i. c #130ADB",
"p. c #0404E3",
"a. c #0A03E4",
"s. c #0409E3",
"d. c #0A09E3",
"f. c #0503EC",
"g. c #0A03EB",
"h. c #0409EC",
"j. c #0A09EC",
"k. c #1103E4",
"l. c #1209E2",
"z. c #1103EB",
"x. c #1008E9",
"c. c #0303F4",
"v. c #0A02F3",
"b. c #0309F4",
"n. c #0A09F3",
"m. c #0301F9",
"M. c #0902FC",
"N. c #1102F3",
"B. c #1003F9",
/* pixels */
"    O O O O O     X     O O O   O % , = % . X   X . .   . .   . .   . O .   O .     O . #     O .   #     O .   #     O .   #     O .   #     O .   #     O .   #     O .   #     O .   #     O .   #     O .   #     O .   #     O .   #     O .   #     O .   #     O .   #     O .   #     O .   #     O .   #     O .   #     O .   #     O .   #     O .   #     O .   #     O .   #     O .   #     O .   #     O .   #     O .   #     O .   #     O .   #     O .   #     O .   #     O .   #     O .   #     O .   #     O .   #     O .   #     O .   #     O .   #     O .   #     O .   #     O .     .     O + +       .   @ O   X       X   # . O O           O       O           . O O + O O   O           X   X   O O * * +                   .   .       . #       O . #     O .   #     O .   #     O .   #     O .   #     O .   #     O .   #     O .   #     O .   #     O .   #     O .   #     O .   #     O .   #     O .   #     O .   #     O .   #     O .   #     O .   #     O .   #     O .   #     O .   #     O .   #     O .   #     O .   #     O .   #     O .             @           O           O           O           O .             O   O #   #     O .   #     O .   #     O .   #     O .   #     O .   #     O .   #     O .   #     O .   #     O .   #     O .   #     O . O + O O .         .               .         O O O O X X X X         . ",
"      O O O     X         O @ O . O % %       X             X   .   O                                 O                       O                       O                       O                       O                       O                       O                       O                       O                       O                       O                       O                       O                       O                       O                       O                       O                       O                       O                       O                       O             O     . .     .   .   O O O X       .     O             O                     O O .                   # .       O + O                 . O   O             O                       O                       O                       O                       O                       O                       O                       O                       O                       O                       O                       O                       O                       O O           O           O           O           O             O   O                           O                       O                       O                       O                       O                     O O O             . .               . . O O O O                     ",
"O                       O O O   .     X   X     O O O             O O O O                                                                                                                                                                                                                                                                                                                                                                                                                                                                                                                                                 O         X   @ O % @ O O   X X     O O .                                   .         O O % O     #     .     X .           O O O O O                                                                                                                                                                                                                                                                                                                                                                                                                                                                                                                                                             O O   X .       O O O O         .           O O O O O     X         ",
"O O                     O O #   X X X   X   O O O % O O     X     O O                                                                                                                                                                                                                                                                                                                                                                                                                                                                                                                                           X         O         X     O O % O O O   . .   O   O O                       O O O               O % % % O       O O       X     . O % O O O O O O                                                                                                                                                                                                                                                                                                                                     . .   . . .   . . #     . .     # .   . . #     . .     #   . .   .   .                                                                                                                                             O         X     O O % O O O           #   .       O % O O             ",
"O O               . .     O O # .   X     O + % % O O                                                                                                                                                                                                                                                                                                                                                                                                                                                                                                                                                                                 O   @   O O O % % % + + O O O O O   .                 O O               # O + O     .   O O O   . O O O O O O % O O                                                                                                                                                                                                                                                                                                                                                 . .   .   . . . . .   . . .   . . .   . . .   . . . .   .   . . .                                                                                                                                                               O O O O     O O % % & O .       O O O % O           O ",
"O O         X               . O         O O % O O O                                                                                                                                                                                                                                                                                                                                                                                                                                                                                                                                                                               O O   X         O O % % % O     O O       X     O O O                           O       X   X O % O O + O O % % O O                                                                                                                                                                                                                                                                                                                                                       .                                                     .   .                                                                                                                                                           X         O           O * % O     .       O O O O O           ",
"                              X       . . O O O                                                                                                                                                                                                                                                                                                                                                                                                                                                                                                                                                                                 O O O O   X .       .     # .   X   O             O % % O                 O O       .   X         O   O O O O O O                                                                                                                                                                                                                                                                                                                                                                                                                                                                                                                                                                                                         . .   .                   O O O O     ",
"              . .   + O   .     X   O % , 2 2 5 2 , = = = , 2 1 , = = , , 2 , 2 2 2 2 2 2 1 2 2 , 2 2 1 2 2 2 2 , 2 2 2 , 2 2 2 2 2 2 2 2 1 2 2 , 2 2 1 2 2 2 2 , 2 2 2 , 2 2 2 2 2 2 2 2 1 2 2 , 2 2 1 2 2 2 2 , 2 2 2 , 2 2 2 2 2 2 2 2 1 2 2 , 2 2 1 2 2 2 2 , 2 2 2 , 2 2 2 2 2 2 2 2 1 2 2 , 2 2 1 2 2 2 2 , 2 2 2 , 2 2 2 2 2 2 2 2 1 2 2 , 2 2 1 2 2 2 2 , 2 2 2 , 2 2 2 2 2 2 2 2 1 2 2 , 2 2 1 2 2 2 2 , 2 2 2 , 2 2 2 2 2 2 2 2 1 2 2 , 2 2 1 2 2 2 2 , 2 2 2 , 2 2 2 2 2 2 2 2 1 2 2 , 2 2 1 2 2 2 2 , 2 2 2 , 2 2 2 2 2 2 2 2 1 2 2 , 2 2 1 2 2 2 2 , 2 2 2 , 2 2 2 2 2 2 2 2 1 2 2 , 2 2 1 2 2 2 2 , 2 2 2 , 2 2 2 5 5 5 2 , = ; , , , , = %     X     O O O         O O O O               O O O O       X   X X   X O ; = , 2 2 2 2 2 , , , = = , , , 2 2 , 2 , 2 2 2 2 2 2 1 2 2 , 2 2 1 2 2 2 2 , 2 2 2 , 2 2 2 2 2 2 2 2 1 2 2 , 2 2 1 2 2 2 2 , 2 2 2 , 2 2 2 2 2 2 2 2 1 2 2 , 2 2 1 2 2 2 2 , 2 2 2 , 2 2 2 2 2 2 2 2 1 2 2 , 2 2 1 2 2 2 2 , 2 2 2 , 2 2 2 2 2 2 2 2 1 2 2 , 2 2 1 2 2 2 2 , 2 2 2 , 2 2 2 2 2 2 2 2 1 2 2 , 2 2 1 2 2 2 2 , 2 2 2 , 2 , 2 2 2 2 2 2 1 2 2 , 2 2 , 2 2 , 2 2 , 2 2 , 3 2 2 3 , 2 2 3 , 2 2 , 3 , 2 2 2 , 3 , 2 2 2 , 2 2 2 2 2 2 1 2 , 2 2 , 2 2 1 2 2 2 2 , 2 2 2 , 2 2 2 2 2 2 2 2 1 2 2 , 2 2 1 2 2 2 2 , 2 2 2 , 2 2 2 2 2 2 2 2 1 2 2 , 2 2 1 2 2 2 2 2 , 2 2 2 1 , , 2 2 5 2 2 1 = = , , ; % O     . X           X   #   O O O O     ",
"          .     . - - % O   X   % = 5 e f c V S S V n n n n n V V n n V V V V S S V S V S V S V S V S V V V S V S V S V V V S V S V V V S V S V S V V S V V V V V V S V S V V V S V S V S V V V S V S V V V S V S V S V V V S V S V V V S V S V S V V S V V V V V V S V S V V V S V S V V V V S S V S V V V S V S V S V V V S V S V V V S V S V S V V S V V V V V V S V S V V V S V S V V V V S S V S V V V S V S V S V V V S V S V V V S V S V S V V S V V V V V V S V S V V V S V S V S V S V S V S V V V S V S V S V V V S V S V V V S V S V S V V S V V V V V V S V S V V V S V V V V V V V S V S V V V S V S V S V V V V V V V V n n n V V S V n d w 2 =         O                 O                     O O O       X X   O = 7 y f j x x V V V V n n V n n V V V V V V S S V S V S V V V S V S V V V S V S V S V V V S V S V V V S V S V S V V S V V V V V V S V S V V V S V S V S V S V S V S V V V S V S V S V V V S V S V V V S V S V S V V S V V V V V V S V S V V V S V S V S V S V S V S V V V S V S V S V V V S V S V V V S V S V S V V S V V V V V V S V S V V S V V S V V V V S S V S V S V V V S V V S V V V V V V V V V V S V S V V V S V S V V V S V S V V V S V S V S V V V S V S V V V S V S V S V V V S V S V V V S V S V S V V S V V V V V V S V S V V V S V S V S V S V S V S V V V S V S V S V V V V V S S V V n n n V V n n d e 3 % O O O O       .     .   O O O     ",
"              . + = = % O X O ; 9 y x F ` &.1.8.y.,.1.=.-.1.1.,.,.<.,.8.,.8.,.8.,.8.,.8.8.,.8.,.8.,.8.8.8.8.8.,.8.,.8.8.8.8.8.,.8.8.8.8.8.,.8.8.8.8.8.8.8.8.8.8.8.8.,.8.8.8.8.8.,.8.,.8.8.8.8.8.8.,.8.8.8.8.8.,.8.,.8.8.8.8.8.,.8.8.8.8.8.,.8.8.8.8.8.8.8.8.8.8.8.8.,.8.8.8.8.8.8.,.8.,.8.8.8.8.8.,.8.8.8.8.8.,.8.,.8.8.8.8.8.,.8.8.8.8.8.,.8.8.8.8.8.8.8.8.8.8.8.8.,.8.8.8.8.8.8.,.8.,.8.8.8.8.8.,.8.8.8.8.8.,.8.,.8.8.8.8.8.,.8.8.8.8.8.,.8.8.8.8.8.8.8.8.8.8.8.8.,.8.8.8.8.8.8.,.8.,.,.8.,.8.8.,.8.8.8.8.8.,.8.,.8.8.8.8.8.,.8.8.8.8.8.,.8.8.8.8.8.8.8.8.8.8.8.8.,.8.8.8.8.8.,.8.8.8.8.8.8.8.8.,.8.8.8.8.8.,.8.,.8.8.8.8.,.,.1.1.-.:.-.5.8.t.8.4.:.) F l i 7 , % O                     O         O         O   O       O % , 5 y n I ` o. .O.-.1.,.,.,.,.,.,.,.,.,.,.8.8.8.8.8.,.8.,.,.8.8.8.8.,.8.8.8.8.8.,.8.,.8.8.8.8.8.,.8.8.8.8.8.,.8.8.8.8.8.8.8.8.8.8.8.8.,.8.8.8.8.8.,.8.,.8.8.,.8.,.8.,.8.8.8.8.8.,.8.,.8.8.8.8.8.,.8.8.8.8.8.,.8.8.8.8.8.8.8.8.8.8.8.8.,.8.8.8.8.8.,.8.,.8.8.,.8.,.8.,.8.8.8.8.8.,.8.,.8.8.8.8.8.,.8.8.8.8.8.,.8.8.8.8.8.8.8.8.8.8.8.8.,.8.,.8.,.8.8.8.8.>.8.8.,.8.8.,.8.8.8.8.8.8.<.8.<.8.7.8.8.<.8.<.8.8.8.,.8.8.8.8.8.8.8.<.8.8.8.8.8.<.8.8.8.8.8.,.8.,.,.8.8.8.8.,.8.8.8.8.8.,.8.,.8.8.8.8.8.,.8.8.8.8.8.,.8.8.8.8.8.8.8.8.8.8.8.8.,.8.8.8.8.8.,.8.,.8.8.,.8.,.8.,.8.8.8.8.8.,.8.,.8.8.,.<.1.,.8.7.8.,.1.-.1.8.t.8.:.' Z g w 5 , = % O   X X         . O O #   ",
"              . O % % O   O , y n ^  .7.q.p.f.f.f.f.p.f.f.f.f.f.f.c.f.f.f.f.f.f.f.f.f.f.f.f.f.f.f.f.f.f.f.f.f.f.f.f.f.f.f.f.f.f.f.f.f.f.f.f.f.f.f.f.f.f.f.f.f.f.f.f.f.f.f.f.f.f.f.f.f.f.f.f.f.f.f.f.f.f.f.f.f.f.f.f.f.f.f.f.f.f.f.f.f.f.f.f.f.f.f.f.f.f.f.f.f.f.f.f.f.f.f.f.f.f.f.f.f.f.f.f.f.f.f.f.f.f.f.f.f.f.f.f.f.f.f.f.f.f.f.f.f.f.f.f.f.f.f.f.f.f.f.f.f.f.f.f.f.f.f.f.f.f.f.f.f.f.f.f.f.f.f.f.f.f.f.f.f.f.f.f.f.f.f.f.f.f.f.f.f.f.f.f.f.f.f.f.f.f.f.f.f.f.f.f.f.f.f.f.f.f.f.f.f.f.f.f.f.f.f.f.f.f.f.f.f.f.f.f.f.f.f.f.f.f.f.f.f.f.f.f.f.f.f.f.f.f.f.f.f.f.f.f.f.f.f.f.f.f.f.f.f.f.f.f.f.f.f.f.f.f.f.f.f.f.f.f.f.f.f.p.p.p.p.g.p.p.p.g.f.c.n.c.f.p.<.@.I V p 5 % X X X               O       O                 X     % 5 y n ^ =.7.q.p.p.p.p.p.f.f.f.f.f.f.c.f.f.f.f.f.f.f.f.f.f.f.f.f.f.f.f.f.f.f.f.f.f.f.f.f.f.f.f.f.f.f.f.f.f.f.f.f.f.f.f.f.f.f.f.f.f.f.f.f.f.f.f.f.f.f.f.f.f.f.f.f.f.f.f.f.f.f.f.f.f.f.f.f.f.f.f.f.f.f.f.f.f.f.f.f.f.f.f.f.f.f.f.f.f.f.f.f.f.f.f.f.f.f.f.f.f.f.f.f.f.f.f.f.f.f.f.f.f.f.f.f.f.f.f.f.f.f.f.f.f.f.f.f.f.f.f.f.f.f.f.f.f.f.f.f.f.f.f.f.f.f.f.f.f.f.f.f.f.f.f.f.f.f.f.g.f.g.f.g.f.f.f.f.f.g.f.f.f.f.f.f.f.f.f.f.g.f.f.f.f.f.f.f.f.f.f.f.f.f.f.f.f.f.f.f.f.f.f.f.f.f.f.f.f.f.f.f.f.f.f.f.f.f.f.f.f.f.f.f.f.f.f.f.f.f.f.f.f.f.f.f.f.f.f.f.f.f.f.f.f.f.f.f.f.f.f.f.f.f.f.f.f.f.f.f.f.f.f.f.p.p.f.f.f.f.g.p.p.f.f.f.f.p.9.X.Y x y 9 2 %   X         .           ",
"O   O O   .     . + O   O 2 t V +.7.p.f.h.f.p.q.q.q.q.p.p.p.f.p.p.p.p.p.p.q.p.p.q.p.p.q.p.q.p.p.q.p.p.q.p.q.p.p.q.p.p.q.p.q.p.p.p.q.p.q.p.q.q.p.q.p.p.q.p.p.q.p.p.q.p.p.q.p.q.p.q.p.p.q.p.q.p.p.q.p.p.q.p.q.p.p.q.p.p.q.p.q.p.p.p.q.p.q.p.q.q.p.q.p.p.q.p.p.q.p.p.q.p.p.q.p.q.p.p.q.p.p.q.p.q.p.q.p.p.q.p.q.p.p.q.p.p.q.p.q.p.p.p.q.p.q.p.q.q.p.q.p.p.q.p.p.q.p.p.q.p.p.q.p.q.p.p.q.p.p.q.p.q.p.q.p.p.q.p.q.p.p.q.p.p.q.p.q.p.p.p.q.p.q.p.q.q.p.q.p.p.q.p.p.q.p.p.q.p.p.q.p.q.p.p.q.p.p.q.p.p.p.q.p.p.q.p.q.p.p.q.p.p.q.p.q.p.p.p.q.p.q.p.q.q.p.q.p.p.q.p.p.q.p.p.q.p.p.q.p.q.p.q.p.p.q.p.p.p.p.q.p.p.q.p.q.p.p.q.p.p.q.q.q.q.q.7.9.q.r.q.p.q.p.p.p.f.h.f.p.q.:.J p 2 O X               O     O   O               X X   % 5 p Z +.w.a.c.j.h.p.q.q.q.q.p.p.p.f.p.p.p.p.p.q.p.p.q.p.q.p.p.q.p.p.p.q.p.p.q.p.q.p.p.q.p.p.q.p.q.p.p.p.q.p.q.p.q.q.p.q.p.p.q.p.p.q.p.p.q.p.p.q.p.q.p.q.p.p.q.p.q.p.p.q.p.p.q.p.q.p.p.q.p.p.q.p.q.p.p.p.q.p.q.p.q.q.p.q.p.p.q.p.p.q.p.p.q.p.p.q.p.q.p.q.p.p.q.p.q.p.p.q.p.p.q.p.q.p.p.q.p.p.q.p.q.p.p.p.q.p.q.p.q.q.p.q.p.p.q.p.p.q.p.p.q.p.p.p.q.p.p.q.p.p.p.q.p.q.p.p.q.p.p.p.q.a.a.w.a.a.a.w.a.a.a.a.p.a.w.a.p.w.a.q.p.a.q.a.q.a.q.a.q.a.a.q.p.q.p.p.q.p.p.q.p.p.p.q.p.p.q.p.q.p.p.q.p.p.q.p.q.p.p.p.q.p.q.p.q.q.p.q.p.p.q.p.p.q.p.p.q.p.p.q.p.q.p.q.p.p.q.p.q.p.p.q.p.p.q.p.q.p.p.q.p.p.q.q.q.q.q.q.p.p.p.p.q.s.s.p.f.f.c.f.e.<.' V d 0 2 % X   X .               ",
"O O O O O #       .   O 4 s Z +.a.n.g.g.7.=._ ( ( Y ( ' _ _ X._ _ _ ( ( ( _ ( ( ( ( ( ( ( ( ( ( ( ( ( ( ( ( ( ( ( ( ( ( ( ( ( ( ^ ( ( ( ( ( ( _ ( ( ( ( ^ ( ( ( ( ( ( ( ( _ ( ( ( ( ( ( ( ( ( ( ( ( ( ( ( ( ( ( ( ( ( ( ( ( ( ( ^ ( ( ( ( ( ( _ ( ( ( ( ^ ( ( ( ( ( ( ( ( ( ( ( ^ ( ( ( ( ( ( ( ( ( ( ( ( ( ( ( ( ( ( ( ( ( ( ( ^ ( ( ( ( ( ( _ ( ( ( ( ^ ( ( ( ( ( ( ( ( ( ( ( ^ ( ( ( ( ( ( ( ( ( ( ( ( ( ( ( ( ( ( ( ( ( ( ( ^ ( ( ( ( ( ( _ ( ( ( ( ^ ( ( ( ( ( ( ( ( ( ( ( ^ ( ( ( ( ( ( ( ( ( ( ( ( ( ( ( ( ( ( ( ( ( ( ( ^ ( ( ( ( ( ( _ ( ( ( ( ^ ( ( ( ( ( ( ( ( _ ( ( ( ( ( ( ( ( ( ( ( ( ( ( ( ( ( ( ( ( ( ( ^ Y Y Y ^ ( _ _ _ ( ( ( ' X.;.9.h.f.c.g.,.S a 2 O       .     O           O               X   % 5 p S +.w.g.g.a.7.>. ._ ( ( ( ( _ _ _ _ _ ' ( ( ( ( ( ( ^ ( ( ( ( ( ( ( ( ( ( ( ( ( ( ( ( ( ( ( ( ( ( ( ^ ( ( ( ( ( ( _ ( ( ( ( ^ ( ( ( ( ( ( ( ( _ ( ( ( ( ( ( ( ( ( ( ( ( ( ( ( ( ( ( ( ( ( ( ( ( ( ( ^ ( ( ( ( ( ( _ ( ( ( ( ^ ( ( ( ( ( ( ( ( ( ( ( ( ( ( ( ( ( ( ( ( ( ( ( ( ( ( ( ( ( ( ( ( ( ( ( ^ ( ( ( ( ( ( _ ( ( ( ( ^ ( ( ( ( ( ( ( ( ( ( ( ( ( ( ( ( ( ( ' ( ( ( ( ( / ) ( ( / _ ) ( / ) ( / ( / ( ) ( ^ _ / ( ( / ^ / ( ( ( / ( / ^ ( ( ( ^ ( ( ( ( ( ( ( ( ( ( ( ( ( ( ( ( ( ( ( ( ( ( ( ^ ( ( ( ( ( ( _ ( ( ( ( ^ ( ( ( ( ( ( ( ( _ ( ( ( ( ( ( ( ( ( ( ( ( ( ( ( ( ( ( ( ( ( ( ( ^ Y ( ^ _ ' _ _ ( ( ( ' ' O.r.s.j.f.7.+.J j 0 , O   # . .   .         ",
"O O   O O   #     X O 5 s S #.w.a.a.,...I n j p y p p p d d d d d p p p p p p p p p p p p p p p p p p p p p p p p p p p p p p p p p p p p p p p p p p p p p p p p p p p p p p p p p p p p p p p p p p p p p p p p p p p p p p p p p p p p p p p p p p p p p p p p p p p p p p p p p p p p p p p p p p p p p p p p p p p p p p p p p p p p p p p p p p p p p p p p p p p p p p p p p p p p p p p p p p p p p p p p p p p p p p p p p p p p p p p p p p p p p p p p p p p p p p p p p p p p p p p p p p p p p p p p p p p p p p p p p p p p p p p p p p p p p p p p p p p p p p p p p p p p p p p p p p p p p p p p p p p p y y p p p d d d p p p p j V ^ O.7.a.v.a.O.J d 9 ; @ X .   O   O             O O O         % 7 d F +.u.a.a.,.+./ S x d p y y p d d d j d d p p p p p p p p p p p p p p p p p p p p p p p p p p p p p p p p p p p p p p p p p p p p p p p p p p p p p p p p p p p p p p p p p p p p p p p p p p p p p p p p p p p p p p p p p p p p p p p p p p p p p p p p p p p p p p p p p p p p p p p p p p p p p p p p p p p p p p p p p p p p p p p p p p p p p p p p p p p p p p p p p p p p p p p p p p p p p p p p p p p p p p p p p p p p p p p p p p p p p p p p p p p p p p p p p p p p p p p p p p p p p p p p p p p p p p p p p p p p p p p p p p p p p p p p p p p p p p p p p p p p p p p p p p p p y p p p p d d d p y y d n T :.8.k.d.8.+.J d 0 , %   .           .   ",
"X   X   #         O 2 f U -.d.a.7. .D k u 7 , ; = = , , = - = % % - = , = = = = = , , = = , = = , , = , , , = = , , = , , , = = = = , = = = , = , = = = , , = , = , = , = = = = = , , = , = = , , , = , , , = = , , = , , , = = = = , = = = , = , = = = , , = , , = = = , = = , = = = , = , ; , , , = , , , = = , , = , , , = = = = , = = = , = , = = = , , = , = , = = = , = , = = = , , , , ; , , = , , , = = , , = , , , = = = = , = = = , = , = = = , , = , = , = = = , = , = = = , , = = = , , = , , , = = , , = , , , = = = = , = = = , = , = = = , , = , = , = , = = = = = , , = = , = = , , = , , , = = , , = , , , = = = , , , , , % % = , 5 u x K +.w.g.w.1.U j 0 ;   X   .   #   O         O O         % 7 j ` 8.a.a.<. .D k a 0 2 - % % % = , 2 2 , = % O + = = = , = = = , , = = = , , = , , , = = , , = , , , = = = = , = = = , = , = = = , , = , = , = , = = = = = , , = = , = = , , = , , , = = , , = , , , = = = = , = = = , = , = = = , , = , = , = , , = = = , = , = = , = , , , = , , , = = , , = , , , = = = = , = = = , = , = = = , , = , = , = = = , = , = , , = = , , = , , , , , , = , , = , , , , = , = , , , , = = , , = , = = , , = , = = , , = , = = = = , , = = = , , = , , , = = , , = , , , = = = = , = = = , = , = = = , , = , = , = , = = = = = , , = = , = = , , = , , , = = , , = , = , , , - % = = , , , = , 1 5 u c E ..w.a.w.#.S s 5 %   X . .   O       ",
"O O X X   . X .   = e J -.a.g.w. .n 0 3 = O   .   .   .               .   . O   . O   . . O . O   . .   .   . O   . .   .   . O . O   . O .   . O . O   .     . O   .   O . O   . O   .   O .     . .   .   . O   . .   .   . O . O   . O .   . O . O   .     . . O . O   . . O . O   . O . . O   . .   .   . O   . .   .   . O . O   . O .   . O . O   .     . . O . O   . . O . O   .   . . O   . .   .   . O   . .   .   . O . O   . O .   . O . O   .     . . O . O   . . O . O   . . O   .   . .   .   . O   . .   .   . O . O   . O .   . O . O   .     . O   .   O . O   . O   . . O . O   . .   .   . O   . .     . . O . . + . . . X .     O = 5 r m o.8.g.k.1.I p 2     X X .                   O     O 1 y I 8.g.g.w.^ M 0 8 < %     .   .   O O +     .         . O . O   . . O . O   . .   .   . O   . .   .   . O . O   . O .   . O . O   .     . O   .   O . O   . O   . . O . O   . .   .   . O   . .   .   . O . O   . O .   . O . O   .     . O   .   O . O   . O   . . O .     . .   .   . O   . .   .   . O . O   . O .   . O . O   .     . . O . O   . O   .   O . O . . O O . .   O   O     O       O   O   O   . O       O   O       O     O     O     O . O   . . O . O   . .   .   . O   . .   .   . O . O   . O .   . O . O   .     . O   .   O . O   . O   . . O . O   . .   .   . O   . .     O . .   .     . O .         = 5 u D ..w.g.0.` M e ;   . . . O +   O   ",
", %     X   .   + 5 l _ q.g.w. .x 7 , + O   # #                           .       .   O     #   O       .                     .   O   .       O     #       #                         .       .     . O       . # O                   O     #       #             .                   O               #     #     O                   .                             O #                   O     #                 O                   O   .                   O   .                                                                     O .       .             O         #               O         # O               .           O         .       O O % , 0 n o.k.g.q._ j 5 O X .       O O   .           .   O 5 j _ a.B.k.&.p 2 = % O                         .     #         .                           .   O   .     .         O   .                   O   .                 O .     #     #               O                   .     O       #       O             .   O     #       #         #     #     O                   O   .             . O               O       #     #           O         #                                                                   .               O                 . O       .     O     .                   O           O       O .       #   O       .         # O     . O           O   O       O % % , 8 V -.g.p.>.I d ,     O . .         ",
", % X X X   . . = e F =.p.g.,.K u , O                           .             #                                                                                       #                                                 .                                                                                       .       .           O             X #         #                                         #               .                                                                                                                                                       .                       .                   O O O     O # O O     O O     O , e K 7.f.p.=.V 8 *   .   O O O                 .   % w V ;.j.g.8.E 0 %                                                                                                                                                                     #       .       .           O                                                                                   .                                                                           .                                   O #                         #                                   .                                                       .                                                             O   .     . O . O # O #     . , d / 8.g.p.;.F 9 % O + O           ",
"O O   X     O O 2 j { r.g.w. .c 8 % O                   X                     X   #     .       .     #               #           #         .   .       O .                       #       O #     #     #                               .       O .                                       .       O       .                             #                         .         .     .     .                       .                                                                                                                                               .                       #     . .                                 O O . O     # O         O = 5 j  .q.f.9.U y , O     O                   .     % g ( 9.j.w.` m 5 O O #                                                               #           #       #                                                       #     .                                                   #   .       .                       .       O .       O       .     .                                 O . X     #     .     .         #             #                                                             #                                 .                       #       #                                       #     .         .       .     #                               #       O       O O   % 0 c _ q.p.r.' s , - + .         O ",
"  . X   O + O % 5 m #.p.f.>.J p 2 O O         #     .         .                                                                                                             .                                                       .                     .                   #     .                                                                                                                                           #                     #     .                                                                                                                                                             O O                 O   #   O     O % 0 ^ 7.f.q.` g 5 - # O       .         O .   .   = v O.f.f.>.S p , O O X . #                 .           #                     #                                 #                     #     .                 #                                                                                 #         #                                                     #                                                           . #                                                                               O               #                                                       #     .                     #                                         O   O     O # O     O       #   % , y S >.f.s.:.j 7 , & O           ",
"X X     + % % = 7 S 4.g.h.O.n 0 %     X                                                                                                                                                                                                                                                                                                                                                                                                                                                                                                                                                                                                   O         O   # @ . X 1 S >.f.g.+.c 7 % + #                 O O       , n >.c.g.O.j 5 ; O         X                                                                                                                                                                                                                                                                                                                                                                                                                                                                                                                                                                                               X O O #     O X X % 5 n =.f.f.<.n 0 3 % .           ",
"X     O % % O % 0 J 8.g.p.X.x 7 O . .         # .                                                                                                                                                                                                                                                                                                                                                                                                                                                                                                                                                                               O           # O O   # O     X X = V >.c.g.+.n 7 = .             .     .   . .   2 V 7.m.g.#.f , % O @ #     #                                                                                                                                                                                                                                                                                                                                                                                                                                                                                                                                                                               O   O   O     O   #         #   O O 1 j -.j.c.8.n 0 3 % O         O ",
".   O * % O O + 5 S 1.g.s.' x 5 % .                                                                                                                                                                                                                                                                                                                                                                                                                                                                                                                                                                                                         O           O X X X = V ,.f.p.+.c 7 %   . X     O O   O           O 2 V 7.c.a.#.f , %                                                                                                                                                                                                                                                                                                                                                                                                                                                                                                                                                                                                                 O O       O @ , j 1.c.f.0.x 5 = + O     O     ",
"    O % O O   O 5 V ,.p.s.X.x 7 %     X     X # X                                                                                                                                                                                                                                                                                                                                                                                                                                                                                                                                                                                                               = S 8.g.p. .x 5 %       X     O O O           O 5 V 9.f.p. .g , ;                                                                                                                                                                                                                                                                                                                                                                                                                                                                                                                                                                                               O   #   O O                   @ , x 1.v.f.1.d 2 % O     O O     ",
".     O     X O 2 n -.p.p.@.n 7 =                                                                                                                                                                     # #       #         .                                         #   #                                         #                 #               .     .         #             #                       # #       #         # X                                 #                                                                                                                                                                                             2 S 7.f.q.` j 3 O               O O O   X     . 2 x =.f.p.O.k 2 %                                                                                   . #               .                     #                                             #       #       #                                             .             #   .                       #           #                                     . #   #                                                                                                                   .                                                                                                                                                             O O 5 n 8.c.f.-.d = O     O O O     ",
"              O 2 n :.g.p.@.V 7 % .                 o O                                                                                                                                                                                                                                                                                         #                         # #                         o               # #           . X .   #           . X X # #                                                                                                                                                                                               2 J >.f.q.` g 5 O     X X                   .   = j @.p.p.O.j 5 % O             #                                                                                                                                                                                                                                                                                                                                                                                                                                             X                                             X                                                             # # #                                             O % 5 n 7.v.f.=.d 1 O       O       ",
". .           O 5 V 1.p.p.O.V 0 %       .                                                                                                                                                                                                                                                                                                                                                                     # o #       #   # # O                                 o                                                                                                                                                                                         O 5 S ,.f.q._ j 5 % O           . .               = j @.p.f.O.j 5 ; O O         # .                                                                                                                                                                                                                                                                                                                                                                                                                                                                                           .                                                                                                               @ O 2 n ,.c.c.1.j , O O             ",
"    X   X     O 5 V 1.f.f.;.V 7 +       X             X                                                                                                                                                                                                                                                                                                                                                                                                   #   # #     #                                                                                                                                                                                         2 J >.p.q.` f 5 % O O                           = j @.p.f.-.j 2 = O O         X                                                                                                                                                                                                                                                                                                                                                                                                                                                                                                                                                             #                                                 O 2 x ,.v.c.<.x 3 %               ",
".     X     X O 7 V ,.f.f.;.n 7 O                                                                                                                                                                                                                                                                                                                                                                                                                                                                                                                                                                                                                               2 S >.g.q.` l 5 ; O O                     O #   = j ;.f.g.+.g , % O                                                                                                                                                                                                                                                                                                                                                                                                                                                                                                                                                                                                                           O , x >.v.c.7.x 5 % O             ",
"  .           O 5 V ,.f.p.@.n 7 %       .                                                                                                                                                                                                                                                                                                                                                                                                                                                                                                                                                                                                                       2 S 7.p.q.` x 7 =       X                       , x =.f.g.O.f , % O                                                                                                                                                                                                                                                                                                                                                                                                                                                                                                                                                                       # #                                                 O 2 c ,.v.c.,.v 5 % O             ",
"#     O       @ 5 V >.f.p.@.n 7 + .                   #                                                                                                                                                                                                                                                                                                                                                                                                                                                                                                                                                                                                         2 S ,.f.q.` l 2 %       O     O O O   X     % O 2 n >.g.f.O.a = O                                                               .                                                                                                                                                                                                                                                                                                                                                                                                                                                                                                             X                                               O 2 n ,.g.f.=.j 5 % O     X     O ",
"O   O O O     O 2 V >.f.p.O.n 7 %                                                                                                                                                                                                                                                                                                                                                                                                                                                                                                                                                                                                                             O 2 S >.p.q. .l 5 %               O O       O + O 2 n >.c.g.O.d ,                 X #                                           # X                                                                                                                                                                                                                                                                                                                                                                                             .   #                                         .                                                             .   #                                             O % 5 x -.f.f.=.d 2 %           O   ",
"  O O .   .   O 5 V ,.f.p. .n 7 %                     #                                                                                                                                                                                                                                                                                                                                                                                                                                                                                                                                                                                                         2 V =.f.p. .j 5 %   . O             X       O   , x >.f.f.O.f , %           X                                                     #                                                                                                                                                                                                                                                                                                                                                                                       #                                                                                                                 #                                               O O 2 n <.f.f.>.j 2 % O             ",
"            . O 7 F ,.g.p...n 7 ;                                                                                                                                                                                                                                                                                                                                                                                                                                                                                                                                                                                                                               2 n =.p.q. .v 5 O   O                     O     = x =.f.f.=.j 2 %         #   .                                                                                                                                                                                                                                                                                                                                                                                                                                                                                                                                                                                                               + 2 x ;.c.c.<.j 3 % O       .     ",
"        . .   O 7 S 8.f.a. .x 7 %   O   #                                                                                                                                                                                                                                                                                                                                                                                                                                                                                                                                                                                                                     O 2 V =.p.p. .v 5 %     O                 O   .   , x =.f.g.-.j 2 % X                                                                                                                                                                                                                                                                                                                                                                                                                                                                                                                                                                                                                         O O 2 x >.c.c.>.x 2 O         . .   ",
"      .   . . O 7 S <.f.g. .n 7 =                     .                                                                                                                                                                                                                                                                                                                                                                                                                                                                                                                                                                                                         2 V -.f.p. .x 5 %     O           X             , x =.f.f.-.j 3 %                                                                                                                                                                                                                                                                                                                                                                                                                                                                                                                                                                                                                             O 2 x >.c.c.,.j 2 % O             ",
"O     .   .   O 7 S ,.g.a...x 7 %                                                                                                                                                                                                                                                                                                                                                                                                                                                                                                                     #                                                                                                         2 V =.p.p. .x 5 O   O O                     .   = x =.f.g.O.k 2 %                                                                                                                                                                                                                                                                                                                                                                                                                                                                                                                                                                                                                           O O 2 n >.c.c.1.j 2 % O       .     ",
"          .   O 7 S <.f.a. .n 7 % O                                                                                                                                                                                                                                                                                                                                                                                                                                                                                                                       #                                                                                                   O 2 V O.p.p...v 5 %     O                 O       , x =.f.g.-.j 2 O                                                                                                                                                                                                                                                                                                                                                                                                                                                                                                                                                                                                                           # O 2 x <.c.c.>.j 2 %           .   ",
"O       . .   + 7 S 8.f.a. .n 7 %       .                                                                                                                                                                                                                                                                                                                                                                                                                                                                                                                             #     X                                                                                   2 V =.f.p. .v 5 +                               = x =.f.f.-.k 2 % X                                                                                                                                                                                                                                                                                                                                                                                                                                                                                                                                                                                                                         O O 2 x =.c.c.>.j 2 % O       .     ",
"      # .     O 7 S ,.g.a. .n 7 ;                                                                                                                                                                                                                                                                                                                                                                                                                                                                                                                       #                 #         .                                                                         O 2 n -.p.p. .x 5 %   O O           X     O O .   = x =.f.f.-.j 2 %                                                                                                                                                                                                                                                                                                                                                                                                                                                                                                                                                                                                                             O 2 x <.c.c.,.j 2 %         .     ",
".       .     O 5 S ,.f.p. .n 7 %                                                                                                                                                                                                                                                                                                                                                                                                                                                                                                                                                                                                                               2 V =.p.p. .x 5 %   O         X             .   , n ;.f.f.-.j 2 %                                                                                                                                                                                                                                                                                                                                                                                                                                                                                                                                                                                                                           O + 2 x ;.c.c.<.j 2 %           .   ",
"      . . . . O 7 S ,.f.a. .c 7 =                                                                                                                                                                                                                                                                                                                                                                                                                                                                                                                                                                                                                             O 2 n =.p.p. .v 5 %     O               X O       , x ;.f.g.-.k 2 %                                                                                                                                                                                                                                                                                                                                                                                                                                                                                                                                                                                                                             O 2 x <.c.c.>.j 2 % O       .     ",
"              O 7 S ,.f.g. .n 7 ;       O                                                                                                                                                                                                                                                                                                                                                                                                                                                                                                                                                                                                                       2 V =.p.p. .v 5 %     O                 O       = x =.f.f.O.k 2 %                                                                                                                                                                                                                                                                                                                                                                                                                                                                                                                                                                                                                           . O 2 x >.c.c.<.j 2 %           .   ",
"  O   .   .   O 7 S 8.f.a. .n 7 %   O   .                                                                                                                                                                                                                                                                                                                                                                                                                                                                                                                                                                                                                     O 2 V -.f.p. .x 5 +     O O                       , x =.f.g.-.j 2 O                                                                                                                                                                                                                                                                                                                                                                                                                                                                                                                                                                                                                             % 2 x >.c.c.1.x 2 % O       .     ",
"      .   .   + 7 S ,.f.a. .n 7 %                                                                                                                   #                                                                                                                                                                                                                                                                                                                                                                                                                                                                                                           2 V =.p.p. .x 5 %   O             X       O .   = x =.f.f.=.j 2 %                                                                                                                                                                                                                                                                                                                                                               #   #           #     # .   X #       #   .                 # O                                                                                                                                                                                             O + 2 x <.c.f.,.j 2 %               ",
"  O     . .   O 7 S ,.f.w. .n 7 =                                                                                                                       #                                                                                         X                                                                                                                                                                                                                                                                                                                                                                                                           O 2 V O.p.p. .v 5 O     O                         , x =.f.f.=.k 2 %                                                                                                                                                                                                                                                                                                                                                               #       .   . X   # #                 #                                                                                                                                                                                                                       O 2 x =.c.c.>.j 2 %         .     ",
"      . .     O 7 S ,.f.g. .n 7 %       .                                                                                 #                                                                                                                                                                                                                                                                                                                                                                                                                                                                                                                                     2 V -.f.p. .x 5 %   O O     X         X O O     = x =.f.g.-.j 2 O                                                                                                                                                                                                                                                                                                                                                                                 # o       # # .                                                                                                                                                                                                                           O O 2 x >.c.c.<.j 2 % O       . .   ",
"@       .     O 7 S ,.f.a. .c 7 =       X         .                                                       # .     X         .     .   .   #         O                                                                                       X .     .     .     . O O       O                                                               .                       X       .   .     .                                                                                                                                           # O       #     # O     X .     . . . O   .   O                                                                             O 2 n =.p.p. .v 5 O   O                       .   , x =.f.f.O.k 2 %                                                                                                 X     .   .                                                                                                                                                 .   .   .   # .   .   .       X O                                                                               O       #   O O # O   X   . #                                                                                                               O .   .                                                                                             O 2 x =.c.c.,.x 2 %         .     ",
"      .       O 5 S 8.f.a. .x 7 %                   # #                                                   . . O O   X X O O O   . .   . O O O   .     O   O       O .   O .   O .   . O   O .   O   . O   O O   O . O       .         . .             .     .   + % + O . O O % O O O                                                                                 O X #     . . . . o . . . + % O O .   O .   O .   O .   . O   O . O O . O O .   O .   O .   O   O .   O . O .   O .   O . O   O .   O .     O     O   O         O   O     O O O O         .   . + . . O % % O                                                                             2 V =.p.p. .x 5 O   . O O                 O     = x =.f.g.O.k 2 %               #                                                         O O O .   + O O     X X         O . + . O . O     O     O   O . O . O O . O O .   O . O   O .   O . O O .   O .   O .   O .     O .   O . O . O   . O   O .   O . O . O O . O .   O . + O O .   . . + + O .         O                                                                             O O   . X . O % * & @ .   . .       .       O   O .   O .   O . O . O O . O   O .     O   O .   O . O .   O .   O . O   O .   O .   O .   . O O O # X     X .             O                                                                       O 2 x >.c.c.<.x 2 %         . .   ",
"O       . .   + 7 S 8.f.a. .n 7 % O                                                                     . + O .     X   @ O O .   .   # O O O O O O   O O   O O O   O O   O O O O O O O O O O O O O O   O . O O O O O O O O O     .           # .               O + + O O .   O O O O                                                   X .                                 .   X . . # + + . . + O % O O O O O O O O O O O O O O O   O O   O O O   O O O O   O O O O O O O O O O   O O O O   O O O O   O O O O O   + O O O   O O O O O O O + O   O O O @   . . . . . . . . O % % . X                   .                                                     O 2 n =.p.p. .v 5 %     O                     .   , x =.f.g.-.j 2 %                                                                           O     . . O O . X X X X @   @ + + O O O O   O O   O . O O O O   O     O   O O O   O O O   O O O   O O   O O O O   O O O O O O O O O O O   O O O O O O O O O O O   O O     O O O O + + + O . .   + % % + . .   X   O                                                                       X   O % O .   .   O % % % O # . . .   O O O O O   O O O O O O O O O O   O O   O O O O O O O O O O O O O O O   O O O O   O O O O   O O O O O   O O O O O     X X X     O O                                                                             O + 2 x >.c.c.>.j 2 %               ",
"        .     O 7 S 8.p.a. .c 7 % O                   #                                                   O .     X X       O O     . O % O O O     O   O     O   O   O O O     O   O   O   O   O   O O O O O O   O O % % % O % O O O O O O O O O O O O % O O     X O +           @ O O                                                                           .     O O @ @ O O % = % % O   O   O   O O O O O   O   O O   O O   O O O     O O O   O O O O O O O O   O O O O O O   O O O O O O   O O O   O O O O   O O   O O O O O   O   O O O   O O O O O . . . . . .   . O                                                                                 2 V =.p.p. .v 5 %   O                   O   .   = x =.f.f.-.k 2 % X             #                                                                   . . + .   X X O O O O % % O O     O     O   O O       O O     O O O O O O O O   O O O   O O O O   O O O O O O O O O O   O   O O   O   O   O O   O   O   O O O   O O O         O O     O O % + O   X   O O                                                                               + +     .           X O O % % % O O O O O O O O O   O   O   O   O O O     O O   O   O O O   O O O O O O   O O O O O O   O O O   O O O O % O % O O       X   O O O % O                                                         .                   O 2 x <.c.c.1.j 2 %         .     ",
"      # .   . O 7 S 8.g.a. .n 7 %                                                                       O O     X X         O * % = 1 5 7 w 0 0 0 0 0 0 0 0 7 0 0 0 0 7 0 7 0 0 0 0 0 0 0 0 0 0 0 0 0 0 7 0 7 0 0 0 0 e e e e e e e w e e 0 e 0 w e e 0 9 2 % O         .   . X     O                                                                             . O         @ % = 5 7 0 0 0 0 w w 0 0 0 7 0 0 0 0 0 0 0 0 0 0 0 0 0 0 0 0 0 0 0 0 0 0 0 0 7 0 0 7 0 0 7 0 7 0 0 0 0 0 0 0 7 0 0 0 0 0 0 0 0 0 0 0 0 0 0 0 0 0 7 0 0 0 0 0 7 0 0 0 9 7 5 , , % O     .   . +   X   X                                                                         O 2 V -.f.p. .x 5 %     O           X     O       = x =.f.g.=.j 2 %                                                                                     . . . O O % ; 2 4 9 t e 0 0 0 0 7 0 0 0 0 0 7 0 0 0 7 0 0 0 7 0 7 0 0 7 0 0 0 0 0 0 0 0 0 0 0 0 0 0 0 7 0 0 7 0 0 0 0 0 0 0 0 0 0 0 0 0 0 0 0 0 0 0 0 0 0 0 0 0 0 0 7 9 5 7 7 9 5 6 2 % O O         O O O O                                                                           O O .     X . X X X O % 2 e u e 0 0 7 0 7 0 7 0 0 0 0 0 0 0 0 0 0 0 0 0 0 0 0 0 0 0 0 7 0 0 7 0 7 0 0 0 0 0 0 0 7 0 0 0 0 0 0 0 0 0 0 7 0 7 9 2 1 = O X     O O O O O                                                                           O O 2 x ;.c.c.>.j 2 % O       .     ",
".             O 7 S ,.f.a. .n 7 ;                                                                       X   X X   O O + % %   O , 8 p n T '  ._  .X. .X. . . . .X. . .X. .X. .X. . . . . . . . . . . . . . . . .O.X. . . .O. . . . . . . . . . . . . ._ V d 7 , %     X X   .     O O                                                                           . + O . X   X % 2 e d n K / ^  . .O.O. . .X. . . . . .X. . . . . . . . . . . . . . . . . . . . . . . . . . . . . . . . . . . . . . . . . . . . . . . . . . . . . . . . . . . . . . . .K n p 0 2 %   X   # % O     X                                                                             2 n =.p.p. .x 5 O   O O                     .   , x =.f.f.-.j 2 %             # #                                                         X         .     . O = , 7 y n I _ X. .X. . . . . .X.X.X. .X.X. . . . .X. . . . . . . . . . . . . . . . . . . . . . . . . . . . . . . . . . . . . . . . . . . . . .O. . . . . . . .o. .X. ._ I V y 2 ;           #   . #                                                                                 .     X   @ O ; 9 d D / .. . . . . . . . . .O. . . . . . . . . .O. . . . . . . . . . . . . . . . . . . . . . . . . . . . . . . . ._ U n d 0 2 - ; *     .                                                             #                   # O 2 x >.c.c.<.x 2 %           .   ",
"      . . .   + 7 S <.f.a. .n 7 % O                                                                       X X     O * - - % % , i V ^ O.8.d.g.f.f.c.f.c.c.b.b.f.c.c.f.c.c.c.f.c.c.c.c.c.c.c.c.c.c.c.c.c.c.c.c.c.c.c.c.c.c.f.f.h.f.f.f.h.f.f.f.f.f.c.c.p.;.I M y 5 1 O     X                                                             .                         O O .   X ; 5 s Z I  .,.r.g.f.c.m.m.c.c.c.c.c.c.c.c.c.c.c.c.c.c.c.c.c.c.c.c.c.c.c.c.c.c.c.c.c.c.c.c.c.c.c.c.c.c.c.c.c.c.c.c.c.c.c.c.c.c.c.c.c.c.c.c.c.c.c.c.c.c.c.c.c.c.c.c.c.f.v.g.u. .I n d 9 %   X   O O                             .                                                   O 2 V =.p.p...v 5 %     O               X O       = x =.f.g.-.k 2 %             X                                                               X O O     . + , 8 u l J  .r.j.j.c.c.b.c.f.f.f.c.c.c.c.f.c.c.f.f.c.c.c.c.c.c.c.c.c.c.c.c.c.c.c.c.c.c.c.c.c.c.c.c.c.c.c.c.c.c.c.c.c.c.c.c.c.c.c.c.c.c.c.c.c.c.f.c.c.c.c.c.c.c.c.c.g.v.g.g.q.;.L v t 4 ; @     . O +                                                                                   . . .   O ; 6 y l K -.w.g.c.v.c.c.c.c.c.v.c.c.c.c.c.c.c.c.c.c.f.c.c.c.c.c.c.c.c.c.c.c.c.c.c.c.c.c.c.c.c.c.c.c.c.c.c.c.c.c.c.c.c.f.a.0.O.I V a 0 5 = O     X                                                           #                     O 2 x >.c.c.,.j 2 % O             ",
"    .     . . O 7 S ,.g.a. .n 7 %                   # # .                                               X O       + % - + = 9 l ( >.q.p.v.v.c.M.c.m.c.m.m.c.c.c.c.c.m.c.c.c.c.m.c.m.c.c.c.c.m.c.c.c.c.m.c.m.m.c.c.c.c.c.c.f.c.f.c.f.c.c.c.c.c.m.c.m.m.c.p.7.>.( x 9 ; O   X   O % O                                                       X                     O O +   O 1 0 l ( ,.q.g.j.v.v.v.M.m.m.m.m.c.c.c.c.m.m.c.c.m.c.c.c.m.m.c.c.c.c.m.c.c.m.c.c.m.m.c.c.m.c.c.m.c.c.m.c.c.m.c.c.m.m.c.c.m.c.m.c.m.c.c.c.c.m.c.c.m.m.c.c.c.m.c.c.c.c.c.c.m.M.v.g.w.8. .n 9 ; @ X   O O O O                                                                             2 V =.p.p. .v 5 %                       O       = x =.f.f.O.j 2 %                                                                                       % , r n / =.q.f.j.f.c.c.c.m.m.m.m.c.m.m.c.c.c.m.m.c.c.m.c.m.m.c.c.c.c.m.c.m.c.m.c.c.c.m.c.c.m.c.c.m.m.c.c.m.c.c.c.c.m.m.c.m.c.c.m.c.c.m.c.m.m.c.m.c.c.c.c.c.m.c.c.c.c.c.v.M.c.j.g.w.=.' n t 1 O     O O .                                                                           .   + #   X   ; w n I  .7.a.v.c.m.c.c.m.m.c.c.c.c.c.c.m.m.c.c.c.c.m.m.m.c.c.c.c.m.c.c.m.c.c.m.c.c.m.c.c.m.c.c.m.m.c.c.m.c.m.c.m.c.c.c.c.c.g.g.a.4.` V 0 ; %   X                                                                                 O O 2 x >.c.f.<.j 2 % O       .     ",
"  O       .   O 7 S 8.g.d. .n 7 % O                                                                       O @ O   O % % = 7 l ( 8.f.c.f.a.u.8.8.9.9.<.9.<.<.<.8.9.9.>.<.<.9.<.8.<.<.9.<.9.<.<.9.9.9.<.<.9.>.<.<.9.<.<.>.<.<.>.<.<.<.<.>.9.<.9.0.9.7.7.q.q.f.j.w._ x w 1 @     O * O O   X                                                                           O % 1 e x _ 7.g.v.v.a.8.7.8.0.8.<.<.9.<.<.9.<.9.<.<.<.9.<.<.9.<.<.<.9.9.<.<.9.<.<.<.9.<.<.8.<.9.9.<.<.<.9.<.9.<.<.<.9.<.<.8.<.<.<.<.9.<.<.9.9.<.<.<.9.<.<.8.9.<.<.9.<.9.9.<.8.7.7.d.g.N.N.k.o.n 0 % X X X % * + .                                                                         O 2 V -.p.p. .x 5 +   O O                         , x >.f.f.-.k 2 %                 .                                                                   % 2 e V  .t.v.v.g.p.8.-.1.<.<.<.>.9.>.>.8.<.9.<.9.<.<.<.9.<.<.9.<.<.9.<.8.9.<.<.<.9.9.<.<.9.<.<.<.9.<.<.8.<.<.9.<.9.<.<.<.<.9.9.<.<.<.9.<.<.<.9.<.<.9.9.8.9.<.9.<.<.<.8.r.8.7.7.w.p.f.n.q.X.n e 1 O   . O O                                                                               % O     % 0 n ..8.d.g.d.w.7.9.<.9.<.<.<.9.9.<.<.<.<.9.<.<.9.8.<.<.<.9.<.9.<.<.9.<.9.9.<.<.<.9.<.9.<.<.<.9.<.<.8.<.<.<.<.9.<.<.9.<.8.q.p.g.g.g.u...m e 2 %                                                                                   . O 2 x >.c.c.>.j 3 %       .       ",
"        .     O 9 S ,.f.a. .x 7 % O                     .                                                 O O O O O # = w M X.q.h.h.s.,.` D j j d d d j d j d d d d d d d d j d j d d d d d d d d d d d d d d d d d d j d j d j j d j j j j x x x x m T :.q.p.a.r. .V w = % % % + O                                                                                 O , e C +.8.a.g.a.1.( V x l d d p d d d d d d d d d d d d d d d d d d d d d d d d d d d d d d d d d d d d d d d d d d d d d d d d d d d d d d d d d d d d d d d d j j d d j d j n Y #.r.g.g.a.-.C w % O   O O + O .                                                                         2 V =.p.p. .x 5 %     O           X             , x =.f.f.=.j 3 %                                                                           . . . O O , y S  .q.a.a.r.1._ V j d d d d j d d d d d d d j j d d d j d d d d d d d d d d d d d d d d d d d d d d d d d d d d d d d d d d d d d d d d d d d d d d d d d d d d d l d d j m Y  .7.g.g.p. .V e % O O   #                                                                         .     + O O = 0 M $.w.g.p.w.1.' n j d d d d d d d d d d d d d d d d d d d d d d d d d d d d d d d d d d d d d d d d d d d d d d d d d d j S ' 1.r.w.a.u.&.D y 2 = O O O                                                                             O 2 x >.c.c.<.x 2 % O       .     ",
"X O         . O 7 S ,.f.g. .x 7 %       .                                                               .   .   O O % 9 v ' q.h.s.9. .S j 0 3 3 3 , , 2 , , , , , 2 , 2 , , , , , , , , , , , 1 , , , , , , , , , 1 , 2 2 2 2 2 2 2 2 2 5 3 8 5 5 5 8 p V _ >.a.g.a.X.v e , % O O % O   X                                                                           ; w V +.a.z.w.,._ S d 0 5 2 , , = , , , , , , , , , , , , , , , , , , , , , , = , , , 1 , , , , , , , , , , , = , , , 1 , , , , , , , 1 , , , , , , , 1 , , , , , , , , , , , 2 9 i M Y =.w.v.g.+.M w ; @ @ O O   .                                                                       O 2 n =.p.p. .v 5 %     O                 O   #   = x =.f.g.=.k 2 %                                                                           . . O % , 0 V O.q.p.q.:.( S j t 5 , 2 , , , 2 , , , , , , , , , , , , , , , = , , , , , , , = , , , , , , , , 1 , , , , , , , , , 1 , , , , , , , , , , , , , , , , , , , , , , , 1 , 2 0 p m _ 1.g.j.q.@.M w ; O #                                                                                 O % = 9 m ` 8.g.a.=._ J x 0 , 1 , , , , = , , , , 1 , , , , , , , , , , , , , 1 , , , , , , , , , = , , , 1 , , , , , , , 1 , , , 2 e l V ( -.w.z.k.-.C y 2 = O                                     . # #   #                               O + 2 x >.c.c.>.j 2 %         .     ",
"    .   . .   O 7 S ,.f.a. .n 7 %                   X #                                                       . O = 7 n  .s.h.h.;.Y j 0 , - O O O O O O O O O O O O O O O O O O O O O   O O O O O O   O   O O O O O O O O O O O O O O % O % % % % % - , 7 d I =.p.g.w.+.A 5 O O O + * #                                                               X #   #     O 6 x +.a.N.g.=.I y 2 , % O   O % % O O O O O O O   O O O O O O O   O O O O O   O O O O   O O O O   O O O O O   O O O O   O O   O O O O   O O   O O O O   O O O O O   O O O O O % = 2 2 e n  .w.v.g.-.S 7 % O O                                                                               2 V =.p.p. .v 5 %   O                 X O       = x =.f.f.-.k 2 O                                                                   .     + + + O = e M X.e.s.9.X.F p 7 2 2 = % O O O O O O O O O O O O O O O O O O O O O O O O O O   O O O O O   O O O O   O O O O O   O O O O O O   O   O O O O O O O O O   O O O O O O O O O % = = , 5 p S +.w.g.w. .M 7 %                                                                                     % 7 c $.w.g.a.+.V s e 7 = % O   O O O   O O O O O O O O O   O O O O   O O O O O O   O O O O O   O O O O   O O   O O O O O O O O % , 7 0 y C +.k.z.k.$.m w %                               X # #                                             O 2 x <.c.c.1.j 2 %         .     ",
"O .       . . O 7 S ,.f.a. .n 7 % O                                                                     . . . . % 2 d I q.c.f.>.I j 7 = O     #     .                                                                                     . X O O O . O % 2 p J =.g.c.q.( y ,     O %                                                             .             O = t / w.v.v.8.I p 1     . X X   + O                                                                                                                                             O O O O = i V -.g.M.g. .p 2 %                                                                               O 2 V -.f.p. .x 5 O .   O O   X                   , x =.f.f.O.j 2 %                                                                   X   . O & + O 2 d I 9.s.s.;.L p 2 % O O O # .                                                                                                                                             O O % O   % 2 p I >.g.g.8.^ d ,                                                                                     , p K 8.g.g.,.J t 2 , %                                                                                               .           % % % 1 y I ,.g.g.,.I y 1 O                                           #   X X       .                   O O 2 x ;.c.c.>.j 2 % O             ",
"      .       O 7 S ,.f.a. .c 7 =                                                                       . . . X = 0 V  .p.c.q._ d 5 , = % .   O   O O   O O     O             O                               O     X     X                 X             O 1 y Y q.c.f.O.M 9 %   O   O                                                       # X     #   #     % 0 V O.g.M.g.+.x 5 = O X   .   O O O O                                             O         O                     O         O     O         O     O         O                   O   O O ; 5 s ^ 7.j.g.-.J y ,     .                   .                                                       2 V =.p.p. .v 5 %     O                     .   , x =.f.g.=.j 2 %                                                                 # #     O % - = 9 M ] 9.f.7.' x 7 = O     .   O       O             O     O                                       O         O                               O O                           O O .   .   O = 7 x _ r.j.p.=.C 0 = O                                                                       X     O = 7 V  .w.g.7.^ d 2                           O                                                     O         O         O               O % 7 x / w.a.,._ n 9 = O X X .                   #                                                 # O 2 x >.c.c.<.x 2 %           .   ",
"      .   .   O 7 S 8.p.g. .n 7 %   O                 #                                                     O O 1 g ^ 8.g.g.+.V 0 % O % @ O     O             O     O   O O         O     X     O   X           O                     X         X @     .   O 2 n =.g.c.8.) s ;         O O                                                   X #             # , j ( 7.v.g.8.J w O O   . . .   . O O                   @               @               X               @               X               X               X                     X     .   O % = 7 n  .w.a.w...c , O   .                                                                         O 2 n =.p.p. .x 5 O     O                 O       = x =.f.f.-.k 2 %                                                                         O % % , t L 1.a.p.-.D y , O #       . O   O   O   O   O     O   O                 O X         @               X                 X     O   X               X   X                   O O     . . . O , e Z ;.p.g.8.` s , %                                                                       .     % 2 a ) 8.p.a.#.M 7 O   X .           X                                                   @               X               X           . . X % , e V -.w.7.#.P d 2 O                                                 .         .                 O 2 x >.c.c.,.j 2 O O         .   ",
"O       . .   + 7 S 8.f.w. .n 7 =       #                                                               X O + % 2 l  .g.v.w.D u 2 O O .       X       O           @                     .                                   #               O   O O O O # .   ; y Y >.f.a.o.x 2 O X X O O O                                                                     2 Z O.g.g.>.I s 1 X     O O . .   O O                                                                                                                                             .   .     O 1 y A +.a.a.+.n 2 O                         #                                                     2 V -.p.p. .x 5 O   O O                         , x =.f.f.O.j 3 % X                                                                         % = 2 g ] r.g.8.^ p 2 O   .           #                         O   O                                                       .                                                   X         .       ; t Y 8.g.g...h 2 % #                                                                   # .     % 5 v -.g.g.7.L i ,   . . . .                       #           #                                                                     . . .   = 5 f Y =.p.r.o.n 5 O   O                         . .               # X                         O O 2 x >.c.f.<.j 2 % O       .     ",
"X     . .     O 5 S 8.f.a. .n 7 %                                                                       O O O O 2 M =.g.v.4.c 5 % . #     X                                                                           O                     # O     . + + .   % w V @.p.p.=.V 2 O X     O O                                                   .     #     #     2 S >.g.g. .v 5 O X X   O %                                                                                                                                                           . .     % 7 j  .a.a.O.n 2 X                                                                             O 2 V =.p.p. .v 5 %   O             X     O O .   = x =.f.g.-.l 2 %                                                               #         O % ; 2 g  .g.g.8.V 7 O   .   . .                                                                                                                                                             .   X   2 n =.v.z.+.d 2 % X                                                                           O 5 c ,.c.f.=.n 6 O #   # # O                                                                                         .                 . . # O ; 0 V =.p.p.O.n 9 O X O                                       X .                             . O 2 x >.c.c.>.j 2 %         .     ",
".       . .   O 7 S 8.p.g. .n 7 % O                                                                 X     # O O , x >.c.v.,.j 5 % .           .   X                                                                                       .             O #   % 7 m #.a.p.=.V 5 O                                                       #                       2 V <.f.g. .j 5 O     O O . . .                                                                                                                                                         .     ; 7 c o.a.p.=.n ,   O                                                                           O 2 V =.p.p. .x 5 % .   O               X         = x =.f.f.=.j 3 %                                                                           O ; 3 j O.f.f.>.V 2 O . .                                                                                                                                                               . O         , n >.f.f.O.f 2 %                                                                             % 2 j <.v.f.=.n 1 O O   . O                                                                                                                     ; 7 S =.p.a. .n 7 %                                                                           O + 2 n ;.c.c.1.j 2 %           .   ",
"      .   .   O 7 S ,.f.a. .n 7 %                                                                         O O O , x >.c.c.1.j 3 %       X             #                                                                                               #       % 7 m +.p.j.=.S 5 O     #                                                                         2 V >.f.a.` g 5 %   # . .                                                                                                                                                           .   X   O % 7 j o.a.p.=.V 2     O                                                                           2 n -.p.p. .n 5 O   O                   O   O   , x =.f.f.=.j 2 %                                                               .           O % 2 j -.f.c.>.n 2 O           . .                                                                                                                                                                 , n >.f.f.O.j 2 %                                                                             % , j >.c.f.>.n 2 O . .                                                                                                                 O .   # O 5 V :.p.d...x 7 %                                                                             O 2 n <.c.c.>.j 2 % O             ",
"      .   . . O 7 S 8.f.a. .c 7 %       X                                                                 O O O 2 x >.c.b.<.j 2 O # O                                                                                                                   X     % 7 n #.d.p.1.S 5 O O   . X                                                         X   # #       2 V >.f.g...d 2 %       #     .                                                                                                                                                     O     O X ; 5 c  .a.f.=.V 2 O @                                                                           O 2 V =.p.p. .l 5 %   O                   O       = x =.f.g.-.k 2 %                                                                 X       O O % 2 j =.f.c.>.n 2 O . .     O   O                                                                                                                                                     .           , n >.f.f.O.j 2 % #                                                                     O     % 2 j =.n.f.>.x , O .     .                                                                                                               .     % 5 S =.p.p.+.n 7 %                                                                           . O 2 x =.c.c.>.j 5 % O             ",
"  O     .     O 7 S ,.g.p...n 7 % O     #                                                               . O   O , x >.c.b.=.j 2 % O   X   .                                                                                                       X           % 7 M +.a.p.=.V 5 O   .                                                     X     .               2 V >.f.p.` l 2 % @   O   . . .                                                                                                                                                     .   X   O % 5 c o.a.p.@.V 2       O                                                                         2 V =.p.p. .c 5 %     O               X     .   , x =.f.g.O.j 2 % X                                                                   # O X O % 3 j =.f.f.>.n ,   # # X     .   #                                                                                                                                                 .   .         , n >.f.p.O.j 2 %                                                                             % , j >.c.f.=.x , O +   O                                                                                                                 O .   O 5 V =.p.d. .c 7 O                                                                             % 2 x <.c.c.,.j 2 %         .     ",
"      . .     + 7 S ,.f.a. .x 7 % O                                                                       O   O , x >.c.c.=.l 2 O                                                                                                                         X   % 7 n +.a.p.=.V 5 O                                                               .     #         2 V >.f.g.' d 2 %   O   #                                                                                                                                                           .   O     ; 7 v o.g.p.=.n 2 O                                                                             O 2 V =.f.p. .x 5 % .   O               X   O     , x =.f.f.-.j 2 %                                                               #   #     O O % 2 j -.f.c.>.n 2 O . .     O # .                                                                                                                                                       O         , n >.f.f.O.j 2 O                                                                           O % 2 j >.c.f.=.x , #   . .                                                                                                                 O .   O 5 V =.p.w. .n 7 % X                                                                           O 2 x ;.c.c.<.j 2 %       . . .   ",
"  O     . .   O 7 S ,.f.a. .n 7 %       .                                                               . O O O 2 x >.f.c.>.j 2 %                                                                                                                             % 7 m +.w.p.>.V 5 O O #                                                                         # 2 V >.f.p.o.j 5 % O           .                                                                                                                                                     .   X     % 5 k o.a.p.O.V 2     O O                                                                         2 n =.p.p. .n 5 O   O                           = x =.f.g.=.k 2 %                                                                         O O % 2 j +.f.f.>.n 2 O . .                                                                                                                                                           .               , n >.f.p.+.j 2 %                                                                             % , j =.c.f.=.x 2 O .                                                                                                                       .   O 7 V =.p.d.+.n 7 %                                                                           O + 2 x <.c.c.>.j 3 % O             ",
"      . .     O 7 S ,.f.a. .n 7 %                                                                       O     O , x >.c.c.=.j 2 %     O @                                                                                                                     % 7 n  .a.p.>.V 5 O   .                                                             X             , V =.f.a.` d 2 % O     .                                                                                                                                                           O       O % 7 k  .a.f.=.V 2 O                                                                             O 2 V -.p.p.X.l 5 %   O                   O O     = x =.f.g.-.j 3 O                                                                             % 2 j O.f.c.>.n 2 O           . .                                                                                                                                                     . O     X   , n >.f.f.O.f 2 % O                                                                           % 2 j >.c.f.>.x , O O .                                                                                                                         O 5 V =.p.r. .n 7 %                                                                           O O 2 x >.c.c.>.j 2 %               ",
"@       .     O 7 S ,.f.g. .n 7 = O                                                                         O O , x >.c.c.=.j 2 O                                                                                                                             % 7 m #.a.p.=.V 5 O                                                           .                   2 V >.f.g._ l 2 O       .                                                                                                                                                               X     ; 5 x o.a.p.=.n 2 O X                                                                             2 V =.p.p. .n 5 %     O O           X       .   , x =.f.f.O.j 2 %                                                                           O % 3 j =.f.f.>.n ,   .                                                                                                                                                               .             , n >.f.f.O.j 2 %                                                                       O     % 2 d >.c.f.=.x 2 O     .                                                                                                                   #   O 5 V =.p.a. .n 9 O                                                                             O 2 x >.c.c.>.j 2 % O       .     ",
"      .       O 7 S ,.f.a...c 7 %                                                                           O O 2 x >.f.c.>.d 2 %                                                                                                                             % 7 m  .w.p.=.V 5 O                                                       .                       , V >.f.p._ f 2 % O                                                                                                                                                                     @     % 5 j ..a.f.=.V 2                                                                               O 2 n =.p.p. .v 5 +     O       X         O       = x =.f.f.=.j 3 %               .                                                           O % 2 j -.f.f.>.n 2 O .           .                                                                                                                                                       .         1 n >.f.f.#.j 2 %                                                                           O % 2 j >.c.f.=.x , O . .                                                                                                                         O 7 V 1.s.d.o.m 7 %                                                                           O O 2 x >.c.c.<.j 5 %               ",
"        . .   + 7 S <.f.a. .n 7 =                   # .                                                       O , x >.c.f.>.j 2 % O                                                                                                                           % 7 n +.a.a.=.S 5 O   .                                                               #           2 V >.f.a. .l 2 %   O   . .                                                                                                                                                           .   X O % 7 j ..g.p.;.n 2 O   O                                                                           2 V =.p.p. .x 5 %     O                     .   , x =.f.f.=.j 2 %                                                                     .     O % 2 j O.f.c.>.n , O   .   X                                                                                                                                                         . .         X , n >.f.f.O.j 2 %                                                                             % 2 j >.f.f.=.x , O O                                                                                                                       .   O 7 V =.a.p. .c 7 % X                                                                         # O 2 x <.c.c.,.j 2 %         . .   ",
"O       .     O 7 S ,.f.a. .n 7 %                                                                         O O O 2 x >.f.c.;.j 2 O                                                                                                                             % 7 M +.q.p.=.V 5 O   .   X                                               X                       2 V >.f.a...d 2 %     O .                                                                                                                                                                     % 5 x ..p.f.;.n 2                                                                               O 2 n -.p.p. .x 5 %   O                 O   O .   = x =.f.g.-.k 2 O                                                                   X       O % 2 j O.f.f.>.n 2               .                                                                                                                                                   .   O       . , n >.f.p.O.j 2 %                                                                             % 2 d >.c.c.=.x ,   O   .                                                                                                                     . O 5 V =.p.r.+.n 7 %                                                     # #                   O O 2 x >.c.c.>.j 2 %               ",
"      # .   . O 7 S ,.g.p...n 7 %   O                                                                         O , x >.c.c.<.j 2 O # X                                                                                                                         % 7 m +.a.p.=.S 5 O                                                                     X   #     2 V =.f.a._ j 2 % O     . .                                                                                                                                                         O       O ; 5 k ..p.p.=.V 2 O   O                                                                           2 V =.f.p...v 5 %     O           X             , x =.f.g.O.j 2 %               X                                                           O % 3 j O.f.c.>.n 2 O . .     O                                                                                                                                                                     , n >.f.f.+.j 2 %                                                                           O % 2 l -.c.f.=.x 2   # .                                                                                                                 O   O   O 5 S =.s.a. .x 7 % X                                                                           O 2 x =.c.c.1.j 2 % O       .     ",
"      .       O 7 S ,.f.a. .n 7 %                   # #                                                     O O , x >.c.c.=.j 2 %                                                                                                                             % 7 n +.p.p.>.V 5 O   O                                                     #     .               2 V >.f.a. .d 5 O @     . .                                                                                                                                                         .         % 7 j ..a.p.=.V 2 O   O                                                                         O 2 V =.p.p. .v 5 O   O                   O       = x =.f.f.O.k 2 %               #                                                 O         O % 2 j O.f.f.>.n 2 O   .     O .                                                                                                                                                         O       X , n >.f.f. .f 2 %                                                                             % 2 j >.c.g.=.x , O .                                                                                                                     O     O 7 V 1.a.d.o.n 7 % X                                                                         O + 2 x >.c.c.>.j 3 %       . .     ",
"        . .   + 7 S <.f.a. .n 7 % O                                                                       O   O 2 x >.c.c.>.j 2 O     O                                                                                                                 X     % 7 m +.w.p.=.V 5 O   #                                                                           , V =.f.a...d 2 %   O   .                                                                                                                                                           .       O % 5 x o.a.f.;.n 2                                                                                 2 V =.f.p. .x 5 % .   O               X     .   , x =.f.g.=.j 2 %                                                                           O % 2 j -.f.c.>.n 2   .     X                                                                                                                                                         . .           , n >.f.f.O.j 2 O                                                                             % 2 d >.f.f.=.x ,   O   .                                                                                                                   .   O 5 V ;.p.w.+.x 7 %                                                     #                       O 2 x >.c.c.>.j 2 % O             ",
"  O   .       O 7 S 8.g.a. .x 7 ;                                                                           O O , x >.c.c.=.j 2 %                                                                                                                             % 7 M +.p.p.>.V 5 O       X                                                     X                 2 V >.f.a.' f 2 % @     .                                                                                                                                                           .   X X O % 5 x ..a.s.;.V 2 O                         #                                                   O 2 V =.p.p. .l 5 O   O O O                 O     = x =.f.f.-.k 2 %               #                                                           O % 2 j O.f.c.>.n , O     .     .                                                                                                                                                         .         , n =.f.f.O.j 2 O #                                                                           % 2 d >.c.f.=.x , O O .                                                                                                                     .   O 7 V 1.s.r.+.M 7 O                                                                           . O 2 x <.c.c.<.j 2 %           .   ",
"        . . . O 7 S ,.g.a. .n 7 =                                                                           O   , x >.v.c.=.j 2 %                                                                                                                             % 7 m  .w.a.1.V 5 O                                                                           #   2 V >.p.g. .l 5 % O                                                                                                                                                                           ; 5 l ..a.f.=.V 2 O                                                                               2 V =.p.p. .j 5 O                         O .   , x =.f.f.+.j 2 %                                                                             % 2 j =.f.f.=.n 2 O .   X                                                                                                                                                           .             , n >.f.f.O.j 5 % O                                                                         O O 2 l >.v.v.=.x , O O                                                                                                                           O 7 V =.p.a. .n 5 %                                                                             % 2 x ;.c.c.,.j 2 % O       .     ",
"      . .     O 9 S 8.f.a. .c 7 %                                                                       #   +   , x >.c.f.>.x 5 %                                                                                                 . .   .   . O .           O , 0 x  .a.a.2.V 5 O                                                           O   O           O   5 V >.f.p.O.m 7 =       X   O                                                                                                                         .     . . .   .                   X     % 5 k ` w.f.<.S 5 O     .                                                                       O 2 S >.f.p...f , .     X X   .   X X     O + O O , n >.f.q. .j 2 % O .                                                                 O   .   % 7 x =.p.f.>.n 2   .       X       .                                                                                                         .     .   .   .         . .     O                 X 1 n =.f.g.+.n 7 %                                                                             O , d =.v.f.,.c 2 O + O X X X         . .     .     .   .                                                                               X #   O = 0 S =.p.s. .x 7 O     .                                                                       O 2 x >.c.f.>.j 2 % O         .   ",
"@           . O 7 S 8.p.a. .n 7 =                                                                       . . . O , n >.c.c.-.j 2 % .                     .                               .                               . .         .           .   .   .   O , 0 x X.a.a.2.C 2             O                                               O         O O       2 V =.p.a.+.c 7 ;   O X X                                               .                                                               .                               . .             .     ; 5 g ] w.g.=.S 5 O   .                                                                           2 V ;.s.q.` k 3 .   X X   X       X X O & & O . , n =.p.q.O.l 2 % O . X X       #                                                           O % 7 n =.a.a.O.x , O O O .     X X                                                         .                                                             .       .         .           X         O 2 n =.p.a.-.c 7 =                                                                             O 2 j =.f.g.-.c 2 O O   X     .             .           .       .         .                                               .             X     O = 0 V ;.p.p.X.x 5 %                                                                           O + 2 x <.c.c.,.j 2 %               ",
"O     . . .   O 7 S 8.f.a. .n 7 %   O   O                                                               . . + O 1 n =.f.f.-.d , % % O . O                                                                                                               .   % = 7 x ' w.a.-.S 2 O                                                             #       X         1 n @.q.7./ d 2 %     .     O                                                                                                                                                       O O       % 5 j ] w.p.1.V 2   . . .                                                                         , n X.e.q...c 5 - . O O X           O % % + O X , x =.p.p.;.x 2 O   X .                                                           O #     . . % 5 n =.p.p. .j , O + + % O O     X                                                                                                                                           O .         O O O O , n @.q.w...x 5 ;                                                                         O O = 2 l =.g.a.+.j , O % O @   X   .                                                                                                           . O % 7 V ;.s.e.' l 5 % O + O                                                                     O O 2 x >.c.c.<.j 2 % O       . .   ",
"          . . O 5 S 8.f.a. .n 7 =       .                                                                 O . O 2 n =.c.f.;.d 2 % O O O O O                                                                                                             . . O = 7 l ' r.w.+.V 3 O X O O                                                           # O O   #   O , n O.q.8./ s , O   O       #                                                                                                                                                     O O O   O O % 5 v o.w.w.;.V 2 O . O                                                                         O , n X.8.q.o.m q - O % % @   .   . O O + + . .   = l =.f.f.=.x 5 O .     #                                                                     % 5 n =.p.p.O.l =   O + + * .                                                                                                                                                 O O           O O O 2 x  .q.q.+.x 5 % O                                                                   O O O O = 5 l =.g.a.O.j 2 % +     X                                                                                                           X     . . % 7 V ;.q.r._ j 5 % O % O                                                                       O 2 x <.c.c.<.j 3 %               ",
"        . .   O 7 S ,.f.a. .n 7 %                                                                       . + O O 2 n 7.v.c.,.x 2 + . .     X     O     O   O O     O O     O   O O   O O   O O     O   O O     O . O   O O     O         O     O O   .     .   % 7 j X.a.a.+.n 2 @   O                                                   O   O       O         O 2 n O.q.w.` j 2   X   . .     O .       O   O     O O     O   O O     O O     O     O     O         O     O   O   O O     O   O O     O O     O .   O     O   O . O   O O     O       . .   . % 7 n +.a.g.,.V 5 O O O .                                                                         , n @.e.r. .V 0 = + % O X       O     . . .     , n >.f.f.=.x 5 % . .         X                                                         O   O % 5 x =.f.v.=.x =     # .           O O   O   O       O     O   O   O O     O   O O     O O     O     O     O       O O     O   O O     O   O   .   O O   . O   O O     O   O O O         . . O % 2 n =.p.a.#.l 5 % .                                                                   O O O % % 2 l ;.f.p.-.n 5 % + . .       @ O   O O   O O     O O     O   O O   O O   O O       O     O   O   O O     O   O O     O O     O         #   . % 7 V @.p.q.X.x 5 % O O O                                                                     O O 2 x ;.c.c.>.j 2 % O       .     ",
"O     .   .   O 7 S 8.g.a. .c 7 ;                                                                       O O & O 5 n 7.M.c.,.x 2 O       .           O   O       O                                           O               O   O                       .     % 7 l X.p.p. .n 5 O O O                                                 O                     #   2 x O.p.w.+.c 5   X # O O . O O         O       O                   O     O       O         O     O         @   O                   O     O     O           O               O       .         % 0 n +.g.g.-.V 2 O   O                                                                           2 V ;.e.q...c 7 - . O       . . O .   . .       , n ,.c.f.-.x 2 %       X                                                         O   O O   O = 2 j =.v.v.>.n ,   .   . . . . . X       O         O         @   O                   O     O       O         O   O                   O       O                       O       O O   X       . . + 5 V =.f.p.+.j 2 %                                                                         O O % 2 d #.f.f.>.C 7 = % .       O                   O                                 O         @   O                   O     O     O   .   . . O % 7 V ;.p.q. .x 8 =                                                                           # O 2 x <.c.c.<.x 2 %         .     ",
"  O     . .   + 7 S ,.f.g. .n 7 %       .                                                                 . O % 5 n 7.M.v.,.j 2 O   .   .                                                                                                                 .   % 7 x X.d.q...n 5 % O O                                                       O     O     O     O , V @.p.g.O.n 5 O     . + + O .                                                             X                                                                                   .     . .   O = 7 x  .a.p.-.V 5 O                                                                             O 2 V =.f.a.] g 5 % O           . .   .         O 2 n =.g.g.=.l 2 % O   # #     .                                                     O     O O % 2 d -.f.c.>.n ,   X   . . .       X                                                                         X                                                                       X     . . O 5 V >.f.g.O.l 2 %                                                                             % 2 d ;.f.f.7.V 7 - + . .   .                                                                                                           + . + . % 7 V #.p.a.+.n 0 %     X                                                                     O O 2 x >.c.c.>.j 2 %           .   ",
"X       .     O 5 S 8.p.a. .n 7 =       X                                                                     O 5 n =.g.c.,.j 2 O   .     .                                                                                                             .   . % 7 n @.w.q.o.x 7 ; % %     .                                                   #   #   O         2 n =.g.a. .n 7 O   . + + & + O O                                                                                                                                                   .   .   O = 8 M o.w.w. .n 2 %                                                                             O 2 V :.s.w.o.j 5 - X       # O + + O   . .   . % 5 V =.g.g.+.d , %                                                                       X     O , g O.v.v.>.n 2 .     .   . .             X                                                                                                                                     X         . . O 5 S >.f.f.+.l 2 %                                                                             O , l ;.f.c.8.V 7 % + . O . X                                                                                                         O O + . O % 7 S ;.q.d. .n 7 ;   X                                                                         O 2 x >.c.f.<.j 2 % O       .     ",
".       . .   O 7 S ,.f.a. .n 7 %                 #   X                                                   X   O 5 c O.a.g.=.x 7 %   O O O O . .                       X                                   .       .   .       . .     .               . .     = t S  .q.7.` x 5 - = * O   X                                             O                   #   2 V O.a.a.+.n 0 %   . # + + O .                 X             .                                                   X           .                         .               . .       . O + O     = e C +.a.w.o.j , X                                                                             O 2 n  .w.a. .V e 1     O   O   O O % O O # O O = 0 V O.a.a.&.f , O X # .                                                             O         O 1 h +.g.g.>.C 5 O     # % & + O .                                 X           .                     .                                 .         .     . .           .                 O     . O 7 S >.p.p.+.z , %                                                                         X . O 5 l =.f.f.>.V 9 %   . + # .     . .   .     . .   .   . .                                         X           .                     . O .     = e S =.q.w.) x 7 %   X X                     #                     #                         O + 2 x =.c.c.<.x 2 %               ",
"      .   .   O 7 S 8.p.p...n 7 =                                                                         .   O 2 j ..w.g.8.K y 2 % O O O               .         .           .   .   .       .   .         .     .       .       .     . .           .     % 2 d ^ 9.p.8.) x 5 = % % O                                                       O O #     O     O , x ..w.a.,.I g 5 O     .   .   X X           .         .             .   .     .               .   .         .         .             .   .     .     .       .               .   . + O O O O 4 d ^ ,.a.y.) d =                           #                                                   O , j / w.g.8.^ d , O O   X   . O + + O     O % 5 s Y ,.a.w...i =   .     #                                                       O               ; i o.a.g.8.T s 4 O   O + & & +                 .   .         .         .             .   .             .         .   .     .   .           .                 . .   .         .   X   O   #   , p I 7.g.a...h , %                                                                             % 3 f +.a.n.9.T i , O   + O                                     .   .   .       . .   .         .         .             .   .                 % 2 d _ 7.g.u.[ f 5 %                                   # #     #           #                     O 2 x <.c.c.,.j 2 %         . .   ",
"      .   . . O 7 S ,.f.a. .n 7 %   O   O                                                                       = y I 8.g.g.1.D 0 =               . . . .     .   . . . . O . .   . .   . O . . #   . .   .   . . O O O O O .     .             .   O       = e S >.a.g.8.U p , O O O                                                         O   O O #         - p K -.g.a.>.I w %     . X .     X   . . . .   . . . O . . . . . O . . . . . . .   + . . . . .   . O . . . .   . . . O . . . . . O . . . . . .   .               . . O O .   .   O .     O * 9 V 1.a.z.8.K p ; X                                                                             O 3 p J ,.v.v.8.U 7 %       X     .   O X   X = s P -.p.g.w.I e * .   . O                                                           #         . O % w Y 8.g.a.=.F y =       #     . . + . . . . .   . O . . . .   . . . O . . . . O . . . . . . . . . .     . . . . # .   O .   . . . . .   . #   . O   . O   .   O     .   #     X X         % r C :.g.c.w.` u , O                                                                         . . % , p ( r.f.g.o.m r =     X .   O O   . .   . #   O .   . O     .   . .   . O . .   . O . . . .   . . . O . . . . O . . . . . . . .     X     = 0 A <.c.v.8.K r ,     O                                                                       . O 2 x >.c.f.<.j 2 %               ",
"  O     .     O 7 S 8.f.a. .n 7 =       .             .                                                 # O % O O 7 n ..a.v.a. .j 9 %                                               .                     .                                   O O O O     % 7 j _ w.v.g.O.n 0 =   O   X   X                                             O       X         # O O % 7 v ..a.v.p.O.l 5 * X X   X   X                                                                                                                       .                         O       % 2 s _ w.v.g.O.V 0 = O O O .                                                                       O = 7 v  .g.M.g. .l 6 %         X   O   X   O 5 n @.a.g.a.O.n 5 + O O                                                                 # X O O O * O 2 n +.a.v.q. .n 0 ; O @       .                                                                     .                                                                                 O % 5 n ` r.f.p.=.S 0 , O #                                                                         O O % 7 V  .p.p.8.^ j 7 ;   X                                           .                                                                 X O ; 7 d ( p.c.g.=.c 5 +     O O                                                                       % 2 x >.c.c.>.j 2 % O       .     ",
"      . .     + 7 S 8.p.a. .n 7 %                                                                       . % % O O , t J w.M.v.8.^ j 7 % O O O                                                                                                   O O O % = 5 d I ,.g.g.w./ i = O   . X X X                                                         O   O         O = r U 8.g.f.9.^ j 2 % % O O .     X                                                                                                                       X                     O O % % 5 p J =.g.v.w._ p 2 = % . .                   # X                                                 O + % , y _ g.M.v.,.I d 2 % % % O O @   O % , 5 p ^ w.c.g.7.U p =   O % O .                                                         O #     O + % O O = s P 8.j.v.p._ d 5 , % O                                                                                                                           X                     O O O O O = , 7 d ^ w.j.p.<.^ j 2 O   O                                                                         O # O , p I >.p.g.,.^ j 0 ;               X               X                                                                             O = , 0 j J =.f.f.q.^ y =         O                                                                     . % 2 x >.c.c.>.j 3 %       . .     ",
"  O     .     O 7 S 8.f.a. .n 7 ;                     .                                                 O & % O   O 2 l o.a.v.g.>.^ n t 6 2 = = % = % % % % % % % = % % % % % % % % % % % % % % % % % % % % % % % % % % % % % % O % % O % % % = = = , 5 i n Y =.w.g.w...m 2 O   .                                                       O                   O     O 5 x ` 8.f.p.>.( l e 7 5 , = ; % % % % % % % % % % % % % % % % % % % % % % % % % % % % % % % % % % % % % % % % % % % % % % % % % % % % % % % % % % % % % % % % % % % % % % % % = 2 7 e d I =.p.d.w.O.n 9 % % % .                                                                             O % 5 V O.q.p.q.-.I j 0 7 2 , = = = 2 w p j J >.g.n.w.' x 7 %   + + .                                                                 O   O + O   % 9 x ` w.v.g.>.J x p 0 , ; % = % % % % % % % % % % % % % % % % % % % % % % % % % % % % % % % % % % % % % % % % % % % % % % % % % % % % % % % % % % % % % % % % % O % % % % = = = 2 7 y x J ,.g.j.<.( x 0 = #                   .                                                         O +   % 5 l ( ,.g.g.8._ V y 6 , % % % % % % % % % % % % % % % % % % % % % % % % % % % % % % % % % % % % % % % % % % % % % % % % % % % = 5 0 d n I -.7.p.e._ n 7 %   .   O O                                                 #                     O 2 x >.c.c.>.j 2 % O             ",
"      . . .   O 7 S ,.f.g. .c 7 %       .                                                               . O   . X   @ 9 x ( w.v.v.w.O.U M s 0 5 5 5 2 5 5 2 5 2 5 5 2 5 2 5 2 5 5 5 5 5 2 5 2 5 2 5 2 5 5 2 5 5 2 5 5 2 5 5 2 2 2 2 2 5 5 7 7 7 7 7 e j U O.7.d.d.7._ x 9 O X .   O O O                                                       O                   O , 0 x ( 8.f.f.s. .U m f e 7 7 7 5 5 5 2 5 2 2 5 2 5 5 2 5 5 2 5 5 2 5 2 2 5 2 5 5 5 2 5 2 5 2 5 5 5 5 2 5 2 2 5 2 5 5 2 5 5 2 5 5 2 5 2 2 5 2 5 5 5 5 5 2 5 5 5 5 5 5 5 5 5 5 0 a m T X.>.p.c.p. .n w %   O   . .                                                                               = w n ^ >.q.a.u.2.[ c y 0 7 5 7 a J ..+.>.w.p.>.^ v w ;     O O   #     .                                                   O         . . .   O 1 w v ( >.p.p.,.+.` S p 7 5 5 5 5 2 5 2 2 5 2 5 5 5 5 2 5 2 2 5 2 5 5 2 5 5 2 5 2 5 5 5 5 2 5 2 5 5 2 5 2 5 5 2 5 2 5 2 5 5 5 5 5 5 2 5 2 5 5 2 5 2 2 5 5 2 5 2 5 5 5 2 2 5 7 0 d n U ..,.g.h.;.! g 6 % . .                                                                       X   . & & .   % 6 l ^ 0.j.v.w.,.^ Z e 5 2 5 2 5 2 5 2 2 5 5 2 5 2 5 5 2 5 5 5 5 5 2 5 2 5 2 5 5 5 5 2 5 2 2 5 2 5 5 2 5 5 2 5 2 5 5 2 5 2 5 7 d Z ` 2.7.d.s.9.' n w ; .   . . O O                                                 .                     O 2 x <.c.c.<.j 2 %           .   ",
"@       .     O 5 S ,.g.a. .n 7 =       X                                                               .   #     X   * 9 x  .w.g.g.a.t.o.U S n n n M n n M n m n x n n n n n n n n n c n n n n n n n n n n n n n n n n n M n n n v n n n m n V n V K } 8.g.a.w.=.( n 9 %   .   . O O O                                                             O   O       O   % , e n ' >.p.f.g.t...U D V m n M n n c n n n n n n n n n n n n n n n n n n n n c n n n n n n n c n n c n n n n n n n n n n n n n n n n n M n n n M n n n n M M M M m N M M C Z I o.0.w.g.p.q.O.V w ; X                                                                                         O = 9 l ( -.w.z.N.u.$.S n n c n U ,.k.g.a.a.>.^ l 0 ; @ X X   O O     X                                                           O           X O = 7 x ( 8.w.a.d.w.-.I n n M M n m n M n m n n c n n c n n n n n n n n n n n n n n n x n c n n n n n n n n n n n n n n n c n n x n n n n n n n n n n M M n M n M n M n c c n V I ..t.u.g.z.9.( l 6 O X X   . .                                                                       O % + .     % 7 l / 8.g.N.g.w.:.J n n n n n n M n n n n n n n n v n n n n n c n n n n n n c n n c n n n n n n n n n n n n n n n n n c n V ^ -.u.z.g.r.1.( x 7 ; O     . . O O                                                                       O 2 x <.c.c.,.j 2 % O       .     ",
"      .       O 5 S 8.f.a. .x 7 % O                                                                     . O       X X X 1 0 n _ 8.a.g.f.f.p.e.r.q.7.9.r.q.7.7.7.7.7.9.8.7.7.9.8.7.7.7.q.7.w.9.7.7.7.q.7.7.7.w.7.7.7.9.7.w.7.7.7.7.7.w.7.7.7.7.q.q.q.w.a.v.g.8.+.K d 7 ;           O O     X                                           X X                             % , e x I +.k.g.g.g.a.q.7.>.=.=.8.9.7.q.7.q.7.7.7.w.9.q.7.7.7.w.7.7.7.w.7.7.9.7.7.q.7.7.7.7.7.q.7.7.7.7.7.q.7.7.w.7.q.7.7.r.9.q.7.7.7.w.7.8.7.7.7.7.q.8.7.7.7.7.7.8.7.7.7.r.q.q.p.f.g.d.1.^ V e , O   X       O                                                                             o X X ; 7 j I ,.a.v.v.g.q.7.<.9.r.p.f.v.M.x.y./ x 7 = X X X X   O             #                                                           X     X X @ 1 0 x / ,.k.g.f.f.d.r.r.9.9.7.7.7.q.9.r.7.w.7.7.7.r.7.7.7.7.w.7.q.7.7.7.w.7.q.7.7.7.w.7.q.7.7.7.w.9.q.7.7.7.q.7.r.7.7.7.7.7.w.7.7.7.7.9.7.7.7.8.7.7.7.9.q.7.7.7.9.9.0.<.0.7.p.g.g.v.g.,./ x 0 ;         X                 .                                                         O % +     @ 1 7 f I 2.k.g.g.g.w.w.9.w.7.7.9.7.7.q.9.7.7.q.7.w.7.7.7.w.7.7.q.7.7.q.7.7.7.7.7.w.7.7.7.q.7.7.7.w.9.q.7.7.7.w.7.7.7.w.7.7.r.s.f.c.v.a.-.^ l 7 ;   X   .                                                                               O 2 x >.c.c.<.x 3 %         . .   ",
"        . .   + 7 S 8.f.a. .n 7 %                   # X #                                                 O O           O 2 0 v U  .>.p.h.c.c.c.c.c.c.v.c.c.c.c.c.c.c.c.c.c.c.c.c.c.c.c.c.c.c.c.c.c.c.c.c.c.c.c.c.c.c.c.c.c.c.c.c.c.c.v.c.c.c.v.c.c.v.g.a.,.` D s 7 =           #   O                                                                               X O % 2 e f D ` ,.w.g.v.v.v.f.f.f.c.c.c.c.c.c.c.c.c.c.c.c.c.c.c.c.c.c.c.c.c.c.c.c.c.c.c.c.c.c.c.c.c.c.c.c.c.c.c.c.c.c.c.v.c.c.c.c.c.c.c.c.c.c.c.c.c.c.c.c.c.c.c.c.c.c.c.c.c.c.c.c.f.q.,...K l e 2 % O             O                     #                                                     X     O = 7 j U +.8.a.g.g.f.f.f.c.f.f.q.,.+.J x 0 , O         O O                                                             .             # .       % , 0 j S ..>.w.n.b.m.c.c.c.c.c.v.c.c.c.c.c.c.c.c.c.c.c.c.c.c.c.c.c.c.c.c.c.c.c.c.c.c.c.c.c.c.c.c.c.c.c.c.c.c.c.c.c.v.c.c.c.c.c.v.c.c.c.c.c.c.c.v.c.c.c.c.c.c.c.c.c.f.f.c.v.v.g.g.8.+.K l 0 , O   X X                                                                                           O = 0 f R $.,.w.g.f.c.c.c.c.c.c.c.c.c.v.c.c.c.c.c.c.c.c.c.c.c.c.v.c.c.c.c.c.c.c.c.c.c.c.c.c.c.c.c.c.c.c.c.c.c.c.c.c.c.c.c.c.c.f.p.0.#.P l 7 = O X                                                                                   O + 2 x >.c.c.<.j 2 %               ",
"O       .     O 7 S 8.p.a. .c 7 %                                                                       O   O O O O O O O O % ; 9 y M ( =.r.p.w.w.r.w.w.w.w.w.w.w.q.w.w.q.w.w.r.w.w.q.w.w.w.q.w.w.w.w.w.w.w.w.w.q.w.w.q.w.w.w.8.w.w.q.w.w.w.q.w.w.w.7.1._ V j y 5 , O         . O                                                                                       O % 1 5 r j V / +.,.d.g.f.f.f.p.w.q.w.w.q.w.w.w.w.w.w.w.q.w.w.w.w.q.q.r.w.w.w.w.w.w.a.w.q.w.w.w.w.w.w.w.w.w.w.w.w.w.q.r.q.w.q.w.w.w.w.w.w.w.q.w.w.w.w.w.w.w.w.w.w.w.w.w.w.w.r.-.( F d w 2 % O O O % + O +                                                                             # O     X   X O 2 e j V / +.,.w.w.p.a.0.#.U n y 7 2 = % % O O O O O O @                                                                           O O % % % = = 1 9 i v Y o.0.d.a.a.q.w.r.w.q.w.q.q.q.r.r.w.w.q.q.w.w.w.w.w.w.q.w.w.w.w.q.w.w.w.w.q.w.w.w.w.w.w.w.w.w.q.w.q.w.r.q.w.w.q.q.w.w.q.q.w.w.w.q.w.w.q.q.w.w.w.w.q.w.a.a.p.g.w.1._ V p 9 1 %   X X X . X X                                                                       O           O O % - = 5 e j V ` 5.8.w.w.w.w.q.w.w.a.q.w.w.w.q.w.w.w.q.w.w.w.q.w.w.w.r.q.a.w.w.q.w.w.w.a.q.w.w.w.w.w.w.w.q.w.w.w.w.q.q.r.w.q.8.:.( V d t 6 , - % %                                                               #                     O 2 x <.c.c.>.j 2 %         .     ",
"      # .   . O 7 S 8.g.a. .n 7 = O                                                                           O % % % +         O ; 9 d V I ^ U I I I I J U I I I I I I I I I I I I J I I I I I I I I J I J I I I I I I I I I I I I I I I I I J I I I V d e 5 , ; O O O X   O O O O                                                   .                                       O = 2 e d m D I ( _  ._ I I J I I J I I Y I I I J I J I I I I I I I I I I J I I I I I I Y I I I I I I J I J I I I I I I J I I J I I I I I I I J I I J I I J I I I J I J V l e 2 %   X .   O # % + O                                                                           O O O     . X X X O % 2 7 p x S K / ( I P M s 5 ; % O   O O % % % %               X                                                 X   #     #     O % % = % %   O O ; 5 y n J ^ ^ U I I I J I I J J I I I J J I I I J I I J I I I I I I J I J I I J I I Y I I I J I I I J I I I I I I I J I I U I I I I I I I U I I I I J I I I _ _ ` ^ S d 0 = O X X X           .                                                                       O           . O * % O % = 2 0 j A J I Y I U I I I U I I I I I I J I I Y J I J I I I I I J I I I I J I I J I I Y I I I J I J I I I I I I I J J n d 0 , = % % - % % . #       O O                                                 #                   O O 2 x ;.c.f.<.j 2 % O       .     ",
"      .       O 7 S ,.f.a. .n 7 %                   # #                                               X .   .   O + O O O     #   O % 1 5 5 5 5 2 5 5 5 5 5 2 2 2 5 5 2 5 5 5 5 2 2 5 2 2 5 2 2 2 5 2 2 2 5 2 2 5 2 5 2 5 5 5 5 2 2 2 5 5 5 5 5 5 5 5 2 ; % O O   X       O   O   O                                                       .                           . o . X X   O % ; 2 5 5 5 2 5 5 2 5 2 2 5 2 5 2 2 5 2 2 5 5 2 2 5 2 2 5 2 5 2 2 5 2 2 5 2 5 2 2 2 2 5 2 2 2 2 5 2 5 2 2 5 5 2 2 5 2 2 5 2 5 2 5 5 2 5 2 5 2 2 5 2 2 5 5 5 2 5 2 2 , = %         .   . .   .                           #                                                   # + & % - + O O @   X O - 1 2 5 7 7 5 2 , % O O O   O O   O O                                                                   .           .   . O + O + O +     O % ; 5 7 9 5 5 2 5 2 2 2 5 2 2 2 5 2 5 2 2 5 2 5 2 5 2 2 5 2 5 2 2 2 2 5 2 2 2 5 2 2 5 2 2 5 2 2 5 2 5 2 2 5 2 2 5 2 2 2 5 2 2 2 2 5 2 5 2 2 2 2 2 5 2 5 5 5 7 0 w 5 2 ; O   X   O O % % + O                                                                             X         O     . X   * = , 5 2 5 2 2 2 2 2 2 2 5 2 2 2 5 2 2 2 5 2 2 5 2 2 2 2 5 2 2 2 2 5 2 2 5 2 2 5 2 2 5 2 2 5 5 2 2 5 2 2 5 2 2 2 2 , = ; % * O % + O . . .   . . % O                                                                     # O 2 x >.c.c.<.x 2 % O         .   ",
"        . .   + 7 S <.f.a. .n 7 =                                                                         X       .   .     .     X           O               O     O                         X X               X                   O                 X X X X X X           O # .                                                                                     . . X .         O O O       X               X       X             X       X                 X       X             X       X     X                   O           O               X     O     . . o . . . . . O O                                                                         . . O & % % O O O o X X                       O + O O . . .   .   O                                                                                   . O . O O   #       @   O     X   X           X       X               X X   X                 X       X             X                                                                 X         # + + - % * O                                                                                 O .   . X X X X       @           X       X             X             X       X                 X       X             X         X         O O % + # . . . .     O + O                                                                       O 2 x >.c.c.,.j 2 %               ",
"  O   .       O 7 S ,.g.a. .n 7 %                                                                       .     X   . .     . . .     #   X X X O O O % O O O + O O + O O O O O O O O O @ O @ O @ O   O @ O O O @ O   O + O O O + % + O O O + O O O O O O   X   X   O O   .         O   O O                                                                             . . .       . O * O + O .   X   # O O   @ O O O @   O O   O O O @ O O @ O   O O @ O O O X O   O @ O   O O O O O @ O O @ O   O O   O O O @ O % % + O O O + O O + O % + % % O #       . O + .   . . X . . . O O O O                 #                                                       . o X X O   O . #   .     # O X X X X . #   O O . .           .               . .                                                                   .       . # . . # .   X   X @ O O O O O @ O O O O @   O O     O O @ O O @ O O   O @ O O O @ O O O @   O O   O O O @ O   @ O O O O X O O . O O O O   O O . O O O   O O # O O   X . X   .   O O .   .   . % O     #                                                                   X     O O O     X X X       X X X     O O O O   O O O O O O @   O O O @ O O @ O O O O O O O O @ O O O X O O O @   O O   O O O @ O O @ O O X X X X   O O + . o . .   . O   O                                                                         O O 2 x >.c.f.<.j 2 % O       .     ",
"        . . . O 7 S 8.g.d. .n 7 %   O                                                                     O           .       O # # .           + . O O O O O . O O   O O . O O                 O   O           O     O   O O   O   O O O O O O # O O   O   O O O O   . O           O O O O                                                                                     O O O + + O O O .           O         O     O                               O   O       O     O                     O             O     O O O   O O O   O   O   O   .       O . .       . X X .   O O O                                                                             .   .           O         .     .         . .   .       .   O O O                                                             X O   X   O O       .   .   .                       O       #   O     O   O   O               O   O                 O     O           O           O     O   . #   O     O     #   O   O   .     . . X X o O O O .           O                                                                               O O O # . .   . O O O     X           O         O     O     O                   O             O         O     O                           # . O + .     .   # O O O                                                       #                   . O 2 x >.c.c.>.j 2 %       .       ",
"      . .     O 9 S ,.f.a. .x 7 %     X                                                                     O                         O O O         . .     .           . .               .         X .   X   o   . . .     . o .     . o .           .   O O O % O O                 O O O                                                                                                   .   .                                                                                                               .         . . .   .                 O   O .       O                                                                                         O O     X                 O O   .   O O O                         O O                                                                       O O O                         O O O                                                                                                                           . .         . .     . O                     O                                                                                           O   O             O                                                                                                                 O O   O               O O O                                                                               O 2 n >.c.c.=.j 3 %               ",
"@           . O 7 S ,.f.g. .x 7 = O                                                                             X               O O O O   O               .         .       .             . .         . .   o           .   .     .           . o .       O O O O O O                 O O O                                                                                                                                                                                                                         .                   . .         O   O     O O O O O O O         X                                                                       O O % O                           O O O O O O                                                                                                     O     X       X       O O O O       #                                                                                                                           .         .   O   .                 O O O                                                                                 O                               O                                                                                                           O % O             .   O     X                                                                           O + 2 x >.c.c.<.x 2 % O     .   .   ",
"O     . . .   O 7 S ,.f.a. .n 7 %       .                                                                         X X       O % % O O                                                               X # #     # O   # o . # #     .   # . .   .       .         O                                                                                                     X         O   O                                                               O                                             O                                                         O O O O % O O O     X X                                                                             O     O                                   O O O   O     X                                                                                       X             O O O O               O O O       O         O                                                           O                     O O     O O       . O           .   O   O               O     X X                                                                         O O                               O                               O                                                                           O O                     X       O O                                                                       O 2 x <.c.c.1.j 2 %           .   ",
"          . . O 7 S ,.f.a. .n 7 =                                                                                         O O O O O                                                       #   O   O     O #     X     #           #       # #       #   .                                                                                                                   O       O     O                                                                                                                                                                     O O O O O O                                                                                                             O   O                 O O   O                                                                                               X         O O O                         O       O         O O                                                                       .       .       O O         O             O O O           O O                                                                                 O O O                                                                                                                                                                   X X     O                                                                     O O 2 x ;.c.c.>.j 2 % O       .     ",
"        . .   O 7 S ,.f.a. .c 7 %                                                                                                                                                                                                                                                                                                                                           O                                                                                                                                                                                                                                                                                                                 O                       O O                                                                                                                                                                                                                                                                                                                                                                                 O                                                                                                                                                                                                                                                 # O 2 x >.c.c.<.j 2 % O       .     ",
"O     .   .   O 7 S 8.p.g. .n 7 %   O   .                                                                                                                                                                                                                                                                                                                                                                                                                                                                                                                                                                                                                                                                       X     O O O O                                                                                                       X                                                                                                                                                                                       O                                                                                                                                                                                                                                                                                                                                 O 2 x >.c.c.,.j 2 %           .   ",
"  O     . .   + 7 S 8.f.w. .n 7 % O                                                                                                                                                                                                                                                                                                                                                                                                                                                                                                                                                                                                                                                                                                                                                                                                                                                                                                                                                                                                                                                                                                                                                                                                                                 O   O   . .                                                                             O O 2 x >.c.c.1.j 2 % O       .     ",
"X       .     O 5 S 8.f.a. .n 7 %                                                                                                                                                                                                                                                                                                                                                                                                                                                                                                                                                                                                                                                                                                                                                                                                                                                                                                                                                                                                                                                                                                                                                                                                                                                                                                                           . O 2 x >.c.c.>.j 2 %           .   ",
".       . .   O 7 S 8.p.g. .n 7 %                                                                                                                                                                                                                                                                                                                                                                                                                                                                                                                                                                                                                                                                                                                                                                                                                                                                                                                                                                                                                                                                                                                                                                                                                                                                                                                           O + 2 n ;.c.c.>.l 2 %         . .   ",
"      .   .   O 7 S ,.f.a. .n 7 ;       .                                                                                                                                                                                                                                                                                                                                                                                                                                                                                                                                                                                                                                                                                                                                                                                                                                                                                                                                                                                                                                                                                                                                                                                                                                                                                                                     O , n <.c.c.>.j 2 % O             ",
"      .   . . O 7 S 8.f.a. .c 7 % O O                                                                                                                                                                                                                                                                                                                                                                                                                                                                                                                                                                                                                                                                                                                                                                                                                                                                                                                                                                                                                                                                                                                                                                                                                                                                                                                       . O 2 x <.c.c.<.j 2 %         .     ",
"  O     .     O 7 S ,.g.p...n 7 %                                                                                                                                                                                                                                                                                                                                                                                                                                                                                                                                                                                                                                                                                                                                                                                                                                                                                                                                                                                                                                                                                                                                                                                                                                                                                                                             % 2 n =.c.c.1.x 2 %         .     ",
"      . .     + 7 S ,.f.a. .x 7 %                                                                                                                                                                                                                                                                                                                                                                                                                                                                                                                                                                                                                                                                                                                                                                                                                                                                                                                                                                                                                                                                                                                                                                                                                                                                                                         .                   O 2 x <.c.c.,.j 2 %               ",
"  O     . .   O 7 S ,.f.a. .n 7 % O     O                                                                                                                                                                                                                                                                                                                                                                                                                                                                                                                                                                                                                                                                                                                                                                                                                                                                                                                                                                                                                                                                                                                                                                                                                                                                                                                   O + 2 x =.c.f.>.j 2 % O     .   .   ",
"      . .     O 7 S ,.f.a. .n 7 %       #                                                                                                                                                                                                                                                                                                                                                                                                                                                                                                                                                                                                                                                                                                                                                                                                                                                                                                                                                                                                                                                                                                                                                                                                                                                                                                                   O O 2 x >.c.c.<.x 2 %           .   ",
"@       .     O 7 S ,.f.g. .n 7 % O                                                                                                                                                                                                                                                                                                                                                                                                                                                                                                                                                                                                                                                                                                                                                                                                                                                                                                                                                                                                                                                                                                                                                                                                                                                                                                                           O 2 x =.c.c.,.j 2 % O       .     ",
"      .       O 7 S ,.f.a...c 7 %     X                                                                                                                                                                                                                                                                                                                                                                                                                                                                                                                                                                                                                                                                                                                                                                                                                                                                                                                                                                                                                                                                                                                                                                                                                                                                                                                     O O 2 x >.c.f.>.j 2 %         .     ",
"        . .   + 7 S <.f.a. .n 7 = O                                                                                                                                                                                                                                                                                                                                                                                                                                                                                                                                                                                                                                                                                                                                                                                                                                                                                                                                                                                                                                                                                                                                                                                                                                                                                                                         # O 2 x >.c.c.,.j 2 % O         .   ",
"O       .     O 7 S ,.f.a. .n 7 %       .                                                                                                                                                                                                                                                                                                                                                                                                                                                                                                                                                                                                                                                                                                                                                                                                                                                                                                                                                                                                                                                                                                                                                                                                                                                                                                                   O O 2 x <.c.c.<.j 2 %         .     ",
"      # .   . O 7 S ,.g.p...n 7 =                                                                                                                                                                                                                                                                                                                                                                                                                                                                                                                                                                                                                                                                                                                                                                                                                                                                                                                                                                                                                                                                                                                                                                                                                                                                                                                             O 2 x <.c.c.<.j 3 % O         .   ",
"      .       O 7 S ,.f.g. .n 7 %                                                                                                                                                                                                                                                                                                                                                                                                                                                                                                                                                                                                                                                                                                                                                                                                                                                                                                                                                                                                                                                                                                                                                                                                                                                                                                                           O + 2 x ;.c.c.>.j 2 %         . .   ",
"        . .   + 7 S <.f.w. .n 7 %   O   .                                                                                                                                                                                                                                                                                                                                                                                                                                                                                                                                                                                                                                                                                                                                                                                                                                                                                                                                                                                                                                                                                                                                                                                                                                                                                                                     O 2 x <.c.c.<.x 2 % O             ",
"  O   .       O 7 S 8.p.a. .n 7 % O                                                                                                                                                                                                                                                                                                                                                                                                                                                                                                                                                                                                                                                                                                                                                                                                                                                                                                                                                                                                                                                                                                                                                                                                                                                                                                                         . O 2 x >.c.c.>.j 2 %         .     ",
"        . . . O 7 S ,.g.g. .n 9 %                                                                                                                                                                                                                                                                                                                                                                                                                                                                                                                                                                                                                                                                                                                                                                                                                                                                                                                                                                                                                                                                                                                                                                                                                                                                                                     # .                     % 2 x >.c.f.<.j 2 %         .     ",
"      . .     O 9 S 8.f.a. .c 7 %                                                                                                                                                                                                                                                                                                                                                                                                                                                                                                                                                                                                                                                                                                                                                                                                                                                                                                                                                                                                                                                                                                                                                                                                                                                                                                                             O 2 x =.c.c.<.x 2 % O             ",
"@           . O 7 S 8.p.a. .n 7 =                                                                                                                                                                                                                                                                                                                                                                                                                                                                                                                                                                                                                                                                                                                                                                                                                                                                                                                                                                                                                                                                                                                                                                                                                                                                                                                           O + 2 x <.c.c.,.j 2 %         .     ",
"O     . . .   O 7 S 8.f.a. .n 7 %   O   O                                                                                                                                                                                                                                                                                                                                                                                                                                                                                                                                                                                                                                                                                                                                                                                                                                                                                                                                                                                                                                                                                                                                                                                                                                                                                                                   O O 2 x >.c.f.<.j 2 %         . .   ",
"          . . O 5 S 8.f.a. .n 7 =       .                                                                                                                                                                                                                                                                                                                                                                                                                                                                                                                                                                                                                                                                                                                                                                                                                                                                                                                                                                                                                                                                                                                                                                                                                                                                                                                     O 2 x >.c.c.>.j 2 % O       .     ",
"        . .   O 7 S ,.f.a. .n 7 %                                                                                                                                                                                                                                                                                                                                                                                                                                                                                                                                                                                                                                                                                                                                                                                                                                                                                                                                                                                                                                                                                                                                                                                                                                                                                                                           O O 2 x >.c.c.>.j 3 % O       .     ",
"O     .   .   O 7 S 8.g.a. .c 7 % O                                                                                                                                                                                                                                                                                                                                                                                                                                                                                                                                                                                                                                                                                                                                                                                                                                                                                                                                                                                                                                                                                                                                                                                                                                                                                                                         # O 2 x >.c.c.>.j 2 O           .   ",
"  O     . .   + 7 S ,.f.g. .n 7 %       .                                                                                                                                                                                                                                                                                                                                                                                                                                                                                                                                                                                                                                                                                                                                                                                                                                                                                                                                                                                                                                                                                                                                                                                                                                                                                                                   O O 2 x <.c.c.<.j 2 % O       .     ",
"X       .     O 5 S 8.p.a. .n 7 ;       X                                                                                                                                                                                                                                                                                                                                                                                                                                                                                                                                                                                                                                               .       .         .     .       .       .         .     .       .       .         .     .         .         .   .       .   .       .         .                                     O                                                                                                                                         . O   .                                                                                                 #         .           .   .       .   .       .         .       .     .   .       .   .       .         .       .                                                                                                               O 2 x <.c.c.,.j 2 %         .     ",
".       . .   O 7 S ,.f.a. .n 7 %                                                                                                           #                                             .                 .   .           .                               .     .         .           O O                                                                               O O             O   O           X X     O O O O O   X   X                                                                             X     O O     . .       O O O     X                                                                                                                                                                                                                                                                                             X     X   X             O                             #                                                 O O O           O O     X                 O O O O     X   X   O O                                   .                                                 X     O O O       X   .                                                                                                                 O O           O O O                                                                                   O + 2 x =.c.c.>.j 2 %           .   ",
"      .   .   O 7 S 8.p.p...n 7 =                                                                       X                 X       O % = , 1 , , , , , 2 , , , , , , , , , , , , , 2 , , 2 , , , , , , , , 2 , 2 2 1 , , , , , 1 , , , , , , , , , , , = % O         . .   .   .   .     % O                                                                         O O O O           % , , 2 2 2 , , = =       X   O % % O         X                                                                                 O             O = 2 5 2 , = = , , , , , , , , , , , , , , , , , , , , , , , , , , , , , , , , , , 2 , , , , , , , , , , , , , , , , , , , , , , , , , , , , , , 2 , , , , , , , , , , , , , , , 2 , , , , , , , , , , , , , , , 2 , , , , , , , , , , , , , , , , , , , , , , , , , , , , , , 2 , , 2 , , , , , 2 , , , , , 1 , = % O   X X       O                             #                                                 O O O         O O O O     X   O , , , , , 5 5 2 , O   X       O O #   .                   .                                                         X       O O O O           = , , , , , , , , , , 2 , , , , , 2 , , , 2 , , , , 2 , , , , , , , , , , , , 2 , , 2 , , , , , 2 , , , , , 2 2 2 = O   X     % % % O           O                                                                       O 2 x <.c.f.<.j 2 % O       .     ",
"      .   . . O 7 S ,.f.a. .n 7 %   O   O                 #                                             .                 X X O % , 7 e d j n n n n n n n V n n n n n n n n n n n n n n n V n n n n n V n n n n n n n n n n n n n n n n n n n n n n n j y 7 , %           .   . . .     O                                                                         O O   O O       % , 0 p x n V x x f d e 2 =         O O O       X                                                                                       O     X = 2 y j n n n x x n n n n n n n n n n n n n n n n n n n n n n n n n n n n n n n n n n n n n n n n n n n n n n n n n n n n n n n n n n n n n n n n n n n n n n n n n n n n n n n n n n n n n n n n n n n n n n n n n n n n n n n n n n n n n n n n n n n n n n n n n n n n n n n n n n n n n n n n n n n n n V V V x j e 5 % O   X X X                                                                                 O O O     X   O % % O O   % 2 e j n c x n n n j y 5 = O     O O O   . X                                                                                           O       % 2 y x x n n n n n n n n n n n n n n n n n n n n n n n n n n n n n n n n n n n n n n n n n n n n n n n n n n n n V x y 5 % X     O % O O   X     % O                                                     .               . O 2 x >.c.c.<.j 2 %           .   ",
"  O     .     O 7 S 8.f.a. .n 7 =       .                                                               . X .       X   X O = 1 7 y x K ` *.3.1.>.<.=.1.1.=.1.1.>.=.1.>.=.1.>.1.>.-.>.<.=.1.>.-.>.>.=.1.1.=.>.1.>.1.>.1.=.=.1.=.=.1.>.-.;.;.=.1.1.<.1.o.J n y 5 1 @ O   . . O .       .                                                                             O   O   O = 4 0 g C ` 2.2.-.2.&...} S d 0 , %   O O   O                                                                 .                     X   O O O % ; 5 w d V / o.*.-.+.-.-.=.=.1.<.1.>.1.>.1.<.=.1.>.1.1.>.1.>.1.>.1.>.1.>.1.<.=.1.>.1.1.>.1.>.1.=.1.>.1.>.1.<.=.1.>.1.1.>.1.>.1.>.1.>.1.>.1.<.=.1.>.1.1.>.1.>.1.>.1.1.1.>.1.>.1.>.<.=.1.>.1.>.1.>.1.1.1.>.1.>.1.>.<.1.1.>.1.>.1.>.1.1.1.>.1.>.1.>.<.1.1.>.1.>.1.>.1.>.1.=.,.1.1.>.>.>.=.1.>.=.1.>.1.1.>.1.=.1.>.1.1.,.-.2.` J x 0 4 ;       X     .                                                                           O O     X X   O % = = 2 w l A ..-.-.2.-.2.o.` S j 0 5 1 ; % % O   . .                           X                                               O           O @ O   % , w d J o.+.1.1.1.1.>.1.>.=.1.>.1.1.>.1.>.1.=.1.1.>.1.=.1.>.1.1.>.1.=.,.1.1.>.>.>.=.1.>.=.1.>.1.1.>.1.=.1.>.1.>.1.-.1.o.J d w 2 = % O O             O O                                                                       % 2 x >.c.c.,.j 5 % O       .     ",
"      . .     + 7 S 8.p.a. .n 7 %                   .                                                     O     . X     % , 5 y M K o.,.w.a.p.f.f.g.f.f.g.f.f.f.c.j.f.g.f.c.f.v.f.f.f.g.c.g.f.f.f.f.j.n.v.j.c.j.g.f.f.g.j.f.g.f.g.f.f.j.g.v.j.g.n.v.f.a.,. .J l 0 2 % O O O % % O         .                                                               X       O #     O , w l S  .1.i.a.x.a.a.k.w.w.,._ S s 9 , % O O   O O O   O                   X X                                                     . .   @ % , 5 i l F ^ O.8.w.a.a.g.g.g.g.f.g.c.g.g.f.f.g.f.f.j.f.f.g.c.f.j.f.f.f.g.f.f.g.f.f.j.f.f.v.f.g.f.g.c.g.g.f.f.g.f.f.j.f.f.g.c.f.f.v.g.g.g.f.f.g.f.f.j.f.f.v.f.g.f.g.c.g.f.v.g.f.f.f.j.c.f.g.f.v.c.g.f.j.f.v.g.f.f.f.j.c.f.v.f.g.f.g.c.g.f.v.g.f.f.f.j.c.f.g.c.f.j.f.f.f.c.j.f.g.f.n.f.g.f.j.f.g.c.j.f.g.f.v.f.j.f.g.c.g.g.g.g.a.,. .S j 0 , %         . .                                                                           .   . X       % 2 r x J  .,.d.n.g.a.z.z.d.8.-.^ S l y 5 , % % O #                       X                                                   O O   O   O   @ X O = 9 g F _ >.a.p.f.g.g.f.f.f.f.f.n.f.f.v.f.g.f.g.c.f.f.g.j.c.g.c.j.g.c.j.f.g.f.n.f.g.f.j.f.g.c.j.f.g.f.v.f.j.f.g.c.g.f.f.f.s.,._ J v r 2 % X X                                                                                     O 2 x >.c.f.<.j 2 %               ",
"  O     .     O 7 S 8.f.a. .n 7 % O                       #                                               + + . . X   O = 7 d Z ` 1.w.a.g.f.f.p.p.p.p.p.p.p.p.p.a.p.a.p.p.a.p.p.g.p.p.p.p.p.p.p.p.a.p.p.p.p.a.p.p.g.p.p.f.p.g.p.p.p.p.p.p.p.p.p.p.p.p.p.g.w.:.Y n y 5 ; % O O O % O .                                                         .                       O % 2 e n / 1.7.p.g.p.a.a.d.a.g.g.g.w.*./ n t 5 % O X   O   O     O                 #                                                           % = 7 p V ^ @.9.e.a.a.g.a.g.p.p.p.p.p.a.p.p.g.p.p.p.g.p.p.a.p.p.a.p.g.p.p.p.g.p.p.p.g.p.p.p.p.p.p.p.p.a.p.p.g.p.p.p.g.p.p.p.p.p.a.p.p.p.p.p.g.p.p.p.g.p.p.p.p.p.p.p.p.a.p.p.p.p.p.p.a.p.a.a.p.p.p.a.p.p.p.p.p.p.p.p.a.p.a.p.p.p.p.p.p.a.p.p.p.p.p.p.a.p.a.a.p.p.a.p.g.p.p.p.p.a.p.p.p.a.p.p.p.a.p.p.p.a.p.p.p.p.p.p.p.a.a.a.g.g.f.g.a.1.) M i 5 % O     O                       #                                                     . X       X % 2 y n ` =.q.f.f.f.f.g.g.g.g.p.w.,.+.^ V p 7 , % #     #                                                                       O       O   O % % 2 e c ) 1.a.f.f.f.p.p.p.g.p.p.p.a.g.p.p.p.p.p.p.p.a.p.p.p.a.p.p.p.p.p.p.p.a.p.p.p.a.p.p.p.a.p.p.p.a.p.p.p.p.p.p.p.a.p.p.p.f.f.h.d.,.` V e 1 O X X                                                                                 O + 2 x <.c.c.>.j 2 %         .     ",
"      . . .   O 7 S ,.f.g. .c 7 %       .           X #                                                   + + # X     % 5 p K +.8.g.p.s.7.;.O.X.X.] ` o.] X.X.] ` ] ] X.] o.] ] ] ] ] ' `  .] ] ] o...] ] ] ] ] ..] o.X.X.] ] ] ] ] ] _ ' ..X. .'  .+.,.p.c.f.8.X.Z d 5 = O     X                                                                                 X   % 7 j I -.w.f.b.h.9.;.X.X.X.#.=.q.p.j.g.w.-.J d 5 %     .                       .   #                                                 #       O ; 5 s F #.e.p.f.f.q.>. . .X.' ] ] o.] X.] o.] ] X.] ] ..] ] X.] ] ` X.o.] o.] ] X.] ] ..] ] ] ] ] o.] X.] o.] ] X.] ] ..] ] ] ] ] o.] ] X.o.] ] X.] ] ..] ] ] ] ] o.] X.] o.] ] ] X.] ` ] ] X.] ] ] ] ] o.o.] ] ] X.] ` ] ] ] ] ] o.] X.] o.] ] ] X.] ` ] ] X.] ] ` X.o.] ` ] ] X.` ] ] X...o.] X.` ] ] X.] ] ..] ] ] ] ( ( ' =.q.c.v.g.u. .D s 5 % X                                                                               . #   .   O - 5 s D ..w.g.v.f.9.=. .X.X.O.>.q.p.g.g.8. .Z p 5 %     . # X .                                                                               X % 9 d U -.d.c.n.f.q.@.X.] ] ] o.] ] X.] ] ] ] ] ] o.] ] ] ] ] ` X.] ] ] ] ` ] ] X.` ] ] X...o.] X.` ] ] X.] ] ..] ] ] ] ] o.X.=.q.f.n.j.a.+.V p 2 * #                               #                                                   % 2 x >.c.c.<.j 2 % O       . .   ",
"@       .     O 5 S ,.g.a. .n 7 ;                       # X                                             O O + O     O 3 d K -.w.g.g.7.;.' V x d d d p d d p d d d d p d d p p d p d d p d p p d d p d p d p d d p d p d d d d p p d p d d d d j d j x P :.q.s.d.0.#.L d 5 % X X X   X                                                               .         # .   O 5 d I ,.a.j.p.r.;.Y V x d d j V ' 1.w.a.z.z.1.I d 2 @       . X     X                                                             .     . .   % 2 s S #.r.j.p.q.=. .J n x j d d d d p p d d p d p d d p d d p d d p d p d d p d p d d p d d p d d d p p d d p d p d d p d d d p d d p d p d p d p d d p d d p d d d p p d d p d d p d p d d p d d p d d p d p d d p d p d d p d d d p p d d p d d p d p d d p d d p d p d d d p d d d p d d p d p d d d p d d p d d d s y y d V ^ -.8.g.g.w. .C y 5 % O                                                                             O # O O O = 7 p D &.8.k.g.w.=.( V x j j x S ^ =.w.a.g.u.o.C y 2 % X # #                 .       .                                                   .     O 1 d J -.g.g.p.9.<.X.n d d p d d p d p d p d p d d d p d p d d d p d p d d d d p d d d p d d p d p d d d p d d p d d d p d d j S _ ;.7.g.g.w.+.P y 5 %     .                                                                             O 2 x =.c.c.>.x 3 %         .     ",
"      .       O 5 S 8.f.a. .x 7 %                       .                                                 O O O ; ; 3 p W -.a.a.w.O.I x p 0 5 2 , , , , , = , = = = = , = = , ; = = = , = = , ; = = = , = = = = 1 = = , = = = = = = 1 , , , 2 , 2 2 2 0 j J @.9.s.r.-.U j 2 O   X X X X                                                             #             X 1 d ^ >.p.f.9.] S j e 5 , = , 5 7 u l C ` u.v.p.>.I s ,         o       .                                                               O O & % 2 s L #.q.j.7.} D x s 0 5 2 , , = , , , = = ; , , = = = = = = = , = ; = , = = = = , ; = , = = = = , = = , = = = , = , = 1 = = , = , = , = , = , = , , = = , = = ; , = = = , ; , = = = , = = , = , = = , = , = , = , , = = , = = = = , = = = ; , = = = , = = , = = = ; = , = = = = , = = , ; = = = , = = , ; = = = = ; = , = , 2 7 u f V  .7.e.9.@.T j 2 % O                                                                               O * % 5 l I =.q.w.2.` C k r 2 2 , , 5 7 t f S ..u.a.q.O.J p 5 - +                                                                         X   . + O O , i Y >.q.p.8. .J x p 5 , , = = = , = = = = = , = = , = = = = = , = = = , = = = = , = = , ; = = = , = = , ; = = , = 1 = , = , , 7 y x J ..w.p.q.;.L d 2 O . .                                                                             O 2 x >.c.c.<.x 2 %         . .   ",
"        . .   + 7 S 8.f.a. .n 7 % O     O                                                                 .   O % , 0 n -.a.v.w.X.V y 7 < & + O   O   # #                                                                   .           #   O O O O % - 2 y V _ e.f.a.-.D 5 % O                                                         .       #       X         % 9 V =.f.c.9._ n t 5 - + .   . O = = 2 e c  .a.c.h.;.M 9 = O . . #     X             .                                               #     . + , e Z @.s.g.7._ x e 7 2 % O . O . #                                                                           #                       #                     .                                                             .                                                                                                     O - , 3 e n _ 9.s.q.=.S e = O                                                                           X @ & - , e S ;.p.p.8.` n y 5 *           O ; 2 y V O.w.h.r.@.F y 3 & .   O                                                                 X     O + + - 0 M O.q.f.8._ V y 5 , O                                                                                                       O % , 7 y n _ >.p.e.@.V 0 %   .                                                                           O + 2 x >.c.c.>.j 2 %               ",
"O       .     O 7 S 8.p.a. .c 7 % O                                                                       X   . O , p K t.g.a.-.n 7 ; O .   . .       O O #   O               .                         .                             .   O   O O O O O % = 7 l ' p.n.8./ e ; O O O O O O                                                               #       O 2 d ( q.g.p.@.n e 2 % % + + + # O O O = 2 y S O.q.s.<.Y d 5 % + + O .     X   #     #   X                                               #   O O 2 j I <.d.r. .n 7 = % %   .   .     .                       #         .               .             .                     .                                                                                                         #                                                       .                               X     + +   % 5 l @.f.c.8.^ p 2 O                                                                           @ O O % 2 p U 0.p.p.+.V y 5 , %   . .   O O O , 5 p S O.w.r.;.U d 5 % +   #                                                                   X       + 2 d I =.s.r. .n 0 , = % O                             .                                     .               .             .     . O % % , 0 x ' e.f.q._ p , O .     X                                                                       O 2 x <.c.c.1.j 2 %         .     ",
"      # .   . O 7 S 8.g.a. .n 7 %                 X                                                 X   . X     O w m #.a.g.t.I i %       .     O   # X X O                                   X                               .       X         O   O O . O % e J <.g.g.+.c 9 ; O % O O O                                                 X           #       # ; e V O.p.f.7.I s , % O & & + + O   @ X O ; 2 p J ;.e.e.X.V e 3 % + O     #                                                                 O O - r S =.q.d.1.T p =               . .   X .                                                               .                       .     X       .                                   .           .   .     #     .                                   .           #         .                                   X                             ; e ^ w.v.a.+.m e %                                                                               O = q c ..r.s.,.^ d 7 , %   O #       O O % , 0 j ) 1.r.8.o.V 0 = O                                                                             . - 0 S ;.q.r.1.I p , O O                                         X   .                                           .                     O   O , e A <.f.g.>.V 0 , O                                                                           O O 2 x ;.c.c.>.j 2 % O       .     ",
"      .       O 7 S ,.f.a. .n 7 %       .                                                               .     O , j ..w.g.a. .x 5 O   X .             O #                                                           #                 .         O   O   + O - 7 n  .q.g.0.) v 8 = O O                                                       #               #   , l _ 8.g.8.X.M 9 ;   . . + . .     X X X O = 5 l ( q.s.9._ a 2 = O   .                                                                     O % 5 c o.a.p.9.' v w %   % % O O   .       #                         .                                             #                                   .         #                                                             #                             X                                                                   . X     X O O ; 7 V O.a.a.8.` x 2 O                           .                                             X   % 5 f W :.r.8.' n 0 , % O   X         X     O = w N ..7.a.0.) u , %                                                                     O + O   % 2 d  .d.c.p. .n 7 O X X                                       #         .                                             X             X     O % 9 c O.p.v.a._ j 7 ;                                                                           # O 2 x >.c.c.<.x 2 %           .   ",
"        . .   + 7 S <.f.a. .n 7 % O                                                                       . . % 5 n <.n.v.w.S y ,   . .       # O             O .               . .                                                   X .             O   O % 5 d I >.g.a.1.S e , +       X                                                       #       #     2 D =.a.w.=.J y ;       . . .     X           1 e L 9.f.p.+.j 5 - O     X   .             .                                               O O ; 7 m 2.g.f.=.S 0 , O   O O O O                                                     .                         X           #                             X                 .                             X .           X                     #                                     .               . .             #                       O O % 5 d I ,.a.d.+.V 5 O O                                   .                                     X % 7 c $.w.q.;.I s 2 % & . .         X X       O = e I >.p.w.' f 2 %                                                                       O .   % 2 j =.m.m.p.^ p , # o X   X #                                                   .               .                       #             X .   + , p _ q.f.a.+.V e = O                                                                           O 2 x >.c.c.,.j 2 % O             ",
"  O   .       O 7 S ,.g.a. .n 7 =                                                                           O % 5 n >.c.c.8.x 5 O   .   . O O X #     O O                                                                 X   .   X           X   .         O - 0 V  .p.f.>.J 7 % + O   X                                                         . #           2 S >.p.w. .x 0 %     . . . .     X X X       % 5 n ;.f.f.-.j 5 *   X                                                                 #   O . = 5 k #.a.a.O.n 2 O O .     . O . .     #                                                                   #                           X     X                                                                         .                                                                                                         .     O   X O ; 7 c ..q.w.+.n 2 O                                                                         X O % 8 C -.a.p. .n 0 - O .         O X         . . O 5 S 7.c.g.#.l 2 %                                                                     .       % 2 l ;.b.M.7.S 5 O . . .                                                                                                           X X   X . . % 7 J <.p.r.X.x 0 =                                       .                                   O O 2 x >.c.f.<.j 2 % O       .     ",
"        . . . O 7 S 8.g.d. .n 7 %       X           .                                                   . # + % 5 V >.c.c.1.d 1 # . . . O % & O                                                                                                     .     o o % 7 c X.p.p.9.S 2 O . .     X                                                 X                   2 S >.p.w._ x 7 %   . . . . .     X       O O O 2 x ;.f.c.1.j 5 %     X X                                                                     % 2 z  .q.a.;.x 2 O + . # X     O   .                                                                                             .         .                   X                                               X               X   .                                                                                             #   O   X X . % 2 g ` q.a.#.n 2                                                                               % 7 S -.j.p.@.n 7 * .     X           X       . . , n >.f.f.O.v 2 %                                                                       . .   O 2 l ;.f.m.7.x , .   . X o                                                                                                               . . . + 7 S 1.q.q.X.x 7 %   .                                 #                                     . O 2 x >.c.c.>.j 3 %       .       ",
"      . .     O 9 S ,.f.a. .x 7 =                       #                                           .   . + & % 5 n =.c.f.>.d , .   . + & % O O   O     O                                                                                     .     X # X o   % 0 n  .p.p.<.S 2   .   .                                                                     #   2 V >.p.a...c 7 O   . . . + + O   X     O O % + , j @.f.f.>.j 2 % O           X       .   X                                                 O O 1 s  .a.f.=.x 2 % + . X X X   O . . O             #                                                                       O     O     # # O                                                       # X                                                                                                                               @ @ X     O 2 k ..q.q.O.x ,                                                                               O 5 V -.p.p.@.n 7 O   . .   O O O     X     .   . , n =.f.f.;.j 2 %                                                                     . .     + , l ;.f.c.9.n ,   . . . X                                                                                                           X   . o . O 5 S ,.q.9._ l 7 %                           #     .     X #                                   O 2 x >.c.c.<.x 2 % O             ",
"@           . O 7 S ,.f.g. .x 7 %                                                                         . + % 5 n >.f.c.8.x 9 ; O O O O O O O X                   .                                                                 X       X           . . 2 p J >.f.h.=.V , O . . . O                                                           .     X     2 V =.p.q. .x 5 O . . . . O + O   X X   . % % % , x O.p.f.=.x 5 = +                                                                         O % , f o.a.f.>.S 0 ; O . X .   O + O O         .               .                                               O   #       O   #                                                                                     #         .                                                       .                                 .         .   O     X O ; 0 V -.g.a.:.n =                                                                             O @ 5 V O.g.p.@.n 7 O   . .   O O O       . . . .   = n =.f.f. .l 2 %                                                                         .   O 2 d ;.h.c.7.C 7 % . .     .                                                         .                         X                       X   . + % e I ,.p.r.] n 7 %                                           #                               O + 2 x >.c.c.>.j 2 %         .     ",
"O     . . .   O 7 S ,.f.a. .n 7 % O O                     #                                                 # O 2 x =.f.f.w.J d 5 % O O O   O     O   O       O               X           .                                     X     .       #           O = 0 V  .q.g.d.o.n 2 O     O   O                                                                     2 V >.p.a...x 5 % .   .   . O % O O       + % O , x O.p.f.=.j 5 = % % O O       #                                                         # . % , h #.g.c.q.] z 2 %         O O + O .                                 .               .               .     X     O     # #   O #     O                                                             X .           # #     X                               .           .                       X           .                   O O   O O O O % 5 x ` w.j.a.*.n ,                                                                               O 5 V -.g.p.O.n 7 %   . .   O % % O       . + O . , n >.f.f.@.l 2 %                                                                     O +   O % 2 l ;.c.m.p.^ d 5 O   * O O                     .                                             X           .                           @ O # % 8 k ..q.f.e.X.n 0 - O                                                                           O 2 x <.c.c.1.j 2 %       .   .   ",
"          . . O 7 S ,.f.a. .n 7 %                   .                                                     . . O 1 s I 7.f.a.:.V 0 ; O O #       #     O                                           X                   #                         O   O O O % , y I 8.f.f.1.J s 2 O . .   O O .                                                                   2 V >.p.w._ j 5 %   .   .   . O O O O       + O , j O.p.f.=.l 5 , % O O O               #                                               O     * , i ` w.c.f.1.A e = O O O O O   O                                                                           O       O O         O       # O #                                                                             #                   X                                                                           .     O O O O @ % , r K ,.g.g.8./ d -                                                                               O 5 V -.p.p.X.v 7 = .   .   O O O   X     . % #   = n >.f.f. .d 2 %                                                                     O O .   O = p ' a.c.p.+.C e = + % - O                                           .                                               #     #   X   O % % - , e C -.g.f.8.I d 5 % O O                                                                       O O 2 x ;.c.c.>.j 2 % O       .     ",
"        . .   O 7 S ,.f.a. .c 7 %                       X                                                 .     @ 5 j ` 8.g.w._ d 2 % O @         O                                                                                         . O O O O O O = 2 s / w.v.p. .p 4 O   O O O % O                                                                     2 S 7.p.w./ d 2 ;   O     .     O O O       . O 2 c =.f.f.=.l 5 = O O   #                                                                 O X O O 2 n ;.p.f.q._ j 5 % O O     # . O     #                                                                   O     O     O   O     O X # O   O     .                                                       X                 #                                                                                                     O % & O % 5 s _ d.v.a._ x 7   X                                                                             % 7 S ,.p.7._ x 7 = +   .     O             % +   , n >.f.j. .j , %                                                                           .   O 7 n X.9.r.1.^ k 2 = = = O O                                                                                         .           O % % - , 7 d I 9.j.d.+.j 5 O       O                                                                     # O 2 x >.c.c.<.x 2 %         .     ",
"O     .   .   O 7 S 8.p.g. .n 7 % O                   .                                                       X X = 0 Z ,.g.g.>.I p 5 = % O O .     # O     O                                                                         # o O O   O   + % , 7 i V ;.p.g.8.K 7 @   X O   O O                                                             #         2 S >.f.w./ j 5 = O O       X     #         .   2 n >.f.c.=.j 2 % O # .         X   #                                                   . X   . X - y I <.p.p.>.I y 5 2 , O O X # .   #                                                                                                     #                                                                                                                                                                                   . O % , , 5 p V >.p.f.1.I y =                                                                                 % 7 S ,.p.q.' l 7 - . . .   O               + O   = n >.c.g.+.f , %                                                                             . . , y J ;.r.r.+.S p 7 5 , O                                                                                                         - , 2 7 p S O.q.h.<.I e %         O                                                                       O 2 x >.c.c.,.j 2 O O         .   ",
"  O     . .   + 7 S 8.f.w. .n 7 %         O                                                               .   O O ; 2 l +.w.c.f.<.( n y 5 1 % O       #   O                                                                           # O O # O O + * 3 p n ^ =.e.s.r...m 2 % % O O X .                                                           X       .     2 V >.p.w...l 5 = O O     X         X O       . 2 V >.c.f.=.l 2 O   .   . .             #                                                     O O ; 9 x ' e.h.p.,.K c d 0 2 %         X                                                                   . O       O   O #     O     O   .                                                                         #                                                                                                             O < q a m _ >.e.s.>./ j 5 % O                                                                         . .   + 7 S -.p.q.X.n 7 %   . . O O               .   X = n 7.v.g.O.k 2 %                                                                     X   X   . . % 5 d ' e.a.q.=.K n a 0 =                                                                                                       O , 8 u c U >.p.c.e.' x 2 O . .   O O                                                                     O O 2 x >.c.f.<.j 2 % O       .     ",
"X       .     O 5 S 8.f.a. .n 7 % O     X           X   #                                               # O O O % O = y K =.w.j.g.9.X.P l y 7 5 5 2 5 2 2 2 5 2 2 2 2 5 2 2 2 2 2 5 2 2 2 2 2 2 2 2 2 2 2 2 2 2 2 2 2 2 2 2 2 2 2 2 2 5 2 2 2 5 5 7 0 f K o.8.d.r.9.X.Z p , * + @       .                                                                       2 V =.p.a...j 5 =   O O           X     O     . 2 n 7.v.c.=.d , O     .                   .                                               O O X . % , w Z X.9.a.k.5.+.U V p 0 3 , , 2 2 5 2 2 2 2 2 2 2 2 2 2 5 2 2 2 2 2 2 2 5 2 2 2 2 2 5 2 2 2 2 2 2 2 5 5 5 5 5 2 5 2 2 5 5 5 5 2 2 ; ; % O                                                 .       . O     O O % = , , 2 2 5 2 5 2 2 2 2 2 2 5 2 2 2 2 2 5 2 2 2 2 2 2 2 2 2 2 2 5 2 2 2 2 2 5 2 2 2 2 2 5 2 2 2 2 2 2 2 , 1 5 u B [ &.w.f.s.=.( M e = % O                                                                               + 5 V =.p.p.X.x 5 O . .     O                     = n >.v.g.+.g 2 %   #                                                                   X   . + .   % w V O.q.a.w.4.$.K b 0 5 2 2 2 2 2 2 2 2 2 2 2 2 2 2 2 2 2 2 2 2 2 2 2 2 2 2 2 2 5 2 2 2 2 2 5 2 2 2 2 2 2 2 5 2 2 2 2 2 5 2 5 e k R $.,.g.v.e. .V w %         O O                                                                     . O 2 x >.c.c.>.j 2 %         .     ",
".       . .   O 7 S ,.f.a. .n 7 %                 X                                                       + O O     O 4 p n  .8.g.f.q.<.@.' I J J J J J J J J J J J J J J J J J J J J J J J J J J J J J J J J J J J S J J J J J S J J J J J J J I I ^ X.7.a.p.w.#.I x e 2 % O O O       .                                                                     X 2 V >.f.a.` j 2 % O O .         .             O 2 n >.f.c.=.d , O                                                                             # # @ O ; 7 j I ,.a.a.g.>.@._ I L J I J J J J J J J J J J J J J J J J J J J J J J J J J J J J J J J J J J J J I I I I J J S F I I I I J n i 6 ; %         . O           O % O         X       O O O   .   .   . O = 2 9 i l Z V J I I J J J J J I J I J J J J J J J J J J J J J J J J J J J J J J J J J J J J J J J J J J J J J S V I _ >.w.a.a.8.&.P d 7 , +   . .                                                                             O 2 V =.s.p.X.x 7 % .                             , n >.c.f. .f 2 O                     #                                                     O O       % w x ^ 8.a.g.a.7.;.^ I J J J J J J J J J J J J J J J J J J J J J J J J J J J J J J J J J J J J J J J J J J J J J J J J J J I _ @.<.a.g.z.8._ x 0 ; O                                                               .                 O + 2 n ;.c.c.1.j 2 %           .   ",
"      .   .   O 7 S ,.g.a. .n 7 % O                                                                       O O   X   X O 2 e n ^ 1.q.p.p.e.e.9.r.q.9.7.7.7.7.7.q.q.7.q.7.7.q.q.7.q.7.7.q.q.7.q.7.q.9.q.7.q.9.q.7.7.q.9.q.9.q.7.9.q.q.9.q.7.q.7.7.9.9.q.w.p.s.r.#.I j w , % X .     . O . O                                                         #             2 V =.f.a. .f 2 %         .     X         # . O 2 n >.f.f.=.d 2 %         #               X                                         X                 O = 0 j I ,.l.j.a.p.e.9.9.q.q.9.9.q.7.q.7.7.q.q.9.9.7.q.9.9.q.7.7.7.q.q.7.q.7.7.q.q.7.q.7.7.q.q.7.9.q.q.q.q.q.7.9.9.<.r.q.p.w.<.X.L v y 7 2 % O     .     .   O % % %           X   O O O   #   .   . % 2 e d n I ' @.<.q.p.r.q.q.9.7.q.q.q.q.q.7.q.9.9.q.q.7.7.9.9.q.q.7.q.9.9.q.q.9.7.q.q.7.q.7.7.q.q.7.9.7.q.9.9.q.9.>.9.e.p.c.v.v.u.&.K f 8 = O                                                             .                         2 V =.f.p.X.l 5 %                 .   O       # , n =.f.f.+.j 2 %                     #                                                     O O O   X   = 0 x ^ -.a.j.g.p.q.q.9.q.9.q.9.q.9.q.7.9.q.7.7.q.9.q.7.q.9.q.7.q.9.q.7.q.9.9.q.q.9.7.q.q.7.q.7.7.q.q.7.9.7.q.7.7.q.q.7.7.q.q.p.f.a.d.,.` j 0 = O X                                                                                   O 2 n <.c.c.>.j 2 % O             ",
"      .   . . O 7 S 8.f.a. .n 7 ;                   .                                                     O O       X X   = 5 d Z ` =.q.f.c.c.v.v.v.c.c.v.v.v.v.c.v.v.g.v.v.c.c.c.v.v.f.c.c.c.v.c.c.c.c.c.f.c.c.c.c.c.f.c.c.c.v.c.f.f.v.c.c.c.c.c.c.c.q.1.#.( V p 7 2 %               O                                                                   .     2 V >.f.a.` d 2 % O   O                     . . 2 c >.f.c.=.l , %                     .                                                   .   .       O % 2 0 j V ' =.w.g.g.c.c.c.c.v.v.c.f.c.f.c.g.c.c.v.c.c.c.c.c.f.c.c.c.c.c.c.f.g.c.c.c.c.v.c.f.c.f.c.g.f.v.c.c.v.g.g.g.p.p.g.g.g.a.a.7.#.K j 7 = O X . .       O % O O             O O             O % 2 y D ..>.w.h.f.f.f.f.f.f.f.f.c.f.c.c.c.c.v.c.c.c.c.g.c.c.f.c.c.c.c.c.c.c.c.c.v.c.f.c.c.c.v.c.f.c.f.c.v.v.c.c.c.f.c.c.v.v.v.g.,...J d 0 , %   X   .                                                                           X   . 5 V >.p.p.X.x 5 %                               , n >.f.f.O.j 2 % O                                                                           O O   O   O , 7 s V ) ,.a.c.v.v.v.c.v.v.v.c.v.v.v.c.v.v.v.c.v.v.c.c.c.c.f.c.c.c.v.c.c.c.c.c.v.c.f.c.c.c.v.c.f.c.f.c.v.v.c.c.f.c.c.c.v.c.g.w.:.` A s 7 = O               O                                                                     . O 2 x =.c.c.>.j 5 % O             ",
"  O     .     O 7 S ,.g.d. .n 7 =                         #                                               . O               % 2 r v J  .=.7.r.w.w.u.w.w.w.w.8.w.8.w.w.w.w.w.w.8.8.w.w.w.7.w.8.w.w.8.8.w.w.w.8.w.w.w.w.w.w.8.8.w.w.w.w.q.8.w.w.w.w.w.7.:.U M g y 5 , %   X           O                                                       .                   2 V =.f.a...l 5 %       .   . .     O       O O 2 x ,.c.f.=.d 2 O   .                                                                                 O O = 1 5 e x D ..,.8.w.w.8.r.w.w.w.w.w.w.w.w.w.w.w.w.8.w.w.w.w.w.8.w.w.8.w.w.w.w.7.w.8.w.w.w.w.w.8.w.8.8.8.w.8.w.8.8.,.8.y.w.a.g.v.v.z.4.U j 7 =     . . O . O             .   O O             O = 5 p V O.a.v.v.j.g.w.w.w.w.8.7.w.8.w.w.7.w.8.w.8.8.w.w.w.w.w.w.w.w.8.w.w.8.w.w.8.w.w.w.7.w.8.w.w.w.w.w.w.8.w.w.w.w.w.w.d.w.8.,...U n d 7 , % O                                                                                       # 2 V ;.p.p.X.l 7 %     X           .   .         , n >.f.f.@.j 2 %                                                                                 O O % O O % , 0 l K O.8.w.u.w.w.w.t.w.w.w.8.w.w.w.w.w.w.8.8.w.8.w.w.w.w.8.8.w.w.8.w.w.8.w.w.w.7.w.8.w.w.w.w.w.w.8.w.w.q.w.w.8.w.8.w.<. .S l w 2 %       O O O O O O                                                 # .                     % 2 x <.c.c.,.j 2 %         .     ",
"      . .     + 7 S 8.f.a. .n 7 %                                                                             . . O O       O O , 5 t d m Z S A C C V C A V V C C V A V C V C A V A V Z Z Z C Z C Z V Z V A A Z V Z Z C Z V C Z V V A V V A A A C A Z v y 9 2 1 % O X                                                                                   #       2 V =.f.g.` f 2 %     . .             X     O   2 x >.f.f.=.l , %   .   .                 #                                                       .     O O O O % 4 r j C D K D A M A V Z Z A V V C Z Z V C V A Z Z V A C V A V A V A Z A V A V V Z Z Z m Z M Z n A A S J K K Z S U ` -.u.B.B.g.8.^ j 9 % X   X O + . .             . . O   .         1 w j I =.p.f.v.k.,...I S Z C V V A A Z m Z M M A C V A V V A A Z C Z V Z V C V A V A A V C Z Z Z V V A V Z Z Z C A V Z V S C m l s e 5 1 % O @                                                                                         O 2 V =.p.e.X.l 5 % .               .   O         , n =.f.f.+.j 2 O     #                                                                           O % % % O   X % 5 e n S D V C C V C V V C A Z V C C V Z Z C Z C Z C V V A V Z V C V A V A A V C Z Z Z V V A V V A Z V V Z V Z Z D J S x e 2 %   @ @   O O       O   O                                               #                       O 2 x ;.c.c.<.j 2 %       . . .   ",
"  O     .     O 5 S ,.f.a. .x 7 %   O               # # #                                                   . . O O O O O         O = 5 7 0 0 7 7 7 7 7 7 7 7 7 7 7 7 7 5 7 7 7 7 7 9 7 7 7 7 7 7 7 7 7 7 7 7 7 5 7 7 7 7 7 7 7 7 5 7 7 7 7 7 0 7 7 7 2 1 ; %       X         . .   O                                                         X #         X     , V >.f.g.` d 5 % O   O   .     .         . . O 2 n ,.f.c.=.d , O       .                                                                       . .   . . .         % 5 7 e 0 7 5 2 5 7 7 7 7 7 7 7 7 7 7 5 7 7 7 7 9 7 7 7 7 7 7 7 5 7 7 7 7 7 7 7 7 7 7 5 5 5 2 5 7 0 0 e e e 0 e l G $.y.k.v.g.=.U d 5 %   #   # O     X       . . . O .     X   = 9 x ^ >.j.f.q.4.$.K x y w 5 5 7 9 7 7 7 5 5 2 5 5 5 7 7 7 7 7 7 7 7 7 7 7 5 7 7 7 7 7 7 7 7 7 7 7 7 5 7 7 7 7 5 7 7 7 0 7 7 7 5 2 = % O O O     X       .                                                                               O 2 V =.f.p.X.x 5 %                               , n >.f.f.+.j , %                   .                                                 O             O % O O X X X O = 7 e 7 9 7 5 7 7 9 7 7 7 7 5 7 7 7 7 7 7 7 7 7 7 7 7 7 9 7 5 7 7 7 7 7 7 7 7 7 7 7 7 5 7 7 7 7 7 5 5 7 5 7 7 7 e e 7 = O X X   O + O             O                                                                     O + 2 x <.c.c.>.j 3 % O             ",
"      . . .   O 7 S ,.f.p...n 7 % O                       X                                                     .       .   .       O % = = = % % = % ; % = = ; % = = % % = % % = % % = % % = = % = % % = % % = = = % = = % % = = = % = ; = = = = ; % % % O O                 O                                                                                 2 V >.f.a...f 2 %       .   .             . . O 2 n =.c.f.=.d 2 %         X                                                                       .   .           O % = , = = O O O % = % = % - % = = = % = % = % = = % % = % % = = = = % = = % % = % = % % % O       % = ; , = % ; 1 5 y j I 8.p.w.1.T l 5 %     . # .             . + +       X O 7 x ' 7.f.g.<.( n p 0 , %       * % = = % % O O   O % = % = = % % = % % = - = = % = % = = = % % = = = ; % = = = = = % = = % % O O @     X @   O O         X                         # # #               # #     #                         . 2 V =.f.s.X.l 7 %     X               O       X , n >.f.f.@.k 2 %                                                                                     O O O . . X     O % % % = % = % % = % % = % = % % % = % = % = % % = % % = = = % = % = = = % % = = = ; % = = % % = - % - = % = = = O   X     O * & % O                                                             # X                 O O 2 x >.c.c.>.j 2 %               ",
"@       .     O 7 S ,.f.g. .c 7 %                                                                                                 #     O   O O   O   O               O     O   O       O           O   O               O     .           O         O O   O O . .       .   .   O                                                         #                     2 V =.f.a._ d 2 % O   .   .         O       O   , n >.f.f.=.j , %       .                                                                       .   .         . # X O O O O     X X X O     O             O           O     O                 .       O           X X     O           O = 9 g ' 7.p.d.:.P y = O   # .   .       .     O O .       , y U 8.v.g.q.^ x 0 , %     .   X     O O O O     X             O     O                       O                                               O O O O O                             #       # #     #                                         2 V =.s.p.X.x 5 %         X       . .           , n >.f.f.O.j 2 %                                                                       O   X         . O O       X     X     O     O     O   .     O   O     O     O     O   .                 O               O     O           O       . X     O % % O         X                                                                           O 2 x >.c.c.>.j 2 % O       .     ",
"      .       O 7 S ,.f.a...n 7 % O O                                                                     X       X X             O O O O         . # X                                               .   .         .                 .       O         O + + O .   .     . .     O                                                                             2 V =.g.a...l 2 %     #   .       X         O O 2 c >.c.c.=.d 2 %   #                     X                                                       O           X   O O O O O   O   @                                                                       O + O         O O O O X X     O % 5 j _ d.f.q. .x 5 %     O +       X           O O   ; 7 l _ a.v.v.-.d 2 % O               O % % = % % O         . .       O                                 . .                   . . O O O O   O . O O O   O O                                         . X                                       # 2 V =.f.s.X.l 5 %                   .         X 1 n >.f.f.@.j 2 %                                                                                   X     .           .                                       .   #       .                                               .         O . . . .   .   . O O                                                                                   O O 2 x >.c.c.<.j 5 %               ",
"        . .   + 7 S <.f.a. .n 7 %                 X                                                                             # O   O O               .                                         .                                     .     #       # O O O + .     . .             O                                                                 #       2 V >.f.a...d 2 % O O       .   . O       # . . 2 n =.f.f.=.d , O                                                                               O O O                         O O     #                                                                 O + O O O O O   O   @ O O O   @   O ; t Z <.g.a.<.A e , % O % + O                     O = i V +.g.g.8.U w ;   #                   O % % O O                                         .                                     O . + O O O O     .       O O O                                                                               2 V =.p.s.X.l 7 % .               . .           , n >.f.f.O.j , %                                                                           O         .     .     .   . . .                                                                                                         . O         . X                 O                                                                       # O 2 x <.c.c.,.j 2 %         . .   ",
"O       .     O 7 S ,.f.a. .n 7 %                       .                                                           O O O O O     X X   .       #   .                             .       .         .   .   .   .     .   .         .   .         . .   O . .                           O O                                                         .           2 V >.f.a...d 2 %         .                 O O 2 x >.f.c.;.g 2 % .                       .                                                     O               X     X   X   X   .       .     .                 .   .   .     .           .   .               . O   .       . . O * + O + ; 4 d  .q.g.0.T s 2 = % % +         X     O %   O O , d ' w.N.8.U f 5 O   . O O O O   . .         .         .         . .     .           .   . .       .     . .   .           .       .   . .     X .   X       O O                         .     X                                             # 2 V =.f.p.X.x 5 %                     O         , n >.f.f.O.f 2 %                                                                                     O .       . . O O   .   .                               .     .       .         .       .     . .   .         .     .     .   O % O O O . .   .       O O O O                                                                         O O 2 x >.c.c.>.j 2 %               ",
"      # .   . O 7 S ,.f.p...n 7 =                                                                               O O O % O O O O     . X X X X X .   .                                 .     .         .       .   .           .       .   .   . .   . . .           .               O O O                                                                       , V >.p.g.` j 2 %   O       .               . O 2 n >.c.f.;.d 2 O                                                                                 X               X   .   X     X .     .   .       .     .   .               .     .   .       .   .         .   O     .   X     O + O O O O ; w I >.a.r.` j 7 = % % + O   X   X   O O O O   O , l  .w.g.=.n 0 ; O O . + + + O         .       . .         .   .   .     .     .             . .     . .           . .       .   .   O   O         . X X                                   X # #                                             O 5 V =.p.s.X.x 5 %                   .         . , n >.f.f.+.j 2 %                                                                         X       O O O % O O O   O   O O                                         .   .   .   .   .   .       .               . .             . .   . + & * + O         .     O O                                                                             O 2 x =.c.c.1.j 2 % O       .     ",
"      .       O 7 S ,.g.g. .n 7 % O                                                                                                     X           X                                                     .                               .     .     .   .                           O O                                                               X       2 V =.f.a...f 2 %     O . .           X   . O O , x >.c.c.=.d , %                       .                                                         X               # .                     .                 .                                         .       O O O O     .       # . .         5 S ,.a.q._ l 7 = O O .             O       O O 2 j  .w.a.+.l 2 - O   O O O O   .         #   O O + O O   .   #             .       .     .                       .       . X       . + O O O O     . X X     X                                                                               O 2 V =.s.p.X.l 7 % .               . . O       X , n >.f.f.O.j 2 %                                                                               O O O % % O O O O       .   X               X         X           .     .           .     .         .                       X         .   O * % O                 .                                   .   X                                 O + 2 x >.c.c.>.j 3 %       . .     ",
"        . .   + 7 S <.f.a. .n 7 %                                                                                                                                                                                   .     .       .                   X                       .                                                                   X             2 V >.f.a._ d 5 % O     .       . O         .   2 n ,.f.f.=.d 2 %     .                                                                         X   X         O O   O .   O   O                 .                 .           .           .                   O   O         .           . . X   2 D t.a.w.' l 5 %     .                 .   O % 2 x  .w.a.+.g , % O O . . O   #               O O O % O                 .                         .           .                     O O % O % O   X                                                   .     .                                 . 2 V >.f.p.' x 5 %                               , n >.f.f.O.j , O                                                                               O   O O O O O   O       X                                     .                                 .         .                 .             O + % % O O                                                       #                                 O 2 x >.c.c.>.j 2 % O             ",
"  O   .       O 7 S 8.p.w. .n 7 % O                                                                                                                                                                                                                                             . .                                                                             2 V >.f.a.` l 2 %         .               . O O 2 n =.f.c.;.d 2 O                         X                                                     X             .   O           O O O         O O   O .   O   O     O     O       O                 O .                       O O O + O .     .   , S 4.g.p. .l 2 X X   . . O O             . O O 2 x O.a.g.:.j , %     O             . O O             O   O     .     O       O   O .     O O       O     O .     O         O   X                         .   O                               #   X                                   X       O 2 V >.p.p.X.l 5 %     X             .           , n >.f.f.O.j 2 O #                                                                           O O O     X X     X     @ O X         O         O X     O           O         O     O .     O               O .     O O     O           X         O     X                                       X           .                                 . O 2 x <.c.c.<.j 2 %           .   ",
"        . . . O 7 S ,.g.g. .n 9 %                   .                                                                                                                                                                                                                                                                                               .         # 2 V =.f.g...d 2 % O .   .   .               .   2 c >.c.c.;.d , %                                                                           # X   O             O .             O O O     O     O     O   O     O   O       O       O O   O O   O   O     X                 O % O O O         . , C ,.g.p. .j , X X                 .     . O O 2 x O.p.p.+.j , %   O O     X       O                   O   O     O O     O O   O     O O     O   O     O   O   O   O O   O             X         X       O + O O                             #                                                 2 V =.p.s.X.x 5 %                 .   . O       , n =.f.f.@.j 2 % O                                                                         O O O O     X   X   X   O   O O   O O       O     O   O O   O O   O O   O O   O   O O     O O   O O   O O   O     O   O   O     O   O   X     X                                                 .   #           X                                 % 2 x ;.c.c.,.j 2 % O       .     ",
"      . .     O 9 S 8.f.a. .c 7 =                                                                                                                                                                                                                                                                                                       X               X       2 V >.f.a._ f 5 %     O . .     .           . O 2 n >.f.f.=.d 2 %     .               X                                                               #     # O                   O           # .     O         O                             O #   O                                           , V -.f.p. .v 5 O                         .   O , n =.f.f.O.j , %               X       #                                                 O   #                                                                                                                                               # 2 V >.f.s.X.l 5 %           X       .         X , n >.f.f.+.j 2 %                                                                                                                                                                             O         @ .       O #                       .             X #                                 #                 #                             O 2 x >.c.f.>.j 2 % O         .   ",
"@           . O 7 S 8.p.a. .n 7 %                   O X                                                                                                                                                                                                                                                                                   .     #               , V =.f.g.` d 2 % O     .       X         O   # 2 x ,.c.f.=.l , O                   #                                                                                                             # X     .     X   #                               .       o #                                 2 V =.p.p. .j 5 %     O                 O       = x =.f.f.=.k 2 % X           . #                                                           X                                     .                                                                                 .                           2 V =.p.p.X.x 5 %                 .   O       . , n >.f.f.+.j , O                                                                                                                                                                                                                                                                         .           .                                     O + 2 x <.c.c.,.j 2 %               ",
"O     . . .   O 7 S 8.f.a. .n 7 =   O               .                                                                                                                                                                                                                                                                                                   #       2 V >.f.a.` l 2 %     O .           O       O O 2 n =.f.c.=.d 2 %       .                 #                                                                                                                                               #           #             #                         O 2 V =.p.p. .v 5 %     O                 O       = x ;.f.f.-.j 2 %             O #   #                                                                                                                                                                                                         . 2 V =.h.p.X.l 7 % #                             , n >.f.f.@.k 2 %                                                                                                                                                                                                                                                                                                                           O O 2 x >.c.c.<.j 2 % O       . .   ",
"          . . O 5 S 8.f.a. .n 7 %                   X o                                                                                                                                                                                                                                                                                   #                     , V >.f.g...d 2 O O         .           .   . O , n >.f.f.;.l , %     .             .                                                                                                                                                                     # # #       #                         2 n -.f.p. .x 5 O   O O         X               = n =.f.f.-.k 2 %             X   .   X #                                                   #                                     #                                                                                                           O 2 V =.p.s.X.j 5 %                 .   O       X , n >.f.f.O.j 2 % O                                                                                                                                                                                                                                                                                                                           O 2 x <.c.c.<.j 3 %               ",
"        . .   O 7 S ,.f.a. .n 7 %                   #                                                                                                                                                                                                                                                                                                     #     2 V >.f.a.` d 2 %     O . .           X     . O 2 n >.f.c.=.l , %   #     #                                                                                                                                                                                                                   O 2 V =.p.p. .v 5 %   O                     O .   = x =.f.g.O.j 3 %                                                                                                                                                                                                                             O 2 V >.p.p.X.l 7 %                     .         = n >.f.f.@.j 2 %     X                                                                                                                                                                                                                                                                                                                     O O 2 x ;.c.c.>.j 2 % O       .     ",
"O     .   .   O 7 S 8.g.a. .c 7 % O                       #                                                                                                                                                                                                                                                                                                     2 V =.f.a...j 2 % O     .       .           . O 2 x >.f.f.=.d 2 O                     .                                                                                                                                                                                                         2 V =.p.p. .x 5 O .   O       X                 , x =.f.f.-.j 2 %               #       #                                                     #                                                                                                                   X   #                       # 2 V =.f.p.X.x 5 %                 . .           , n >.f.f.O.j , %                                                                                                                                                                                                                                                                                                                           # O 2 x <.c.c.<.x 2 %         .     ",
"  O     . .   + 7 S ,.f.g. .n 7 %                                                                                                                                                                                                                                                                                                         #                     2 V =.f.a._ f 2 %   .     .         O     .   O 2 n >.g.c.=.d , % .                                                                                                                                                                                                                           O 2 V -.p.p. .n 5 O   O O                 O O     = x =.f.f.-.k 2 O             #       #                                                                                                                                                                                                         2 V ;.f.q.X.x 5 % .                   O         , n >.f.f.O.j 2 %                   #                                                                                                                                                                                                                                                                                                       O O 2 x >.c.c.>.j 2 %           .   ",
"X       .     O 5 S 8.p.a. .n 7 ;                                                                                                                                                                                                                                                                                                         X           .         2 V >.f.g.` d 5 % O     .   .               . O 2 x =.c.f.=.d 2 O         #         X                                                                                                                                                                                                           2 n =.f.p.X.l 5 %   O                 X     .   , x =.f.g.-.j 2 %                     #                                       .     .           o                                 #                                                                                   #                     . O 2 V =.p.p.X.l 7 %                               , n >.f.f.O.f 2 O                   X     .                                                                                                                                                                                                                                                                                                   O 2 x >.c.f.<.j 2 % O       .     ",
".       .     O 7 S ,.f.a. .n 7 %                                                                                                                                                                                                                                                                                                                 .             2 V =.g.g...d 5 %     #   .     .           . O 2 x >.c.f.=.d , %                                                                                                                                                                                                                             O 2 V -.p.p. .x 5 %     O                   O     = x >.f.f.O.j 3 % X                   # #                                                                                                                                                                                                     # 2 V >.s.p.X.l 5 %               .     .         , n >.f.f.O.j 2 %                     #                                                                                                                                                                                                                                                                                                     O + 2 x =.c.c.<.j 2 %               ",
"      . . . . O 7 S 8.p.p...n 7 =                 #                                                                                                                                                                                                                                                                                                       X   # , V >.f.a...g 2 % O O       .   X         # O   2 n =.f.c.;.l 2 %                                                                                                                                                                                                                               2 V =.f.p. .x 5 %   O                       .   = x =.f.f.=.j 2 %                                                                 .           . #                                                                                                                                               2 V =.f.s.X.x 5 %     X           .   O         , n =.f.f.O.f 2 %                                                                                                                                                                                                                                                                                                                             O 2 n <.c.c.,.j 2 %         . .   ",
"              O 7 S ,.f.a. .n 7 %   O                 X .                                                                                                                                                                                                                                                                                                       2 V >.f.a.` d 2 %         .               . O O 2 x >.f.f.=.l , O     .                                                                                                                                                                                                                       O 2 n =.p.p. .x 5 O     O                 O   .   , x =.f.f.-.j 3 %                                                                 # X                                                                                                                             #                           # 2 V =.p.p.X.l 7 % .                             , n >.f.f.O.j 2 %                     #                                                                                                                                                                                                                                                                                                     . O 2 x >.c.c.>.x 2 %               ",
"  O   .   .   O 7 S 8.f.a. .n 7 =                                                                                                                                                                                                                                                                                                                               2 V =.f.g.` j 2 %   O       .       O       . O 2 n >.c.f.=.d , %                   .     X                                                                                                                                                                                                     2 V =.p.p.X.x 5 %   O   O         X     O       = x =.f.g.-.j 2 %               #     #                                                       #                                                                                                                                                 2 V =.f.p.X.l 5 %                 . .         X , n >.f.f.@.j 2 %                                                                                                                                                                                                                                                                                                                             % 2 x =.c.c.>.j 3 % O       .     ",
"      .   .   + 7 S 8.p.a. .n 7 %                         #     # #           #                                       .                                                                                                                                                                                                                 .           #           2 V =.f.a...f 2 %     O . .           X     O   , x >.c.f.=.d 2 %                                                                                                                                                                                                                               2 V =.f.p. .v 5 % .   O                     .   = x >.f.f.-.k 2 O                     .                                                       X                                                                                                                                               O 2 V =.p.p.X.l 7 %                 .   O         , n =.f.f.+.j 2 %                                                                                                                                                                                                                                                                                                                             + 2 x >.c.c.>.j 2 % O     . .     ",
"  O     . .   O 7 S 8.g.a. .n 7 ;                       # .           #               #                         #     X       o                               X #     #                                                                                                                                                                                         2 V >.f.a._ j 2 % O     .       .         . . O 2 n ,.f.c.=.l , % .                                                                                                                                                                                                                           O 2 n -.p.p. .v 5 %     O               X O       , x =.f.f.O.j 2 %                                                                   X   #                                                                                                                           .                       . O 2 V =.f.p.X.x 5 %                       O       , n >.f.f.+.j , O                                                                                                                                                                                                                                                                                                                           O O 2 x <.c.c.1.j 2 %               ",
"      . .     O 7 S 8.f.g.+.c 7 %                       #   X # #                                         #   # #         #                 .             .   #     #   . O   # #                           # #                   X                                                                                                                       #     2 V =.f.a.` d 5 % O       .               . . O 2 n =.f.f.=.d , O   .                     .                                                                                                                                                                                                     2 V =.p.p. .x 5 O     O                 O       = x =.f.g.O.k 2 % X             .                                                 .           #                                                                                                                   X                             2 V >.p.p.X.l 5 %                     O         , n >.f.f.@.j 2 O #                                                                                                                                                                                                                                                                                                                         O O 2 x =.c.c.<.j 2 %           .   ",
"      . .     O 7 S 8.p.p. .n 7 %     .           O                       #                                                         # # X                           X     o                                       # # X .         .                     #   X O     O     #                                                                                     , V >.g.g...g 2 %   .   .     .     O       O   , c =.c.f.;.l 2 % O   .                                                                                                                                                                                                                       O 2 n -.p.p. .x 5 %   O O     X                   , x =.f.g.-.j 2 %                       #                                                     .                                                                                                                                               @ 2 V ;.p.p.X.v 5 % .               . .         X , n >.f.f.O.j 2 % O                                                                                                                                                                                                                                                                                                                             2 n >.c.c.<.j 2 %               ",
"X .   .   .   % 0 S >.f.p. .n 0 %     .         O O O O       X     @                 X           .       .                             .                       .   X                                                 .       X                                 O O O O O   O     X     X                                                                   #   2 V >.f.p...d 2 %       O       .   O     . +   = x =.f.f.=.d 2 ; O O O O X             .       X # .                                                                                                                                                                                           2 V =.p.p. .x 5 O   . O           X     O O     , x =.f.f.=.j 3 O                     #                 X #         #   X     #   #     X     . . .   #   O   O O   O                           X                                                                                     O . . . % 5 n O.p.p.@.n 5 O   . .               .         , n >.f.f.O.j , % .                                                                       O           O % % O O O O       .                                                                                                                                                                                                       O O           , x ,.c.c.>.j 5 O               ",
"    . # . .   % 0 V =.f.p.=.V 7 %       .     . O O     X X X     O O         .                           X       .   X   .   #                       .                                                                       .     X                             O O O O             . .                                                                       2 V =.f.p._ f 5 % X     .                   . . , x >.c.f.;.d , % O O O                       X                                                                                                                                                                                               O 2 n =.p.p. .v 5 %     O                     .   = x =.f.g.=.k 2 %                   X                                                 #     . .   .     #               . X   . X   .     .         .     .                                           #                                       O 5 n @.p.f. .n 5 O     .   O O         O         , n >.f.f.O.j 2 O                                                                                     O O % O O                       . X                     .   X               . X     X         .   . X               .   X                                                                                                   O O           , x ,.m.c.=.j 2 O               ",
"X   O % O .   % 7 V =.w.p. .n 0 ;     O                   X         O O     O           O                     X   O   #   X             O                                   .                                                                                         X       X                                                                   .             2 V =.f.a.` d 2 % O                 #     . . O 5 V 7.c.c.@.y % O                     O # X O . O       X O               O             O             O   .                                                                                                                                     2 V =.p.p. .v 5 %   O                 X O       = x >.f.f.-.k 2 %                                   .       . X   #                       # O     X   .   X         O     X X O   # O     X                                   O         #   .   X # X   .     O O                         .   O 5 V ;.g.p.+.n 7 O       O %     . .             , n >.f.f.O.j 2 %                                                                                 O X     X   X       .         . X   O             O     O   O X .                     .     O X O #     @           #       O             .                                 O                       O     . O   O   O           O O O O   #   , x 7.m.c.<.g 2 O . O           ",
"    O % O     % 7 V +.a.w. .n 0 %   O   O O               X   O O O     O     O   O         O     O   O O   # O   O   O   O O     O   O     O   O   O     O   O O   O   O   O       O       O       O     O   O O   O   O   O O   O   O O O       O           X         X X                                                                           X         2 V >.f.p. .d 5 % O     .                   . O 7 C 7.c.c.@.p , O .   . #                 O   X         #         O         O       O         O #   O     O O     O         O     O               X                                                                                           O 2 V -.f.p. .x 5 %     O                         , x =.f.f.O.j 2 %                 .                                         .                       X   X   X             # O           # O # O O   O   O   O   O     O         O   O       O               O     O   O     X           .   . O 5 S >.g.g. .M 7 %   O O O O O         .       X , n >.f.p.@.j 2 % O                                                                           O O   .               .       O     O O   O O     O       .   O   O O O   #   O O   O O   O     O   # O O     O   O   O     O   O O     # O O   O O O   O   O   O O     O             O     O O   # O O   O .   . + O O O O         O   O         , n 7.m.m.1.d 1 O   O O O       ",
"  @ % O O . X % 0 V -.w.w...n 0 ;       O O O O O       O % % + O         X             .     #               O                                     #   X                                   O               #     X     O                   O     O             .                   O O O                                                           #           2 V =.f.g...d 2 % O                   O     X % 5 C 7.v.v.>.x 7 - . . . .                                                                   O       #                                     O O O O O                                                                                             2 V =.p.p. .x 5 O   O O         X           .   = x =.f.g.O.k 2 %                                                   . X         #                           X             .               .               .                                                 O O O   O           X           O % 0 S ,.g.a.o.x 5 *   O O O X X                   , n =.f.f.+.j 2 %                                                                       O O   O     # .   .             .     # #   .                                             #     .                                                   #           .                             O                   .     O O + O O .   .   O O     . X O 5 V 7.c.f.1.l , O   O O O O     ",
"@ O O O     X % 7 V 3.d.a.-.K p , O X   O O % O O   O   O O % O O                                                               #     X #         .                                                               O     O   O   O O   O O     O   O   O O O O .   .               O O O O O                                                                 #   2 V >.f.a._ j 2 %       . .         O       X O 2 x O.g.c.w.I f 3 & + . .       .                                                                                                           O O % O O   X X       X O                                                                         O 2 V O.p.p...v 5 % .   O                 O       = x =.f.g.-.j 2 %                 #                                     #                 X   X X     O           X X                                                                                                               .   . . % 3 p ^ 7.g.w.( f 2 * O O O   X         . O         , n >.f.f.+.j , %                                                                           O             .       . O                                                 .   #   .               .                           . .         #                                                                     .   .     . O     . .       X     1 s I q.f.p.#.d 2 . .   + % % O   ",
"O O   @ X     % 7 c ..w.z.u.` c 9 = O X O * + O     .       . O   .     #   .                   #     .                     .                               .                                                                         . # O   .       O + O % O O O O   O   #   O     O                                                             X           , V >.f.p.` g 2 %               .     O +   O O = s U 7.g.g.-.S 0 - + + .   . X   .               .                                   .             .     #                                   O . O O O   O O O % % O                                                                           2 V =.f.p. .v 5 O                               , x =.f.f.-.k 2 %                     # #   .                                                 X                       O O % O O .                                                                                   .   .     X         . O = 0 n O.w.a.1.S r , @   O O   X       .   .         , n >.f.f.@.k 2 O                                                                             O O O               O O % O                                                         .         .           .       .                                   #                                                   .     .   .   .   . O O O     X X   % t V @.a.p.8.' s , O . . + % % O   ",
"O         X   O , p U >.g.k.,.U p 5 %     @ O # #         .     .   .                         .     .             .   X                 .     .           #                                                   . .                                       + O O O . O . O O O O O O   @                                                 .                         2 V =.f.g...j 2 % O       . .       # O   . O X % 9 M  .p.c.g...d 2 % O . .   . X   .           .                                                             .                               O O O O O O O O O O O O O                                                                       O 2 n -.p.p. .x 5 %   O O                 O O .   = x =.f.f.-.j 2 O                         X         # #                       #                 X         . O   O . O O O % O .                                                                       .                     .   .   O   @ % 5 d U u.a.8.+.m w =       O   X           O       X , n >.f.f.O.j 2 %                                                                             O O O O     . . O O % O O O   #                                 .                                               .             .                           .                                   .     .             .     .   .   O             , l _ 9.d.w. .Z 0 =     . . + O     ",
"#           .   % 5 j  .k.g.a. .V i -     X X X                                                                                                                                                                                             .         X   O           O O O + O O O                                                               #             2 V =.f.p...d 2 % O     .           #     .     @ 1 y U d.M.j.1.Z 0 , = *       . X                                                                                                   X   . # O + O % + + O . .   O                                                                             2 V =.p.p. .x 5 O     O               X O       , x =.f.f.-.j 2 %               #                                     #                                 . O + + + O       X .                                                                                           #       O O + O % ; e V O.a.z.,./ f 5 % O     . .           .         X 1 n >.f.f.@.j 2 %                                                                               O   .   .   O % % O O     X                                             .                                                                                                                                   O O           O O     X     % , e I >.p.d.5.K d 5 % +   . . . .     ",
".   .         X X ; 0 V +.a.g.w.X.n 0 , ; O     X O % % % % O O     O # O O O O O O O O O O O O O O O O O O O O O O O @ O O O O O O O O O O O O O O O @ O O O O O O O + O O O O + O O O O O O @ O O O O O O O O O O O + O O O + O * + O O O O O O O O O O X X X             O O O                                                                   X     #     2 V >.f.a...f 2 %   O   .             . .       O ; 9 M 1.a.p.9.( n p 0 2 = % O O % O O O % % O % O O % % O + O O O O O O O O O O # O O O O O O O O O @ O O O O O O O + O O + O O       X O O + O O + O   .                                                                                   O 2 n =.p.p. .v 5 %   O O                     .   = x =.f.g.O.k 2 %                                                                                   . O + O + O O + O # o .   X O + O O @ O O O O O O O O O O O O + O O O O O O + O O O O O O @ O O O         O O O O O O O O % = ; , 1 2 w M #.w.g.w.&.V y 2 = %   O             . .           , n >.f.f.O.j , %                                                                                   .     O O * % @ O   X   O O O O   O O O O O O O O O O O O O O O O O O O O O O O + O O O @ O O + O O O O O O O O O O O O @ O O + O O O O O + O O O O O O O @ O + O O O O O O + O O O O O O @ O O O O % % % = O O   O ; % % O @ O O , 9 p V @.p.g.8.` n 0 , O O . . .         ",
"+ + .   .     X X   ; e C O.d.g.p.=./ D k 0 2 = ; = = = = = - % O % % = = = , , , = = , , , , = , = , ; , = , = = , 1 , , = = , , = , ; = , = , = , 1 , , = , = 1 , , = 1 = , , , , , , , = , = = , = , 1 , , , 1 , = , , , = , , , , = = , , , = , 1 = %   X     X X     . O     O                                                   .   .                     2 V =.f.a._ d 5 % O       . .         .   .   X   % , s J  .9.e.<.O._ J f 7 , , , , , , , , , , , , , , , , , , 1 , , = , ; , , = , , , = , , = = , 1 , , , = , 1 , , = 1 = = , , = = = = % O O O # .                                                                                           2 V =.p.p. .v 5 %   O           X         O     = x =.f.f.-.k 2 %               .                                     X #                           # O O . .   .   O % = ; = = = = , = , , , , , , = = = , 1 , , = , , 1 = , , , , , , , = , = , = = = ; = = = , , , , , , 2 2 2 7 0 u l L @.d.a.w.-.C u 2 = % % + .   .             O         , n >.f.f.O.f 2 %                                                                                       O   O X X @ @ ; 1 , , , = , = , , , , = = , , , 1 , , , 1 = = , , = = , 1 , , , , = , = = , , = 1 = , , 1 = , , , = , = , = , = 1 = , , , , = = = , , , , = , , 1 = , , , , , , , = , = = , , , 1 , , , ; % = = , 1 , , , 2 9 d C ` 8.g.g.w.} C u 2 = O O     . .       ",
"- +   .   .       X   , y S  .w.g.g.k.t...S x p d p p s d p s y y s p p d d p d d f d d d s d p d d d d a d d d d d p d a d d d d d d d d d d a d d d p d a d d p d p d d d p d d p p d a d d d d d d a d p p d d p d d s d d d p p d d d d p d d d a i 7 1 = O     X X .                                                                                       2 V >.f.g...g 2 % O   .   .           + # O         = 5 s V X.9.e.s.w.y./ n d d d j d d j d d d j d d d d d d d p d a d d d p d d d a d d a d d d d p d p d d d p d p d d d d d f d d p 0 5 , O   . X .   . . .                                                           #                   O 2 V -.f.p. .x 5 O .   O O                 O .   , x >.f.g.-.j 2 %                 X                                   .                                       O O % 1 7 t d d d f d d d d p d p f s d d d d p d d p d p d d p d d p p d a d d d d p d p p d p d d d d d d j d j j x m P ] ;.r.h.d.-.K y , % % % % +     . .         .         . , n >.f.f.+.j 2 %                                                                                 . O % % @       % 2 e s p d p p d p d p p d d d d a p d p d p d d d s d d d d d p p d p d d d d d p d d d p d d d p d a d d d d p d d d d d p f p d d d s d d d p d p d d p d d p p d a d d d d a d p d p p p p s s p d d d d d x V ) -.a.N.B.d...C p 2 % % O     .     .     ",
"% O   X       O         1 e V ..w.z.N.N.a.w.,.,.1.,.,.,.,.,.,.,.,.,.1.1.1.1.-.1.-.-.1.-.1.-.1.,.-.-.1.-.,.-.1.1.-.1.1.,.-.-.1.-.-.2.1.1.,.-.1.,.-.-.1.1.1.-.-.1.1.,.-.-.1.1.-.,.-.1.-.1.1.-.1.-.1.1.-.,.-.1.-.1.-.1.,.-.1.,.-.-.1.1.,.-.-.-.1.-.-.1.-.o.m s e 5 2 % O             O                                                     #                       , V >.f.p. .d 2 %     O #           O O + O O X     % = 3 y Z X.>.s.j.g.a.,.,.,.=.,.-.>.-.,.1.1.1.1.,.-.,.1.1.=.1.,.-.-.1.1.-.,.-.-.1.-.1.-.1.1.-.-.1.1.-.1.1.-.1.,.-.-.1.-.1.-.,.,.1.+.J d 7 ;   X X X X   O O                                                                                 2 n =.p.p...v 5 O     O               X     .   = x =.f.f.=.j 2 % X                                                     #                           X       # % 2 0 d S ` 3.y.,.,.1.1.1.1.-.-.,.,.1.1.=.-.1.,.-.1.1.-.,.-.1.1.=.-.1.-.1.1.-.1.-.>.-.-.:.-.-.-.=.-.-.-.-.-.-.1.,.,.8.7.d.d.g.j.l.-.S r =   X O O % O               . . O       X , n >.f.f.O.j 2 %                     #                                                           O ; - % O   X ; 5 d J  .O.-.,.-.-.-.=.1.,.-.1.1.1.-.,.,.1.1.=.-.,.-.-.1.,.-.-.,.-.1.1.1.,.-.-.1.1.-.,.-.1.1.=.1.-.1.1.1.-.1.,.>.-.1.1.1.-.-.1.,.-.1.1.-.,.-.-.1.1.-.,.-.1.1.=.-.1.-.1.1.-.1.-.1.1.-.,.-.,.,.>.,.-.>.,.>.,.=.-.-.=.8.d.g.v.v.w.o.C e , % % % O O   X     . .   ",
"O       X   O O O       O , e m / 1.w.g.f.c.M.M.M.M.M.m.M.c.c.M.M.m.M.m.v.v.c.c.c.v.c.v.c.v.c.v.v.v.c.c.c.v.c.c.v.v.c.c.c.v.c.c.v.c.c.v.c.v.c.c.v.v.c.v.c.v.c.c.v.c.c.v.c.v.c.v.v.c.c.c.c.c.v.v.c.c.v.c.v.c.c.c.v.c.v.v.c.c.c.v.c.v.c.c.M.v.v.c.v.M.v.p.:.T C j t 5 = +     X                                                                           #       2 V =.f.g._ l 2 % X     .   .     .     O O O     # + + % 2 e n ' 1.w.g.g.v.v.v.v.c.v.v.v.c.c.v.c.v.c.v.c.v.c.v.v.c.c.v.c.v.c.v.v.c.c.v.v.c.c.c.v.v.c.v.c.v.c.v.v.c.c.v.c.v.c.c.v.c.M.f.,.( M y 5 % O       O   O                                                         .                   O 2 V =.p.p. .x 5 %     O                   O     , x =.f.f.=.k 2 O             # . #                                                               X     X O = 0 f C / -.w.v.M.v.c.c.v.c.v.c.c.c.c.v.c.v.v.c.v.v.c.v.c.v.v.v.c.v.v.c.c.c.c.c.v.v.v.c.v.M.M.v.M.M.M.c.M.v.f.c.v.v.M.M.M.M.g.w.,.o.S y 2 O X . X   O                               , n >.f.f.O.j , O                     X                                                         O % % % % O ; 2 i M ^ <.g.v.v.v.c.M.v.M.v.v.v.c.c.c.v.c.v.c.c.v.v.c.c.v.c.c.v.c.c.v.c.c.v.c.v.v.c.v.c.v.c.v.c.v.v.v.c.c.c.v.c.v.v.c.c.v.v.c.c.v.c.v.c.c.v.c.v.v.c.v.c.v.v.v.c.v.v.c.c.c.c.c.v.v.c.c.v.c.c.v.c.M.M.M.M.M.M.c.v.v.v.c.c.v.g.p.1.` Z y , . . . @ O X     . . O O   ",
"      X O @ O   O         % , 0 g n I X.9.s.c.m.m.m.b.h.h.h.f.c.b.m.m.m.m.c.m.m.m.m.M.c.m.m.m.m.m.c.b.c.c.m.v.m.M.c.m.c.M.c.m.m.m.c.b.m.c.m.c.b.m.m.c.m.M.c.m.m.m.c.M.c.m.m.c.m.M.c.m.m.m.m.M.c.c.c.c.m.M.c.m.m.m.c.c.c.c.c.m.c.c.c.c.c.c.c.c.c.c.c.c.f.g.8.-./ m p 5 = O O . . #   .   O                                                     X     .           2 V =.f.a._ f 2 % O   O           .   .     X X   . . . + % % 6 g A / 2.w.f.c.c.c.c.c.c.c.c.c.v.c.b.c.c.c.c.m.m.m.c.M.c.m.m.c.m.m.m.m.m.M.c.m.m.m.m.m.m.c.m.c.m.m.c.M.c.m.m.m.c.c.m.c.c.f.w.1.` V s 7 , O X         O O                                                                         2 V =.p.p. .x 5 %   O                       .   = x =.f.g.O.k 2 %                                                     # X .               O % %       X O 2 u A ` 0.g.f.f.f.f.f.c.c.c.c.c.c.c.c.c.c.m.m.c.m.c.m.m.m.m.c.m.m.m.m.M.c.m.m.m.m.M.c.c.m.m.m.c.m.m.m.c.c.f.c.c.f.f.c.c.c.m.f.>.I n d 0 2 * X .     X X         O         .           , n >.f.f.O.j 2 O #                                                                         O O     X   O , i C ` 8.d.g.c.c.c.c.c.c.c.c.c.c.c.m.c.c.v.m.c.c.m.m.m.c.M.c.c.c.c.m.c.c.c.c.c.m.m.m.m.m.c.m.M.c.m.m.m.c.m.m.m.v.c.c.m.m.m.c.M.c.m.m.c.c.c.c.c.m.m.m.m.m.m.c.m.m.m.m.M.c.m.m.m.m.M.c.m.m.m.v.c.c.f.f.f.c.c.f.f.f.c.c.m.c.f.r.;.Y Z g w , +     o   O   X   . . O O O ",
"  X X O O O   O   # .       O % 2 7 y Z ~ X.@.>.=.<.@.X.X.' X.@.@.;.;.;.;.=.;.;.;.=.;.=.;.;.;.;.=.=.;.<.=.=.;.;.;.;.=.=.;.;.=.;.=.=.=.;.=.=.=.=.=.=.;.;.;.=.;.=.;.;.=.=.;.;.;.=.;.=.;.;.;.;.=.=.<.;.;.=.;.=.=.;.;.=.=.=.=.;.=.=.=.=.=.=.=.=.=.>.>.=.>.9.a.g.u.2.` Z p 5 ;   X     O O O X                                             #                         2 V >.f.p.` j 2 %         . .         X             . . + .   * , 0 d C ) X.;.;.;.@.;.;.@.@.;.;.@.;.;.=.#.;.;.;.;.;.=.=.;.;.;.=.=.;.;.;.=.;.;.;.=.;.;.;.=.=.=.=.;.;.=.=.;.;.;.;.<.=.<.r.d.g.a.r.-.I j 7 ;     X   O O                                                                         O 2 V -.p.p. .v 5 %     O             X     O     , x ;.f.g.=.x 2 %               X                                     .                   O % %       O 2 p S +.u.z.v.p.e.1.6.@.;.=.=.=.=.=.;.=.=.=.;.;.;.=.;.=.;.;.;.=.;.=.;.=.;.=.;.;.;.;.=.=.<.;.;.;.<.=.>.=.=.;.;.@.@.X.O.@.@.;.=.X.F s 7 2 = % .   . X   X     X     O       .   . O       , n =.f.f.@.j 2 % O                       .                                                 + O .   X   1 e n ..t.z.v.g.p.7.=.=.=.=.;.;.=.=.=.=.<.;.;.=.=.=.;.;.;.=.;.=.<.;.;.=.=.=.<.;.;.;.;.=.;.;.;.;.=.=.=.;.=.=.;.;.;.=.=.=.;.;.;.=.;.=.=.;.=.=.<.;.;.;.=.;.;.;.;.=.;.=.;.=.;.=.;.;.;.;.=.=.;.;.;.;.=.O.@.@.@.=.=.@.O. .O.=.1.1.:.) V p 7 2 = +   . . . X   X   X     .     ",
"                                O = 2 5 7 0 e e e e e 0 0 0 0 0 e e e e e e e e e e e e y e e e e e e e e e e t e e e e e e e e e e e e e e e t e e e e e e e e e e e e y e e e e e e e e e e e e e e e e e e e e e y y y y e e e e e e y y y p p p k A &.8.t.8.4.+.P p 2 X X   . & = O X                                                               #       2 V >.f.a. .d 5 % O     .                                       % = = 2 7 0 e e e 0 e e e e e e e e e e e 0 e e e e e e y e e e e y e e e e e e e e e e e e e e e y e y e e y e y y d H ] -.a.a.q.=.I d 5 O . . X                                                                             O 5 V O.p.p. .c 5 %     .           X       O     , x -.g.g.-.n 5 % X                                                                   #   O O O O @   1 p P O.r.p.p.8.*.K j e e e e e e e e e e e e e e y e e e e e e e e e e e e e e e e e e e e e e e e y e e e e e e 0 e 0 e e e e 0 5 , % O O                                   .         X , n >.f.f.+.j 2 %                                                                         . . .     O 5 s F X.,.w.t.8.,.` c y e e e e e e e e e e e e e e e e e e e e e e e e e e e e e y e e e e e e e e e e e e e e e e e e e e e e e y e e e e e e e y e e e e e e e e e e e e e e e e e e e e e e e e e e 0 e 0 0 e 0 0 e e e e 0 7 5 , = O O                               ",
"                                    O % % % % O % % % % % % % % % % O % % % % % % % % % % % % % % % % % % % % % % % % % % % % % % % % % % % % % % % % % % % % % % % % % % % % % % % % % % % = % % % % % % % % % % % % % % % % % % % % % % - = ; = , 3 e m ^ +.,.u.w.;.F i % X . + & % O   X                                                                     2 V =.f.a.` j 2 %   O     .                                             O O % % % % % % % % % % % % % % % % % % % % % % % % % % % % % % % % % % % % % % % % % % % % = % = % % - % , 5 u c U O.q.p.q.;.J p =   . . X X                                                                         % 5 n +.p.p.+.n 7 O                         .     = x -.g.v.=.c 5 O                                                                         O O O   O 1 w V =.w.p.7.O.I n u 5 = = % % % % % % % % % % % % % % % % % % % % % % = % % % % % % % % % % % % % % % % % % % % % % % % % % % % O O                                         .   O       . , n >.f.f.+.j , O                                                                             . . O 2 s L @.<.7.,...^ J x 5 = % % % % % % % % % % % % % % % % % % % % % % % % % % % % % % % % % % % % % % % = % % % % % % % % % % % % % % % % % % % % % % % % % % % % % % % = % % % % % % % % % % % % % % % O % % % % O O % O O O O O O O O O O                                 ",
"                                  O O O O O O O O O O O O O O O O O O O O O O O O O % O O O O O % O O O O O O O O O O O O % O O % O O O O O O O O O O O O % O O O O O % O O O O O O O O O O O O O O O O % O O O O O O O O O O O O     O O O % % % % = , 5 y V ` t.g.g.=.P 7 O     . #   X                                                                       2 V >.f.p.` d 2 %     O .                                             O O O O O O O O O O O O O O O O O O O O O O O % O O O O O O O O O O O O O O O O O O % O O % O % % O % % O % = 2 2 5 y V  .8.p.p.>.S 7 O # X                                                                             O 2 n @.p.p.+.n 7 -   .                         . = x -.v.g.=.x 2 % .                                                                       O % O X O 6 x  .g.v.p. .n e 5 , = = % O % O O O O O O % O O O O O O O O O O O O O O O O O O O % O O O O O O O O O O O O O O O O O O O O O O O   O                                                     , n >.f.f.@.k 2 %                                                                     O O .   . . % e F ;.p.a.>._ V p 7 2 = O O O O O O O O O O O O O O O O % O O O O O % O O O O O O O O O O O O O O O O O O O O O O O % O O O O O O % O O O O O O O O O O O O O O O O O O O O O O O O % O O O O O O % O O O O O O O O O O O O O O O     O                                     ",
"                                      O   O   O O O   O O   O O   O O O O O O O O O O O O O O O O O O O O O O O O O O O O O O O O O O O O O O O O O O O O O O O O O O O O O O O O O O O O O O O O O O O O O O O O O O         X               O O + O O % , e D -.g.c.p. .d 5 O . . .   X                                                           .           , V =.f.a. .l 2 % O     . .                                     O       O O O O O O O O O O O O O O O O O O O O O O O O O O O O O O O O O O O O O O O O O O O O O O O O O O % O O % = ; % , e V  .q.f.p.` d 2 O O O X                                                                         O 2 n X.q.q. .c 7 %   O           O O       .     = x =.g.g.-.d , O                                                                     . . O + O   1 s I >.v.v.8.J e = % O O O O O O O O O O O O O O O O O O O O O O O O O O O O O O O O O O O O O O O O O O O O O O O O O O O O O O O O                                           .   O       X , n >.f.f.O.j 2 % O                                                                         . .   2 x _ q.c.g. .C y 2 % X O O O O O O O O O O O O O O O O O O O O O O O O O O O O O O O O O O O O O O O O O O O O O O O O O O O O O O O O O O O O O O O O O O O O O O O O O O O O O O O O O O O O O O O O O O O O O   O   O       O                                             ",
"                                                                            O           O           O         O     O         O     O         O     O         O           O     O           O         O   O                         X       X       O   X O 2 d ` w.v.v.<.J i =   . .     X                                                                     2 V >.f.a._ j 2 O @       .                                             O       O             O       O O               O           O         O     O         O O   O   O O   O O   @   # # 2 p I 7.p.p.>.K p =   X                                                                             , n @.q.q. .x 7 % . O         . O O             = x =.g.g. .s , % O                                                                 #         O % w I >.f.f.7.` j ,   X X   X     O       O               O     O           O         O   O       O       O     O             O                                                       .         = n >.f.f.@.j 2 %     X                                                                 O .   O % 0 I >.f.f.-.K s 1   X X X           O O       O           O         O O       O         O     O           O         O O                 O     O         O     O           O         O O                 O                                                                     ",
"                                                                                                                                                                                                                                              X       X X   % w C O.g.c.e.X.l , .                                                                     #         2 V =.f.a...f 2 %   O   . .                                                                                                                                           O           X X     . % 7 C -.w.p.w...n 2                                                                                 , n =.p.q. .x 7 % . . O     .   O O             = x O.g.g. .s = % O O                                                                     . #   2 d X.h.c.p. .x 7 %   . o X                                                                                                                                                       . .           , n >.f.f.O.j , %                                                                             O , d ` a.f.q.' l 5 %   X X X                                                                                                                                                                                                                                                     ",
"                                                                                                            X                               X                                       X               X                                 X     X       O O   O O 2 p J =.p.s.X.n 5 % . .     O                                                                   # 2 V >.f.g._ g 2 % O     .                                         O                 X           X                                                               X   X     X               . + 3 d I >.s.d.#.n ,   O O                                                                           2 V =.p.p.X.j 2 %                     .   . O   = x  .g.g. .s = = % O                                                   .       X   #       . O 5 v ;.h.c.9.S 0 =   . .   .   .   .                                                                                                                                                   O         , n >.f.f.O.j 2 %                                                                           . % 2 k *.g.g.7.F e =     X O X                                         X                     X         X               X                                     X         X               X                                             X                                             ",
"                                                                                          X                                                                               X                                           O O O O     O       O     O O       O O % 7 x X.p.s.@.V 5 % . .   O O                                                       X             2 V =.f.p.` l 2 % O   .   .                                                                                                             X                                           X . . . + < e V O.s.r.+.n ,   O O                                                     #                   O 2 S <.f.p.' l 2 O   O                   .   O   , j  .p.p. .s = = % O                                                                   . . . % 5 v @.s.f.;.n 2 . . . .     O                 X                                                                                                                                                 , n >.f.f.O.f 2 O                                                                             % 5 j -.p.g.>.n 5 O   . O O O                                                                                                               X                                                               X                                                                     ",
"                                                                                                                                                                                                                      O O O   O O     O   O   O O   O O O .   % 5 l X.s.p.;.V 7 * . .   O O                                                           X         2 V =.f.p._ f 2 %     O #                                                                                                                                                           @   . + . % 0 n ' e.r.=.n ,   O O                                                                         O 5 S <.f.p.X.l , O   O   .               .   O O 2 x  .p.g.O.s 2 = = O                                                                   . . . = 5 l @.s.s.@.v 2   . . . . O O O #                                                                                                                                               .     .         , n >.f.f.O.j 2 %                                                                             % 2 j -.g.f.=.V 7 % O   O O                                                                                                                                                                                                                                                       ",
"                                                                                                                                                                                                                            O   O                       O .   % 2 d ' s.f.;.V 5   .   # O                                                                   X   , V >.f.p. .d 5 % O                                                 O                                                                                                   O   .     O #   + + + % 7 n _ e.a.-.V ,   O O O                                                                       O 5 S >.p.p. .j 5 O     O O                 . O % 5 n =.f.f. .d , % O                                                                   #   . O = 5 x @.r.e.;.n 5 O . . . + # # #                                                                                                                                                   .   O         , n =.f.f.O.f 2 %                                                                             % 2 l =.f.f.1.n 7 - +                                                                                                                                                                                                                                                             ",
"                                                                                      O                           O                               O                   O                           O                                   X           .     . . . O 5 l X.q.f.<.S 5 O . . O O O                                                                     2 V =.f.g._ g 5 %     O . .                                                                         O         O                                       O               O O     O .       . O + , e V @.p.a.*.n 2 O                                                                           O % 5 n ;.p.p.;.n 0 =     O       # .           O , e S <.f.c.O.d , +                                                                     X     . % 5 x ;.h.p.>.V e =   .   .   #       .         .                                                             O           O                                                                       , n >.f.f.O.j 2 %                                                                           O = 2 j @.h.f.-.n 5 = + .                   O                                     O       O                               O       O                       O                               O       O                 O           .                                                   ",
"                                      .       .                 .                             O                       O                               O                       O                       O                                   X             O O   % 5 d ] s.p.>.V 2 .                                                                       . O     2 V >.f.a. .f 2 %   #   .                                         O   # X O O                                         O                                       O O   O       O           .   % 2 d Y >.p.w...k 3 #                                                                             O 2 x ' q.f.>.^ d 5 % O O O O                 % 7 j ^ q.f.a.o.g , O                                                                       . O # % 2 l X.d.f.7._ l 9 O               .   O               O                           O                                                                                               . .         X , n >.f.f.@.j 2 %                                                                       O O % = 5 l ;.f.g.O.n 5 % % .       .               .             O                                   O                                             O                 O                                                           .                                                     ",
"                                                          .                           O                 O                               O                             O                 O                                                               O O O = 2 g ' r.p.@.V 5 +                                                               #               2 V =.f.p. .d 2 %         .                                   X       O     O           O   O       O     O   .             O     O     O   O     O     O     O     O     O   O O   O O .   % w F 9.f.f.,.K u -     O                                                                         O = y L >.f.a.-.K y , % O @       O O @ O     1 a K ,.w.a.0.Y i ; O .                                                           . #       #     O , i Y 1.p.g.,.I p ,     .   #   O #     .                   O     O     O   O         . O     . O     O     O   O . O .     . . .       .         .                               .   O         , n =.f.f.+.j 2 %                                                                     . O O % = 5 l >.f.f.O.j , . O       O       O   .           O   .           O                   O                 O                                             O                 O                                                         O   .                                         ",
"                                                                                                            O                               O                                               O                                                             O O = 5 d ( q.p.;.n 5 % . .                                                                       .   , V >.f.a.` j 2 %   O     .                                     O     #             O                           O . O     .   .     . . .   .                     O   O O     O O O + O     2 g X.f.m.f...c 5 + #                                                                               % 7 l  .p.v.k.` j 7 =     X O O @ O @ X O % 7 n ..w.a.q.X.V w % .   .                                                                         O = 0 n ..w.v.a.O.n 2 O X   O . . . O         O   O . O     .   .     . . .   .   .   O     .       .       . .           O         O .         #       #     #                           O       , n >.f.f.+.j , O                                                                         O O = 5 j >.c.f. .j =   . .                                                                                       O           O       O                                           O           O       O                       .                                                       ",
"                                                                                                                                                                                                                                    O     O     O           O ; 7 l  .a.f.=.V 5 % O     X                                             .                         2 V >.f.p.` g 2 % O     .                                   . . # O       #                               .                       .                                               O O + O = y J >.c.c.7.I 0 - - + O X                                                                         . O = y ( q.c.a.2.D r , O X   O + @ O   @ + = e U t.g.s.1.Y p 2 % + +                                                                           O - 5 p U t.g.g.,.I i 1 % O O + O .   .                             .                                 .               .                               #   #                             O         , n >.f.f.@.j 2 O #                                                                   .       O 2 l >.c.f.=.x , .                       .               .                                                                                                                                                                               .                                       ",
"                                              .                                                                                                                                                                             O     O     O     O     O         % 7 n  .a.f.>.V 5 O   .   X                                                       X               2 V =.f.g...j 2 %   O   . . .                           O X X     X O % O % % % % % O % O % % % % O % % O % % O % % + % % O % O % % O % % O % % % O % O % % O % % % % % % % % % % = 2 5 6 u S =.s.s.q.o.m 3   % O                                                                           . . # % 7 Z O.p.g.8.$.V y 9 2 = % ; ; ; , 2 0 p D -.z.g.0.] v 7 % O + O .     .           # .                                       .               O = 0 c $.u.g.w.O.V d 0 2 1 , = % % % % % + % O % % + % % O % O % % O % % O % % % + % O % % % O % % O % O % % O % % % % % % % % % % % % % O   X X           #   .                 . .         X , n >.f.f.O.j 2 % O                                                                           O , l ;.c.c.>.x , O .                                                                                                                                                                                                                                                             ",
"                                                                                                                                                                                                                                                              % 7 M +.p.g.=.V 5 O                                                                               2 V =.f.p. .d 2 % O     .               X         O O + O #       O % , , 2 2 5 2 2 2 2 2 2 2 2 2 2 2 2 5 2 2 5 2 2 2 2 5 5 2 2 5 2 5 2 5 2 5 2 5 2 5 2 5 2 2 2 5 2 5 2 2 5 5 2 5 7 y v L ] >.a.a.8.` n 0 ;     .                                                     o #                     . .   , r n _ 8.a.w.8.=.^ n p 7 2 2 9 y n ( #.7.g.z.t./ n 0 , O   .     . #       #     # .                                 #   X       #           % 1 0 n ` t.z.g.8.-.) M y 7 5 5 2 2 2 2 2 2 5 5 2 5 2 5 2 5 2 5 2 5 2 5 2 2 2 5 2 2 5 2 5 2 2 2 2 2 2 2 2 2 5 5 7 5 5 5 5 2 2 2 2 2 2 , % O         .   .   # #   O             .   .         , n >.f.f.O.j , % .                                                                           % , l >.c.f.>.x ,   .                                                                                                                                                                                                                                                             ",
"                                                                                                                                                                                                                                                              % 7 m +.a.p.=.V 5 %   .                                                                         X 2 V >.f.g._ l 2 %       .             X           # + O   O X   = 2 9 u g x x n M x x x x n n x n x x n x x x x n x x x x x n x x x x x x x x x x x x x x x n x x x x x x x x x n Z Y X.0.g.g.g.4.` x 0 , @   . X                                                         #                     . X O 1 e n ( >.p.f.f.q.=.I V v v Z Y O.r.f.v.g.8.` n r 2 O X   X             #                                                             .     X O 2 r m } 8.g.v.f.r.@.I F M n n c M n x x x x x x x x x x x x x x x x x n x n x x n x x x n n x x x j x x n n n n n n M x n M M m n s 9 2 = % O .   .                             O         , n >.f.f.O.j 2 O                                                                             % 2 j =.c.f.=.x , O O .                                                                                                                                                                                                                                                           ",
"                                                                                                                                                                                                                                                              % 7 m +.q.p.=.V 5 O   .                                                                 .         , V =.f.a.` d 2 % O O   .   .             .     . .       @ ; 5 p V K / *.,.q.r.r.9.q.9.e.9.7.7.9.9.9.9.9.9.7.9.9.q.7.e.9.q.9.7.q.9.7.7.q.9.q.9.9.q.q.9.q.9.9.q.7.r.q.9.7.r.q.7.7.q.q.g.n.v.a.4.U j 0 = O O   O O O                                                   #                       .   . @ O , 0 j J #.8.g.v.g.a.8.,.9.7.q.g.v.g.a.2.^ v e 2 O         O #         X                                                             O       X % 2 0 x / 2.w.g.g.g.a.w.7.9.r.9.9.7.9.7.r.q.9.7.7.q.9.q.9.9.q.q.9.q.9.9.q.9.q.9.9.q.9.9.q.9.9.9.<.=.<.9.9.r.9.9.7.>.9.9.9.7.7.7.>._ V j y 9 = O     X   O                   .             , n >.f.f.O.j 2 %                                                                             % , j 1.c.g.=.x , O   . .                                                                                                                                                                                                                                                         ",
"                                                                                                                                                                                                                                                        X     % 7 n +.a.p.>.V 5 O                                                                         #     2 V >.f.a._ j 2 O O   .   .         O         .           * 2 d U -.,.8.p.c.c.m.m.m.m.m.m.m.c.c.c.c.c.c.c.m.c.c.c.c.c.c.c.c.m.c.c.c.c.c.c.c.c.c.c.c.c.c.c.c.c.c.c.c.c.c.c.c.c.c.c.c.f.g.a.7.+.K j 7 ; O     O * % % %                                                                           . X   @ O 1 9 s P ..,.a.z.g.g.g.v.v.c.g.w.=.` G d 0 , %       X O O O O           #   # X                                         X     O O O     X     % , 0 j K ..-.w.g.v.v.M.m.b.m.c.c.c.c.c.c.c.c.c.c.c.c.c.c.c.c.c.c.c.c.c.c.c.c.c.c.c.c.c.c.c.c.f.f.c.c.c.c.c.c.c.c.c.f.c.c.c.m.f.q. ./ S d 7 ;   X     X         O O       .   .       X , n >.f.p.@.j 2 % O                                                                           % 2 j 1.f.c.=.x ,   O                                                                                                                                                                                                                                                             ",
"                                                                                                                                                                                                                                                              % 7 M +.w.p.=.V 5 O                                                               #               2 V =.f.a. .f 5 %     #               .   .   .         X 1 d I 0.g.g.p.p.f.f.f.f.s.f.p.f.p.p.f.f.p.p.p.f.g.p.f.p.f.f.p.p.p.p.f.p.p.f.f.p.f.p.p.f.p.p.f.p.p.f.p.p.p.p.f.f.p.p.p.p.a.w.1. .J x y 5 =           O % % % O                                                   #                   . O       @ @ ; 2 t x J ` -.4.4.y.u.k.w.-.^ n d e 2 = % O O   O               X       #                                       .             X             O % ; 2 e d V / 5.u.g.g.g.j.g.p.f.p.p.p.p.p.f.f.p.f.p.p.f.p.p.f.p.p.f.p.f.p.f.p.p.p.p.f.p.p.p.p.p.p.p.p.p.p.p.a.p.p.p.p.f.f.c.g.j.l.u.2./ j 7 %     @   O   X   . O       .   O         , n =.f.f.+.j 2 %                     #                                                       % 2 d >.c.f.=.x , O     .                                                                                                                                                                                                                                                         ",
"                                                                                                                                                                                                                                                              % 7 c +.p.p.>.S 5 O   .   X                                                                       2 V >.f.a. .d 2 % @ O   .   .     .       . .   .   X O 2 s ( =.a.g.g.a.,. .^ ^ _ ^ ^ _ ^ ^ ^ _ ^ ^ _ ( ^ ^ ^ ^ ^ ^ ^ ( ^ _ ^ ^ ( _ ^ ^ ^ ^ ( ' ^ ^ ^ ( _ ^ ^ ^ ^ _ ^ ^ ^ ( ^ _ ^ I J C x y 7 , * .   X X       . O O O                                               #                       O   O O # X X   % , 7 p x V D D J U I J A f 0 2 ; @ O   X X   # . .   X .       .                                                     #   .   .       O # X @ O O ; 2 0 j n I ^ ( _ ^ ( _ ^ ^ _ ^ ( _ ^ ^ ^ ^ ( ' ^ ^ ^ ( _ ^ ^ ^ ^ ^ ^ ( ^ _ ^ ^ ^ ^ ^ ^ ^ ^ ^ ^ ^ ^ ^ ^ I ^ ^ ^ ^ _ +.-.5.r.k.d.,.U l 7 % O O O       .                         , n >.f.f.+.j , %                                                                       O     % 2 j >.c.c.=.x 2 O # .                                                                                                                                                                                                                                                           ",
"                                                                                                                                                                                                                                                              % 7 m +.a.a.=.V 5 O   .                                                                           2 V >.f.a._ g 2 % O     .         X   O + & + O     % 5 x _ r.a.p.q.>...Z e 9 5 5 5 5 5 5 5 5 2 5 5 2 2 2 2 2 5 2 5 5 2 2 2 5 2 2 2 5 2 5 2 2 2 5 2 2 5 2 2 5 2 2 2 5 2 5 2 2 2 2 2 2 , 1 = = O O X X                                                                                           O O O O O O . O + % , 2 2 5 5 5 5 5 5 2 , ; % O X     X   X       .                   .                                                                     X O O % % 1 3 2 5 5 2 2 2 2 2 5 2 2 2 2 5 2 5 2 2 2 5 2 2 5 2 2 5 2 2 5 5 2 2 2 2 5 2 5 5 5 5 5 5 7 5 5 5 5 5 5 7 7 7 e u h C ' =.g.g.y._ j 9 , % @ X     . .             .         , n >.f.f.@.k 2 O                                                                           O % 2 d ,.c.f.=.x , O .   .                                                                                                                                                                                                                                                         ",
"                                                                                                                                                                                                                                                              % 7 n #.q.p.=.V 5 O                                                                           #   2 V =.f.a...j 2 %         .         O + + % % O O * 2 d ^ 7.f.f.<._ S x w %   O                                                                                                   X         O O         . .                                                                                         O O O     O #       O       X         O     X               O O O                                                               #       O O #   X   X         O O         X                                                                       O   O O O O O           O O % = 2 e n ^ 7.z.v.1.U d 7 ; O O                 .   O       X , n >.f.f.O.j 2 %                   #                                                         % 2 j =.c.f.=.x , O O                                                                                                                                                                                                                                                             ",
"                                                                                                                                                                                                                                                              % 7 c +.a.p.=.V 5 O   .                                                                           2 V =.f.p. .d 2 % O               # X O O % O O   ; 7 V ,.f.v.0.I s 0 2 = O   X                                             X           X           X                     X           X     O O O                                                                                                         .       .       X O             O O                 O O O O                                                                     O % O                   O       X               X             X       X                             X             O         X         O % % = 2 0 x _ 7.g.g.-.F p 2 % O O     .   X       .         X 1 n >.f.f.@.j 2 %                                                                           O % 2 j >.c.f.=.x ,   O   .                                                                                                                                                                                                                                                         ",
"                                                                                                                                                                                                                                                          X   % 7 M +.p.p.=.V 5 %                                                                   X           2 V >.f.g._ l 2 %   O     .   .   X     X O O X O 6 l _ a.v.a.#.l 5 ; O                                                                                                                         O O O                                                                                                       O . .           O O                                 O O O                                                                       O O O                 O                                                                                                               O % % = , e n  .w.f.7._ x 7 = O   O O           . .           , n >.f.f.O.j , %                                                                             % 2 j >.f.c.=.x ,   # .                                                                                                                                                                                                                                                           ",
"                                                                                                                                                                                                                                                              % 7 M +.w.f.=.V 5 O   #                                                                           , V =.f.a.` d 2 %   .   .         . X     O O X ; i U 1.v.g.8.U e =       O   O O O O O   O O         O     O                                 O   O           O     O     O       O O O     .   O + + + .                                                                                                   .               O % % % O O                   O   O                                                                                   O O                     % O O     O     O                   O   O           O   O                                         X       O O % % 2 i Z #.q.q.1.S i , O O O O               O         , n >.f.f.O.f 2 %                                                                             % 2 d >.c.f.=.x 2 O .                                                                                                                                                                                                                                                             ",
"                                                                                                                                                                                                                                                        X     % 7 n #.p.a.=.S 5 O                                                                   .     #   X 2 V >.f.a._ j 2 % O     .             X   O O X 1 d  .a.v.w.' x 5 O . . # O O O O O O   O     .   O   O   O       O O   O O   O O   O     O O       O     O   . O     O O     O O O % O           O O % .           O                                                                         O               .     X       O O % % O O               O O O                                                                                         O   O               O % % O O     O O     O O   O     O O       O     O   . O     O O   O   O     X                                   % % 2 s ^ >.f.w.) d 2 O O O O             .         . , n >.f.f.+.j 2 %                                                                           O % 2 l -.c.f.=.x ,   O .                                                                                                                                                                                                                                                           ",
"                                                                                                                                                                                                                                                              % 7 M +.w.a.=.V 5 O .                                                             #               2 V >.f.p.` g 2 % @     .     . #     .     X @ 1 j +.g.g.,.n 7 ; O .   . . .   #   .                 .               .       .           .                       .   .       . .                     O O O                                                                                   O O                     X                                                                                                                                                               .       .                             .             .         .     .       .           .     . .   O O ; 7 S =.a.w._ j 3 O   O % O         . . O       X , n >.f.f.O.j 2 %                                                                             % 2 j >.c.g.=.x , O . .                                                                                                                                                                                                                                                           ",
"                                                                                                                                                                                                                                                              % 7 m +.a.f.=.V 5 O   .                                                                           , V >.f.g...j 2 O                     X         2 x O.g.g.=.s 1 % O O . . .   .     .       .   .       .   .                   .   .         . #       .                                   .     .                                                                                               .   O                                                                                                                                                                                         .   .     .     .                   .       .                           .               . + O O 5 n :.a.p...j 5 O     O                         , n >.f.f.O.j , O                                                                             % 2 d =.v.f.=.x , O O                                                                                                                                                                                                                                                             ",
"                                                                                                                                                                                                                                                              % 7 n +.q.p.=.V 5 O                                                                               2 V =.f.a._ d 5 %   O   .       #   # . O O O O 5 n >.v.f.;.s = @ @ O + O   X             X                       .     .                                                           O             O O               O O                                                                           .   O O         O O O O                           O O                                                                                             O                     X     .         .                                     .                           O O O O O O O           .     . . % 5 V -.g.a...c 5 O .       X X       .           , n >.f.f.O.j 2 O #                                                                         O % 2 d >.c.f.=.x ,   O   .                                                                                                                                                                                                                                                         ",
"                                                                                                                                                                                                                                                        X     % 7 n +.a.p.=.V 7 O       X                                                                   #   2 V >.f.a...g 5 % O       .           O O + % % 2 n >.v.f.#.g 1 % O + % +       X                                                     .                                     .       O     X       O O             O                                                                                                 O % % O                               O                                                                                           O   O                                             .     .                                         .   O O O + O O O O     O         .   O 5 S O.g.g...v 7 % X               .   . O       , n =.f.f.@.j 2 % O                                                                           % 2 l >.c.c.=.x ,   # .                                                                                                                                                                                                                                                           ",
"                                                                                                                                                                                                                                                              % 7 m +.w.p.=.V 5 O                                                                     .         2 V =.f.g._ f 2 %       #   .         O O . + O 2 n 1.c.c.-.g 2 % O . O .                 .       X                                                   #     # .                                     O   X     .                                                           #                                                                                       #                                                                                                                               .                                 #               #           O O                           O 5 V >.f.p.X.x 5 %       X           .         X , n >.f.f.+.j 2 %                 .                                                           % 2 d -.c.c.=.x , O .                                                                                                                                                                                                                                                             ",
"                                                                                                                                                                                                                                                              % 7 M +.p.p.>.V 5 O   O                                                                           2 V >.f.a.` d 5 % O   O               O #   O O 2 x =.f.f.=.g 2 % . O     .                                           .                                   .                             #             . #           #                                               # #                                                                                     # .                                                       # #                                                                                                                                             #                       O 3 V 1.p.s.X.x 5 %                 .   O       . , n >.f.f.+.j , O                                                                             % 2 j >.c.f.=.x ,   O   .                                                                                                                                                                                                                                                         ",
"                                                                                                                                                                                                                                                              % 7 M ..w.p.=.V 5 O                                                                           X   2 V >.f.a...d 5 %                       . . #   2 x =.c.c.=.d 2 %   .                                                                                                                 #     o O               #                                                                                                                                                                                                         X                                                                                                                                                                 X .   2 V =.s.s.X.l 5 %                               , n >.f.f.@.k 2 %                                                                       O     % 2 j >.c.f.=.x ,   O .                                                                                                                                                                                                                                                           ",
"                                                                                                                                                                                                                                                              % 7 m +.a.p.=.S 5 O   .                                                                 #         2 V >.f.g...g 2 % O   .   .         .       O O 2 c =.f.f.=.d 2 %     O                                                                                                                                                                                                                                                                                                                                                                                                 X                                                                                                                     O 5 V =.f.p.X.l 7 %     X           .   O       X , n >.f.f.O.j 2 % O                                                                           % 2 d -.c.c.=.x , O O .                                                                                                                                                                                                                                                           ",
"                                                                                                                                                                                                                                                              % 7 m +.p.p.=.V 5 O                                                                               2 V >.g.a.` d 2 %     O .           O     . O O 2 x =.f.c.=.d 2 % O O   O .           X                                                                                                                                                                                                                                                                                                                               # .                                                                                                                                           #                     O   O 2 V 1.p.p.X.l 7 % .                   .         = n >.f.f.@.j 2 %     X                                                                       % 2 d >.c.f.=.x 2 O . .   .                                                                                                                                                                                                                                                       ",
"                                                                                                                                                                                                                                                          X   % 7 M +.w.a.>.V 5 O   #                                                                           2 V =.f.a.` d 5 % O       .                 O   , n >.f.f.;.d , %                                                                                                                                                                                                       #                                                                                                                                                           .                                                                                                                                                     X   # 2 V 1.f.p.X.j 5 %                 . .           , n >.f.f.O.j , %                                                                       O   O % 2 l -.c.f.=.x , O     .                                                                                                                                                                                                                                                         ",
"                                                                                                                                                                                                                                                              % 7 n +.p.p.=.V 5 O                                                                     #         2 V >.f.a. .f 2 %     .                     # O 2 x =.f.c.;.l 2 O                   .                                                                                                                                                                           # #                                                                                                           .                                       #                                                       . X     .                                                                                                         5 V ;.f.s.X.x 5 %                     O         , n >.f.f.O.j 2 %                                                                             % , j >.c.f.>.x , O #                                                                                                                                                                                                                                                             ",
"                                                                                                                                                                                                                                                        X     % 7 m +.a.p.=.S 5 O   .                                                       .           X     # , V =.g.a...d 5 % O       .           .     O . , n >.c.f.=.d 2 % O .                                                                                                                                                                                                                                                                                                                                                       .                                             . X O   #                                                                                                           O 2 V =.h.p.X.l 7 %                               , n >.f.f.O.f 2 O                                                                             % 2 j =.v.f.=.x 2   O                                                                                                                                                                                                                                                             ",
"                                                                                                                                                                                                                                                              % 7 c +.p.p.=.V 5 O   .   X                                                       .               2 V >.f.a...f 2 % O     . .     .     O     O O , n =.f.f.=.j , % O   .                                                                                                                                                                                                 .                                                                                                       .                                       #                                                                     .                                                                                               # 2 V >.h.p.X.l 5 %               .     .         , n >.f.f.O.j 2 %                     #                                                       % , j >.c.g.=.x , O . .                                                                                                                                                                                                                                                           ",
"                                                                                                                                                                                                                                                              % 7 M +.w.a.=.V 5 O                                                                               2 V =.f.a._ j 2 %       .                 . O . 2 x -.c.f.=.d 2 O           .             #                                                                                                                                                                       # # #                                                                                                         X                                                                                               #     #       X                                                                     #                           2 V =.p.s.X.x 5 %     X           .   O         , n =.f.f.O.f 2 %                                                                             % 2 j =.c.f.=.x , O O                                                                                                                                                                                                                                                             ",
"                                                                                                                                                                                                                                                              % 7 n +.p.p.>.S 5 O                                                                             # 2 V >.f.a.` d 5 %     O .     .       O O   . O , n >.f.c.;.d 2 % O   O                                                                                                                                                                                                   X                                                                                                   .   #                                   #                                                       #               X                                                                                               . 2 V =.f.p.X.l 7 % .                             , n >.f.f.O.j 2 %                     #                                                     O % 2 j =.n.c.=.x ,   O   .                                                                                                                                                                                                                                                         ",
"                                                                                                                                                                                                                                                        X     % 7 n +.w.p.=.V 5 O . O                                                               X           2 V =.f.g.` j 2 % O   .   .                 . O 2 c >.f.c.;.d , %     . .                                                                                                                                                                                                 #                                                                                                                                           X                                                                     .                                                                                                 O 2 V =.p.p.X.l 5 %                 . .         X , n >.f.f.@.j 2 %                                                                             % , j >.c.f.=.x ,   # .                                                                                                                                                                                                                                                           ",
"                                                                                                                                                                                                                                                              % 7 m +.p.p.=.V 5 O   .                                                             #     .       2 V =.f.g.` d 2 %     #         #       O . O   , n -.c.f.=.d 2 O     .                                                                                                                                                                                           X # #                                                                                                                                               #             .                                                                                                                                 #                   X   O 2 V >.p.p.X.l 7 %                 .   O         , n =.f.f.+.j 2 %                 .                                                       O   % 2 j >.c.f.=.x 2 O .                                                                                                                                                                                                                                                             ",
"                                                                                                                                                                                                                                                              % 7 M +.w.g.=.V 5 O   .                                                                           , V >.f.g.` j 2 % O O   .                   . O 2 x >.f.f.=.l , % O                                                                                                                                                                                             .                                                                                                                                                                                                               #           #                                                                                                 # 2 V =.f.p.X.x 5 %                       O       , n >.f.f.+.j , O                                                                             % , j =.c.f.=.x ,   O   .                                                                                                                                                                                                                                                         ",
"                                                                                                                                                                                                                                                              % 7 M +.p.p.=.V 5 O   O                                                                     X     2 V =.f.a.` f 2 % O     .   .         O     O   , n =.f.c.=.d 2 O     O O                                                                                                                                                                                                                                                                                                                                                                                                                                                                                                                       2 V =.s.p.X.x 5 % #                   O         , n >.f.f.@.j 2 O #                                                                           % 2 j ,.c.c.=.x ,   O .                                                                                                                                                                                                                                                           ",
"                                                                                                                                                                                                                                                              % 7 m +.w.p.=.V 5 O                                                                               2 V >.f.a._ j 2 %         .               # . O 2 x >.f.f.=.l , %   .                                                                                                                                                                                                   .                                                                                                     .                                         .                                               .                                                                                                                     O 2 V =.f.q.X.l 5 %                 . .         X , n >.f.f.O.j 2 % O                                                                         O % , j =.c.f.=.x , O O .                                                                                                                                                                                                                                                           ",
"                                                                                                                                                                                                                                                              % 7 c +.a.p.=.S 5 O                                                                               2 V =.g.a...l 2 % O     .   .     O         . O 2 x =.c.f.;.d , % .                                                                                                                                                                                                                     . O O                                                                                   .                   O   O     .     O       .   .     .     .       .   .     .     .       . O O O                                                                                                           # 2 V =.f.s.X.x 5 %                 .   .         , n >.f.f.O.j , %                                                                             % 2 j >.c.j.=.x , O O                                                                                                                                                                                                                                                             ",
"                                                                                                                                                                                                                                                          X   % 7 M +.q.p.=.V 5 O   .                                                                           2 V >.f.a...d 2 % O       .                 . O 2 n >.f.c.=.l 2 O       X .                                                                                                                                                                                           X       .                                                                                                       O .           O O               .                   O                       O           O O O                   + +   .                                                                                   2 V =.p.p.X.l 7 %                     O         , n >.f.f.O.j 2 %                                                                             % , j =.c.f.=.x , O     .                                                                                                                                                                                                                                                         ",
"                                                                                                                                                                                                                                                              % 7 n +.a.p.>.V 5 O   .                                                             #             2 V >.f.a...d 2 %     O   .     .             O , n >.f.f.=.l , %                                                                               O O                                                                                                                       O   O                                                                                                     .   O         O O                                                                                   X                                                                                                     . 5 V =.p.s.' l 5 % .               .             , n >.f.f.O.j 2 %                                                                           O % 2 j >.j.c.=.x , O . .                                                                                                                                                                                                                                                           ",
"                                                                                                                                                                                                                                                        X     % 7 m #.p.a.=.V 5 O                                                                         #     , V >.p.g.` j 2 %     . .   .   X   O     . . O 2 n >.f.c.=.d , % .       #                                                                     O O                                                                                                                         O   .                                                                                                 O O O O O                                                                                                                                                                                                   O 2 V =.f.p.X.x 5 %                     .       X , n >.f.p.@.j 2 %   .                                                                         % , j >.c.g.=.x ,   O .                                                                                                                                                                                                                                                           ",
"                                                                                                                                                                                                                                                              % 7 M +.q.g.=.V 5 O   O   X                                                                     # 2 V =.f.a...f 2 %       . .               . O O , x >.f.f.=.d 2 O         #                                                                                                                                                       X                 X                           O                                                                                     O   O O O O O O O               X                       X   X                   X                       X           O O   O   O                                                                                         O 2 V =.p.p.X.x 5 %     X                         , n =.f.f.+.j , %                                                                         O   % 2 d >.c.f.>.x , O . .                                                                                                                                                                                                                                                           ",
"                                                                                                                                                                                                                                                              % 7 m +.a.p.=.V 5 O   #                                                                       X   2 V >.f.a._ d 5 % O O                       . O 2 n ,.c.f.=.l , %                                                                                       O O O       X       O O O                                                                           .   X                 O                                                                                       O O O O               .   .                                                                                       O           X                                                                                     # 2 V =.f.p.X.l 7 %                   . O         , n >.f.f.+.j 2 %                                                                             % 2 j >.c.f.=.x ,   O                                                                                                                                                                                                                                                             ",
"                                                                                                                                                                                                                                                              % 7 M +.q.p.=.V 5 +                                                                               2 V >.f.a.` l 2 %     #   .           X   . . O 2 n =.f.c.=.d 1 %         .                                                                     X   O O O O               O O O + O .               .   .                                                                           X     X                                                                                                           .                                                                           O O O O O                   O O                                                                               2 V <.p.p.X.l 5 % .               .   .         , n >.f.f.@.k 2 %                                                                             % 2 d >.c.c.=.x , O O .   .                                                                                                                                                                                                                                                       ",
"                                                                                                                                                                                                                                                        X     % 7 n +.a.p.>.V 5 O                                                                 #             2 V =.f.g...d 2 % O     .   .   .   O         O , c >.c.f.=.l 2 O . .                                                                                   O O                 O   O       . .     .       .           .                                     .   O   O O         X X                                                                                                             O O   .                                                                                   O           X X     O O O                                                                           . O 2 V ;.p.p.X.x 5 %                     O       X , n >.f.f.O.j 2 O                                                                           O % 2 j -.c.f.=.x , O   .                                                                                                                                                                                                                                                           ",
"                                                                                                                                                                                                                                                              % 7 m +.q.p.=.V 5 O                                                                           #   2 V >.f.g.` d 2 %       O # .             # . O , n >.f.c.=.d 2 %                                                                                   .       O O O       .           O       O       O O     O       . O O   .       O . O .   .       O . O O O O O O                 O O O O .                                                                                           O O O + O O O .     O . O     O   O .     O . O .   .       O O .   .   O   #   .   .   .     O O     .       X   . O O                                                                             # 2 V =.s.p.X.x 5 %                   .         X , n >.f.f.@.j 2 %                                                                           O % 2 j >.c.c.=.x , O . .                                                                                                                                                                                                                                                           ",
"                                                                                                                                                                                                                                                              % 7 M +.a.g.=.V 5 O   .                                                               .     X     , V =.f.a.` d 5 % O                           O 2 n >.f.f.=.d 2 %       .                                                                           .       O O O O     X X             O   O   O         O     O O     .   O . .   O     .   O O .   .     . O   O O O O               + % + O                                                                     . . .   .     O O   O       O   O O . O .       . #   .     .   O     .   O O .   .   .   O   .             X         O O O                 O                                                                               2 V =.f.s.X.l 7 %                 . .           , n >.f.f.O.j , %                                                                             % 2 j >.f.f.=.x , O O                                                                                                                                                                                                                                                             ",
"                                                                                                                                                                                                                                                              % 7 m o.q.p.>.V 5 O   .                                                                           2 V =.f.a. .f 2 %     . .       X           O . 2 x ,.f.c.=.d , %                                                                         # .   .       .   #   O O   O         .     X                           X                   #   X     X .   O   .       X   X O X     X X . . + % %                                                                       .         .   O O O @   X X   X         #           #             #   X     X .   O   X     #   .   O X                   O O     O       .                     #                                                         # 2 V =.f.p.X.l 5 % #                   O       . , n >.f.f.O.f 2 %                                                                             % 2 d >.c.f.=.x ,   O   .                                                                                                                                                                                                                                                         ",
"                                                                                                                                                                                                                                                              % 7 n +.a.p.=.V 5 O .                                                                             2 V >.f.a...d 5 % O   O   .   .     #       . O 2 x >.c.f.=.d 2 O   .                                                                           + O +   . X   # O O = = 1 2 , 2 2 1 , , 1 , , 1 = , 1 , 1 , 1 , , , = , , 1 , = , = , = , = , , , , = , , = ; = = = = , 2 2 , % O   .   . & + O                                                                         .     O % , 2 2 2 , = = = = 1 , , , = , , , , , = , , = , = , = , = , , , , = , , = , , , , , = , , , 2 2 2 1 ; ; O O O O & * O + O .                                                                                   2 V =.p.p.X.x 5 %     X             .         X , n >.f.f.+.j 2 %                                                                           O % 2 l -.c.c.=.x ,   # .                                                                                                                                                                                                                                                           ",
"                                                                                                                                                                                                                                                              % 7 n +.w.p.=.S 5 O                                                                               2 V =.f.a...f 2 % O     .                   O O 2 x >.f.f.=.d , %   .       .                                                                 O * - % + O O     O % 5 e p x n n n x x j j x x j x j j x j x j x j j x j x j x x x j j x j x x j j j x j x x x x j j x x n x j i 2 %     . + % .                                                                     .       % , 0 d x V V n j j j x n n x x x j x j j x j j x x x j j x j x x j j j x j j x j j j x j x x j x n V n l y 9 1 % % O @ O % % O + O .                                                                             O 2 V =.f.p.X.x 5 %                 . . O         , n >.f.f.O.j 2 %                                                                             % 2 j ,.f.f.=.x , O .                                                                                                                                                                                                                                                             ",
"                                                                                                                                                                                                                                                              % 7 M +.p.a.=.V 5 O   O                                                                 #         2 V >.g.a.` j 2 %         .   . #         . . O 2 n >.f.c.=.l 2 O                                                                               % % % + #     % 1 0 d V /  .+.O. .O. .+.#. .#. . .+.O. .O.O. .+.@.@.#. .#. . .O.+.@.@.@.+. .@.#.+.O.@.@.+.=.-.O.X.X.+.O.-.+./ m e 1 O   . O O                                                                       . O O O = w z W ..-.-.:.#.@.X.#.=.-. .O. .O.#.+.+. .@.O. .+.+.@.@.@.+. .@.#.+.O.@.@.+. .@.@. .+.+. . .@. .=.=.#.] P n y 0 2 = O       . O % O                   #                                                       . O 2 V =.p.p.X.l 7 %                               , n >.f.f.O.j , O                     #                                                       % 2 d =.c.c.=.x 2   O   .                                                                                                                                                                                                                                                         ",
"                                                                                                                                                                                                                                                              % 7 m +.a.p.>.V 5 O                                                                 X       .     2 V >.f.a...d 2 % O     .           O       . O 2 x >.f.f.=.d , %                                                                                 . X     O 2 e j J  .,.w.g.j.j.f.f.p.g.f.p.f.p.p.f.p.f.f.p.p.p.p.f.f.p.f.p.p.f.p.f.p.p.f.f.p.p.f.f.p.p.f.f.p.q.q.q.p.f.g.w.1.U s , O X X                                                                             O   O , e A 3.a.a.g.p.a.r.e.p.f.f.f.f.f.p.p.f.f.p.p.f.f.p.p.f.p.p.f.f.p.p.f.f.p.p.f.f.p.f.p.f.f.p.p.f.f.f.p.g.a.q.>. .J j 0 , @           O                                                                               2 V <.p.p.X.l 5 %                   . .         , n >.f.f. .j 2 O #               .                                                         O % 2 l =.v.f.=.x , O O .                                                                                                                                                                                                                                                           ",
"                                                                                                                                                                                                                                                              % 7 M o.q.p.=.V 5 O   #                                                                           2 V =.f.a...d 5 %   O O . .               .     2 x >.c.f.=.l 2 %     .                                                                       #   .   X O 2 p Z ` y.k.g.v.f.f.p.g.g.p.g.p.g.p.f.p.p.g.p.g.p.p.g.f.p.p.f.p.f.p.p.f.p.p.f.p.p.f.p.p.p.p.f.p.f.f.p.p.q.p.a.a.8.3.K y 2 O X X X   .                                                                             , e C %.8.a.g.f.p.q.q.q.p.p.f.p.s.f.p.p.f.p.f.p.p.p.f.p.p.f.p.p.f.p.p.p.p.f.p.p.f.p.p.p.f.p.f.p.p.p.p.p.f.v.M.j.1.] n e 1 @ X X     O                     #                                                       # 2 V =.p.p.X.x 7 %     .   X       .             , n >.f.f.O.j 2 % O                                                                           % 2 j >.c.f.=.x ,   .                                                                                                                                                                                                                                                             ",
"                                                                                                                                                                                                                                                              % 7 n X.9.q.-.V 5 % + +                                                     .                     2 V >.g.g.` j 2 % O O + .                       2 M >.f.f.=.j 2 %                                                                             O & + O O 1 i L 1.z.z.z.z.w.,.O.....+.o.o.o... . .o.o. .o.o...o.%...o.o...o.o.o.o.o.o.o.o.o...o.o.o. .o. .#.+.+.#.#.o.o.` ) T H z w 2 O X     X   .                                                                   X X   O 1 w h G E ` ..+. .+.O.+. .+. ...o.o.o.o.o...o.o.o.o.o.o.o.o...o. .o.o.o.o.o...o. .o.@.o.o.o.o.o.o.#.O.=.,.w.v.v.c.q.@.F y 2 % % + O .                                                                             O 2 V -.p.p.X.n 5 % O . .       O   .       O   . , V 7.f.p.#.j 2 %                                                                             % 2 j -.c.c.>.x 2   #                                                                                                                                                                                                                                                             ",
"                                                                                                                                                                                                                                                          .   % 5 c o.q.q.=.V 5 % O +                                                                 O O     O 2 S >.f.a...j 2 % O % % O             O .   .   2 c >.f.c.=.j 5 =                                                                   .     X   O & - ; 4 t M X.d.N.k.t.+.` J n x x j j j j j j j j j j j j j j j j j j j j j j j j j j j j j j j j j j j j j j x j j j d p p u r 5 = % O X X X                                                                               = 2 w y d j x x n x x x j j j j j j j j j j j j j j j j j j j j j j j j j j j j j j j j j j j j j j x n S ` -.w.p.p.9.@.V s 5 - +                                                                                 O 5 n :.a.a.X.x 7 % O + .       O O           O   , V >.c.p. .j 2 %     O                                                                       % 5 x 1.n.f.=.x ,         O                                                                                                                                                                                                                                                       ",
"                                                                                                                                                                                                                                                      O       % 5 n X.p.a.-.V 5 + . . .                                                           O     O     O 2 S 7.g.g.` f 2 O     O O .   O         O   .   , x ;.f.f.=.x 5 % O                 X                                                     #   + & , 7 s Q ' 0.a.8.` D x y w 2 2 2 , , , , , , , , , , 1 , 1 , , , , , , , , , , , , , , , , 1 , , , 1 , , = = = , 1 , , , , , , = % O   # X                                                                                 O % = , , 2 2 2 2 , = ; % = , 1 , , , , , , , , , , , , , , , , 1 , , , , , , , 1 , , 1 , , , , , = = 2 w u l Z X.9.e.q.-.U f < O                                                                                 @ 5 V -.g.p. .x 5 % . . .         . O #           = n >.f.f.+.k 5 =                   .                                                         ; 5 x ,.c.f.;.x ,   X   O O                                                                                                                                                                                                                                                       ",
"                                                                                                                                                                                                                                                              % 7 n o.a.p.=.V 2 .                                                                             X 2 S 7.f.a...j ,       O   # O O O       .   O O , x @.f.c.>.j 5 ;                                                                               O , y V X.0.r.7...n y 7 , % @   X @ O     O       O   O O   O   @   O O   O   @ O   @   O   O O O     @     X       O O % O O + O O O O                                                                                       O O O O O O             X     O   @   O O   O   @     @ O     O O O   @   O   O O O O     @ O   X     % = 1 w M X.q.g.a.+.D 7 %   X                                                                             % 7 S -.a.p.X.v 7 % . + .         O O           . , n >.f.p.+.x 5 % O                                                                         O % 5 x =.c.f.#.l , O O . O                                                                                                                                                                                                                                                         ",
"                                                                                                                                                                                                                                                  O           = 0 M #.p.f.1.V , O   #   X                                                       .     O         2 V <.g.a...l 2   X     O . O             O + O , j O.f.f.>.j 2 % #                                                                               = d ^ <.p.q. .S e 2 = O   X X     O O   O       O   .     O   .         O         O       O     O                 .   O O O O O     .                                                                                         .   X X                     O   .         O     O     O     O       O       O           O     . . . O .   = w n =.f.v.8.U y = X X                   #                                                         % 7 V -.p.r.X.x 7 % O O O     X     O O         X = n >.f.p.@.j 5 % O                                                                         O % 2 j >.c.f.#.j 2 + + O                                                                                                                                                                                                                                                           ",
"                                                                                                                                                                                                                                          O   X       .   .   = 0 n +.a.p.1.V 2 .   .   X                                                         O     O # O   2 n =.g.a.+.c 5 O X   O .           X     O % O 2 x =.f.f.=.d 2 % O                                                                       #     # 5 V ;.h.j.<.L d 2 % O         .                                     O                                 .                         .         .                                                                         . .         . .                                 O                                             .               . + . O 1 p ' d.v.g.+.n w O X                                                                         .   = 7 C #.r.9.' l 7 - + + +           O + .         , x >.p.p.#.j 5 =   O               #                                                         % 2 l >.f.f.;.x , % % O                                                                                                                                                                                                                                                           ",
"                                                                                                                                                                                                                                        .                 .   = 0 n o.a.f.1.V 5 O O O @ X                                                         X           # 2 n  .a.a...x 7 % X                     . # O % 2 n =.f.c.O.d , %   O     X                                                                   O = a ` a.v.p.@.n 7 %   O O O O   O .                                                               .         . . .         .   .     .   .   .                                                                         O O     .   .     .     . O O O O .                               .                                   .   . O + + O % % 9 Z =.a.g.w.` j ,                                                                           . . % 7 V +.w.9._ j 7 = % & O X X X     O O O O       , n =.f.p.@.j 2 % O                                                                           O , d =.c.f.=.n 2 % % O .                                                                                                                                                                                                                                                         ",
"                                                                                                                                                                                                                                                O   O         ; 7 x #.q.p.=.V 5 + O O     X                                                       O # X O O     2 V O.w.u.+.m 0 = O O O     .   X     X     O O 2 n >.c.f.=.s , O   O + O O                                                 .       #       # % 2 l -.f.c.q.I i = O   O O O   . . .                                                                                   .         .                                                                                     O O   .           .     . . . +                                                                           .   . O .   O 2 p J =.g.g.-.V 5 O                   #       # #               .                             O % 7 V :.q.q.' l 7 , + % O   X X X       O %       = x =.f.f. .f , %                                                                     O O     O = s -.c.f.>.n 2 % + .   .                                                                                                                                                                                                                                                       ",
"                                                                                                                                                                                                                                                          . # * 7 x X.q.p.,.S 5 % + O O   X                                               .       O   O #       2 V =.w.7...x 7 ;   O O   X X     O           O 2 n >.m.c.O.p , O   O % +     #                                                             O % 7 n =.f.f.=.n 2       O O     . . .                                                                                                       O                                                                           O   O   O                                                                                                   .   . . O O 1 7 n  .p.g.,.S 5 O                                                                         O % = 5 V O.g.q.X.l 7 % O & O X X X     . . O % O     , x =.h.p.O.b 2 %   O                                                                 O O O   O , s =.v.c.>.n 2 O .     .                                                                                                                                                                                                                                                       ",
"                                                                                                                                                                                                                                                  O           % 5 n X.p.f.>.J 5 O + O O                                                         # X X O     O   2 V >.a.w...c 7 % X O   X .       O % #   .   O 2 n >.c.v.=.f , + O O % O O                                                                   % 7 x -.f.q.@.v ,       # .                                                                                                               O   O                                                                                     O   O                                                                                         X           % , 7 l ] q.g.,.S 2 O                                                                         O + % 7 S -.g.p._ l 7 % O %     X           O O       , x =.f.p.O.f 2 % O                                                                   O O O   O 2 d =.c.c.>.n 2           .   X                                                                                                                                                                                                                                                 ",
"                                                                                                                                                                                                                                                O     O O O   % 7 n O.p.f.<.S 5 O . . O O                                                         .     O       5 S 8.g.u...x 5 O     @ O #     O O % %   X   O 5 V >.c.g.1.j 2 % O   O .                                                                     % 2 j X.q.q.X.l =       + O                                                                                 O O O O O O                 O   O                                                                             X         O O O O O   O                                                                                         .   O = 7 l _ 8.8.+.n 2                                                                               O 5 S 1.g.p.X.x 7 % . + .     O O   .           @ 2 x ;.h.f.=.c 5 -                                                                         O O % 5 j =.c.c.>.n 5 O . . O O O   X                                                                                                                                                                                                                                                 ",
"                                                                                                                                                                                                                                            .     X     % +   = e V =.p.p.=.V 5 O .   . O O                                                   #     O   #     O 2 V >.a.d.+.V 0 % X   O O O @   O % % % O     % e J 7.f.p.#.c 5 % O . .       #                                                               % 2 d X.e.q.O.n , . O . O                                                                                   O O % O O O   O                                                                                                   X         O O   O                                                                                     O X O X     % 7 n ' 9.8.+.c ,                                                                           #   O 5 C 2.j.f.@.V e =   O       O % +       X     % 7 V >.p.p.O.k 5 % O                                                                           % 2 v #.p.v.7.S 0 ;     + % O                                                                                                                                                                                                                                                     ",
"                                                                                                                                                                                                                                                    # O % O % 2 l _ 8.f.q.X.x 2 . . . O O O                                                     O     #   O   # , n X.w.a.,./ j 2 O   @ O O O     + % O O   O 5 k _ q.f.w.| g 2 % . .                                                                         % 2 j O.p.f.>.V 5 O + . .     X       O   O   O       O     O   O     O     O   O   O O     O   O O     O               X                                                                                                                                             O     O   O   O O     O   O O     O   O O     O   O O   O O O O O         O 7 n O.q.q.=.V 5 O                                                                             O 3 x ] r.f.7./ j 2 %     O O O O . .       X % 5 f / <.q.9.] z 2 % O #                                                                   .   . % 2 g ] 7.p.q._ j 5 %   O O O                                                                                                                                                                                                                                                     ",
"                                                                                                                                                                                                                                        #       O       @ O ; 0 S -.a.f.<.Y s ;   .     O O                                                     #     O         , s L <.g.a.-.G 9 % O   % % O .   O O O     , p K 1.p.p.;.L i 2 % .         .   .                                                           O % 2 l =.f.f.7.V 5 O O . .                 O         O         O     O         O   O                   O                                                                                                                                   X         X         O     O         O   O                   O   O                     O O O X @   . . O 7 V O.p.p.>.V 2 .                                                                         . X   , p I 9.f.d.+.D e =     O O O             O , y D -.q.q.<.T s , %                                                                           . % , i P ;.p.g.-.D u = O   O                                                                                                                                                                                                                                                       ",
"                                                                                                                                                                                                                                                          O 2 s / w.f.s.@.M w = .   . .                                                                 # X O # % 6 v  .g.v.k.%.p 2 % O * + O X .   X X   O 3 c ..u.f.7.( n 7 % O       X . #                                                                 % 5 l #.f.c.>.n 2   . .                                                                                     X X                                                                                                         O                             O O                                                                       X     O   . . . O 7 x @.p.f.;.V ,                                                                           .     % 7 n  .q.j.w.` f 3 O   O O X           O % 5 c } t.p.e.X.n 0 = %                                                                     . .     + = 7 x ' 7.g.k...c 5 O                                                                                                                                                                                                                                                           ",
"                                                                                                                                                                                                                                            O   O   O % ; 2 y V -.f.p.>.I p 2 O .   .   O O                                                   #     O     O     O ; t U 8.N.N.8.V s 5 ; % @         # # = 2 p U t.g.j.=.J s , O . .   # X     X                                                               % 5 j ;.f.f.>.V ,             X   O                                                                                                                                                                                   O O O O O                   O O O                                                                               O         % 5 l  .s.f.;.n ,                                                                             .   O , y I >.f.g.-.D a , O O   X     . O % , 7 p U -.d.f.<.I d 5 % . O                                                                       .   . O , y I >.g.z.,.I y 2 = O @                                                                                                                                                                                                                                                     ",
"              O                   O                           O       O             O             O           O                               O                   O                           O       O             O                       + % O O % 2 w x ^ <.a.g.8./ v 5 % O @ O O O O O                                                           .     .   O @ 5 v ] w.g.g.>.( j w 2 O     X + = 6 t j I <.a.g.u.+.C e %   X X O O O O                                                                   % 2 j =.f.f.>.n ,                                                                                                                                                                                                                                                                                                                             . O 5 l  .p.f.=.n ,                                                                           . . o X % 7 V +.a.g.g.,.I d 7 1 *       O , 7 y n ^ >.a.g.8...V e ;     #                                                                     .     .   % w n +.w.g.z.,.^ x y 9 % O     O                     O         O               O               O           O       O             O                 O           O           O       O             O                   O         O                     O         O             ",
"2 5 2 2 5 2 2 2 2 2 2 5 2 5 2 2 2 2 2 5 2 2 2 5 2 5 2 2 5 2 2 2 2 2 2 2 2 5 2 2 2 2 5 2 2 2 2 5 2 2 2 2 2 5 2 2 2 2 2 5 2 5 2 2 2 5 2 2 5 2 2 2 2 2 2 5 2 5 2 2 2 2 2 5 2 2 2 5 2 5 2 2 5 2 2 2 2 2 2 2 2 5 2 2 2 2 2 5 2 2 2 2 2 2 , 2 5 5 5 5 7 7 e f L X.7.p.g.w...x 0 %         O O O                                                                           % e m ..w.g.f.9._ F g w 5 2 5 5 e n I ' =.q.a.t.+.K p 2   X     # O O           .                                                         % 2 j O.f.f.=.n =       O .                                                                                                                                                                                                                                                                                                               O     % 5 x  .p.p.O.n ,                       .                                                   . . .   O , p S  .7.a.g.7.' A d 7 1 , 2 0 p n I @.7.p.a.8.+.D p 2 O                       .                                                 O O     X     2 p D &.u.k.q.>. .I Z e 5 2 2 2 2 2 2 5 2 2 5 2 2 2 2 2 2 2 2 2 2 2 2 5 2 2 2 2 2 5 2 2 2 5 2 2 2 2 2 5 2 2 2 2 2 2 2 5 2 2 2 2 5 2 2 2 2 5 5 2 2 2 2 2 2 5 2 2 2 2 2 5 2 2 2 2 2 2 2 5 2 2 2 2 5 2 2 2 2 5 5 2 2 2 2 2 2 2 2 2 2 2 2 5 2 2 5 2 2 2 2 2 2 2 2 2 2 2 2 5 2 2 ",
"S S S S S S S S S S S S S S S S S V S S S S S S S S S S S S S S S S S S S S S S S S S S S S S S S S S S V S S S S S S S S S S S S S S S S S S S S S S S S S S S S V S S S S S S S S S S S S S S S S S S S S S S S S S S S S S S V V S S S S J J J I ^ X.9.q.p.q.-.` m 0 = X X                                                                                       O 2 y n _ ,.p.g.d.7.;._ I U K U ` >.a.a.g.7.1./ n e , O                                                                                   % 2 j @.f.f.>.x ,             .                                                                                                                                                                                                                                                                                                           O     % 5 l  .f.p.=.n 2                                                                           . . O O O % 2 0 x ) =.a.z.k.w.-.^ I D J I  .,.w.g.f.a.7.` V y 2 O   . .                                                                       O       X   O 1 e c ) 2.w.a.g.w.>.^ J S S S S S S S S S S S S S S S S S S S S S S S S S S S S S S S S S S S S S V S S S S S S S S S S S S S S S S S S S S S S S S S S S S S S S V S S S S S S S S S S S S S S S S S S S S S S S S S S S S S S S S S S S S S S S S S S S S S S S S S S S ",
"8.8.7.7.>.7.7.7.9.8.8.8.7.8.7.7.7.7.7.7.8.7.<.8.8.8.7.7.>.7.7.7.7.9.8.8.8.8.7.7.7.>.7.7.8.7.<.8.8.8.7.7.8.7.7.7.9.8.8.8.7.8.7.7.8.8.7.7.>.7.7.7.9.8.8.8.7.8.7.7.7.7.7.7.8.7.<.8.8.8.7.7.>.7.7.7.7.9.8.8.8.8.7.7.7.7.7.9.9.9.>.>.<.<.>.9.>.8.r.7.r.7.q.q.p.p.7.O.U j e 2 %   X   X     X                                                                             O ; 2 e x I :.w.g.n.g.g.w.8.u.u.k.v.v.N.a.-.U x w , O       .                                                                             % 2 j ;.f.f.>.n , X       O                                                                                                                                                                                                                                                                                                             O   .   O 5 x +.s.p.O.n 2                                                                           . # O O     O 1 w l T 4.k.g.g.v.g.w.8.8.w.q.f.f.f.l.1.( n t 2 O     X                                                                       O O O O         O = 0 v U +.w.g.v.c.q.9.8.7.7.8.7.7.7.8.8.7.7.8.7.7.7.8.0.7.7.8.7.7.7.8.8.7.>.7.7.8.7.<.8.8.8.7.7.8.7.7.7.7.9.8.8.8.8.7.7.7.>.7.7.8.7.<.8.>.7.7.7.9.8.8.8.8.8.7.7.8.7.7.7.7.9.8.8.8.8.7.7.7.>.7.7.8.7.<.8.7.7.8.7.7.7.8.0.7.7.8.7.7.7.8.8.7.7.8.7.7.7.8.0.7.7.8.7.7.7.8.8.",
"c.c.f.c.c.c.f.c.c.c.f.c.c.c.f.c.f.c.c.c.f.c.c.c.c.c.f.c.c.c.f.c.c.c.c.f.c.c.f.c.c.f.c.c.f.c.c.c.f.c.c.c.c.f.c.c.c.c.f.c.c.c.f.c.c.c.f.c.c.c.f.c.c.c.f.c.c.c.f.c.f.c.c.c.f.c.c.c.c.c.f.c.c.c.f.c.c.c.c.f.c.c.f.c.c.f.c.c.f.c.f.c.c.f.f.c.c.f.c.b.c.f.f.f.w.1.o.A d 5 = % @ O                                                                                       O O O % , 9 s G ] 1.a.g.v.v.g.g.g.g.B.g.8...K l r , O X             O                                                                       % 2 j O.p.f.>.x ,                                                                                                                                                                                                                                                                                                                         O     O 5 l  .f.p.-.n ,                                                                           O   O     X X @ % 5 h P %.,.a.N.v.g.g.j.g.v.j.w.>...A d w = O                                                                               O O O O O     X   O , 9 g D ..1.a.v.n.c.c.c.c.f.c.c.c.f.c.f.c.c.f.c.c.f.c.c.f.c.c.c.c.c.f.c.f.c.c.f.c.c.c.f.c.c.c.c.f.c.c.c.c.c.f.c.c.f.c.c.f.c.c.f.c.c.c.c.c.c.f.c.c.c.f.f.c.c.c.c.f.c.c.c.c.c.f.c.c.f.c.c.f.c.c.f.c.c.c.f.c.c.f.c.c.f.c.c.f.c.c.c.c.c.f.f.c.c.f.c.c.f.c.c.f.c.c.c.c.c.f.",
"q.q.q.q.q.q.q.q.q.q.q.q.q.q.q.q.q.q.q.r.q.q.q.q.q.q.q.r.q.q.q.q.r.w.q.q.q.q.q.q.q.q.q.w.q.r.q.q.w.q.q.q.q.q.q.q.q.q.q.q.q.q.q.q.q.q.q.q.q.q.q.q.q.q.q.q.q.q.q.q.q.q.q.r.q.q.q.q.q.q.q.r.q.q.q.q.r.w.q.q.q.q.q.q.q.q.q.q.q.q.q.q.q.9.e.r.e.q.q.q.q.q.q.9.o.T x t 2 ; O   O O O O O   .                                                                             O % O     % 2 e x J o.,.7.q.q.8.8.,.5.+.K n u 5 = O O O           O                                                                         % 2 j =.f.f.=.n ,         O                                                                                                                                                                                                                                                                                                                 O   % 5 x  .p.p.#.n 2                                                                           O         X     O ; 5 i c K ..t.w.w.7.q.w.w.5. .S j t 4 %     X   #     X                   #                                               O O O O     O   @ O O % 2 u c I ..4.7.w.q.q.q.q.w.q.q.r.q.q.q.q.q.q.r.q.q.q.q.q.q.q.q.w.q.q.q.q.w.q.r.q.q.w.q.q.q.q.q.q.q.r.w.q.q.q.q.q.q.q.q.q.w.q.r.q.q.q.q.q.q.q.q.q.q.w.q.q.q.q.q.q.q.r.w.q.q.q.q.q.q.q.q.q.w.q.r.q.q.q.q.q.q.q.r.q.q.q.q.q.q.q.q.w.q.q.q.q.q.q.r.q.q.q.q.q.q.q.q.w.q.",
"F S S P F J S S S F P S F S S P S S P S F J S F F S S J G F S J F S J S F F S P S J F S F J S F S P S F P S F S S F P S F S S P F S S P F J S S S F P S F S S P S S P S F J S F F S S J G F S J F S J S F F S P F J S F F F F F F F F F F V V F V L P A j e 5 = O @ O O % % % * +         O                                                                       + # +   .     % 1 w d m A P F A Z b v s 0 3 = O O O O O O O         O                                                                       % 2 j @.f.f.>.x ,                                                                                                                                                                                                                                                                                                                         O     O 5 l  .p.p.=.n 2                                                                         O               O O @ % % , 7 s M Z F L J F V M g 7 , % X X       % O O                                                                                 O   O O O @ O % = 5 e d m A F J F S S P S P F S J F J S J S F S P S S F S F P S S J F S F J S F S P S F P S F S F S J S F F S P S J F S F J S F S S F K F S G J S P S F P S F S F S J S F F S P S J F S F J S F J F J S J S F S P S S F S F P S J F J S J S F S P S S F S F P S ",
"0 0 0 0 0 7 0 r 0 0 0 0 0 0 0 0 0 0 0 0 0 0 0 0 0 0 0 0 0 0 0 0 0 0 0 0 0 0 0 0 0 0 0 0 0 0 0 0 0 0 0 0 0 0 0 0 0 0 0 0 0 0 0 0 0 0 0 0 0 7 0 r 0 0 0 0 0 0 0 0 0 0 0 0 0 0 0 0 0 0 0 0 0 0 0 0 0 0 0 0 0 0 0 0 0 0 0 0 0 0 0 7 7 7 7 0 7 7 7 0 0 7 7 5 2 , % O     O + % % % .         O O                                                                         O     X X o   O % , 7 0 e 0 0 9 5 2 , %     X X # O O O O O + O                                                                           % 2 j =.f.f.>.n =   X   O     .                                                                                                                                                                                                                                                                                                             O   O 5 j +.p.f.O.n ,                       #                                                       X X O + O % O     X   O , 7 0 e e e 0 7 5 , % @       X   O O % O O #                                                                               O O O   X # X O O = 3 5 7 0 0 0 0 0 0 0 0 0 0 0 0 0 0 0 0 0 0 0 0 0 0 0 0 0 0 0 0 0 0 0 0 0 0 0 0 0 0 0 0 0 0 0 0 0 0 0 0 0 0 0 0 0 0 0 0 0 0 0 0 0 0 0 0 0 0 0 0 0 0 0 0 0 0 0 0 0 0 0 0 0 0 0 0 0 0 0 0 0 0 0 0 0 0 0 0 0 0 0 0 0 0 0 0 0 0 0 0 0 0 0 0 0 0 0 0 0 0 0 0 0 0 ",
"% % O % % % O % % % % O % % O % % % % % % % % % % % % % % % % O % % O % % % % % % % % % % % % % % % O % % % O % % % % O % % O % % % O % % % O % % % % O % % O % % % % % % % % % % % % % % % % O % % O % % % % % % % % % % % O % O O O % O % O % O O % % % O O     O O O O .   . X       O O                                                                             X O . O . # O % = = = = % O X O         X X   .   . O O O                   X #                                                       O 2 j =.f.f.>.x ,   X   O                                                                                                                                                                                                                                                                                                                   O   O 5 x  .p.p.=.n 2                                                                               O O O % + O .         X * ; = 1 , = % * O O O + + O .         O O                                                                           X     O     o .   X X   @ O % O % % % % % % % O % % % + % % % O % % % % % O % % % % % % % % % % % % % % O % % O % % % % % O % % % % % % % % % % % % % % % % % % % % % % O % % O % % % % % O % % % % % % % % % % % % % + % % % % % % O % % O % % % % % + % % % % % % O % % O % % % % % ",
"                                                                                                                                                                                                                                        .   X   X   . X     O O O O % O O   .       X O O O                                                                         X   . O O # + O +   O O       X X       . X . . . X       O       X                                                                       % 2 j @.f.f.>.n ,         O   .                                                                                                                                                                                                                                                                                                             .   O 5 x  .p.p.O.n ,                                                                               O O % % O O .             @   X         X . O O % % O O       X O                                                                       X X       @ O .   X X   .   O O   # X                                                                                                                                                                                           .                               .                         ",
". O   O   O   O O   .     O   O .   O         O .   O     O   O   O   O     O   .   O         O   O       O   O O   .     O   O . O   O   O   O O   .     O   O .   O         O .   O     O   O   O   O     O       O         . . O   # O .   .   .       . O + O O O O           X       O                                                                               X . O + & % & + . # .   . O O % O O     . .     . O O                       .                                                       % 2 j ;.f.f.>.x ,                                                                                                                                                                                                                                                                                                                       O O     % 2 x +.p.p.=.n 2                       X                                                       O % + O .   .       O O           . . . . + + % + % O       X X                                                                               O   O O     .       # # O O O O       O   O       O       O           O   O     O   .   O         O   O   O O   .     O   O     O   .   O         O .   O         O   O   O O   .     O   O     O   .   O         O     O     O   O   O   O     O       O     O   O   O   O     O   ",
"    O   O   O     O   O O   O     O   O   O O     O   O O   O   O   O     O . O   O   O   O O   O   O O O   O     O   O O   O       O   O   O     O   O O   O     O   O   O O     O   O O   O   O   O     O . O . O   O . O O               O O   O             O O +       .       .                                                   .                           O         # + % % + +     . O + % ; = + O # . . X     .                                                                                   % 2 j @.f.f.=.n ,   X         .                                                                                                                                                                                                                                                                                                             O   O 5 l  .p.p.O.n 2                                                                           X X O O O .   .   .   O O       X X .       . . O . # . . O                                                                                         O O O & @   . o . .   # O % O   O   O       O O     O O   O O   O O   O     O . O   O   O   O O   O   O     O   O O   O     O . O   O   O   O O     O   O   O O   O   O     O   O O   O     O . O   O   O   O O   O   O   O   O   O   O     O . O O   O   O   O   O   O     O . O ",
"                                                                                                                                                                                                                                                                      O O                                                                                         O % O           O             . + % % % O         O O O O                                                                                   % 2 j ;.f.f.=.x ,         O                                                                                                                                                                                                                                                                                                                 O   O 5 j  .p.p.-.n 2                                                                               X X           .   .         .       . . O     .         O               #                                                                                                   O         O                                                                                                                                                                                                                                           ",
"                                                                                                                                                                                                                                                                        O O O O                                                                                 O O O O       X               .   O O O O         . . O O               O                                                                     % 2 j @.f.f.>.n ,                                                                                                                                                                                                                                                                                                                         O     O 5 l  .p.p.O.n ,                           .                                               O         X                   .                             O O         X                                                                                                                                                                                                                                                                                                                                                             ",
"                                                                                                                                                                                                                                                        + O               O                                                                                                       X                                                 O                                                                         O 2 j =.f.f.>.x =       O .                                                                                                                                                                                                                                                                                                               O     % 5 x  .f.p.=.n 2                                                                         O O O               O               O O         .                                                                                                                                 .                                                                                                                                                                                                                                                     ",
"                                                                                                                                                                                                                                        O                                                                                                                                 O           X                                         O     O                                                                       % 2 j O.f.f.>.n ,   X         .                                                                                                                                                                                                                                                                                                             .   O 5 v X.p.p.=.n 2                                                                                               O O   O . O . O O O     X       O O O                                                                                                                                       X   #                                                                                                                                                                                                                                 ",
"                                                                                                                                                                                                                                                                                                                                                                                                                                                                                                              % 2 j =.p.f.>.x ,   X                                                                                                                                                                                                                                                                                                                     O     O 2 x X.p.f.=.n 2                                                                                                                                                                                                                                                           #       #     #               #                                                                                                                                                                                                                       ",
"                                                                                                                                                                                                                                                                                                                                                                                                                                                                                                              % 2 j O.f.f.=.n ,         O                                                                                                                                                                                                                                                                                                                 O   % 5 l  .f.p.+.n ,                                                                                                                                                                                                                                                                               #   .                                                                                                                                                                                                                             ",
"                                                                                                                                                                                                                                                                                                                                                                                                                                                                                                              % 2 j =.f.f.>.x ,                                                                                                                                                                                                                                                                                                                         O     O 5 l  .p.p.=.n 2                                                                                                                                                                                                                                                                               .                                                                                                                                                                                                                                 ",
"                                                                                                                                                                                                                                                                                                                                                                                                                                                                                                              O 2 j @.f.f.>.n = X     O     .                                                                                                                                                                                                                                                                                                             O   O 5 j  .p.p.O.n 2                                                                                                                                                                                                                                                                                                                                                                                                                                                                                                                 ",
"                                                                                                                                                                                                                                                                                                                                                                                                                                                                                                              % 2 j =.f.f.>.x ,       O                                                                                                                                                                                                                                                                                                                   .   O 5 j X.p.p.O.n 2                                                                                                                                                                                                                                                                                                                                                                                                                                                                                                                 ",
"                                                                                                                                                                                                                                                                                                                                                                                                                                                                                                              % 2 j @.f.f.>.n ,         O   .                                                                                                                                                                                                                                                                                                           O O   O 5 v  .f.p.=.n 2                                                                                                                                                                                                                                                                                                                                                                                                                                                                                                                 ",
"                                                                                                                                                                                                                                                                                                                                                                                                                                                                                                              O 2 j ;.f.f.>.x , X           .                                                                                                                                                                                                                                                                                                         O       O 5 l  .p.p.-.n ,                                                                                                                                                                                                                                                                                                                                                                                                                                                                                                                 ",
"                                                                                                                                                                                                                                                                                                                                                                                                                                                                                                              % 2 j ;.p.f.=.n ,                                                                                                                                                                                                                                                                                                                           O   % 5 x  .p.p.O.n 2                                                                                                                                                                                                                                                                                                                                                                                                                                                                                                                 ",
"                                                                                                                                                                                                                                                                                                                                                                                                                                                                                        #                     % 2 j =.f.f.=.x ,                                                                                                                                                                                                                                                                                                                           O   O 5 l  .p.f.O.n 2                                                                                                       .                                                               #                                                                                                                                                                                                                                                                                                                                         ",
"                                                                                                                                                                                                                                                                                                                                                                                                                                                                                                              O 2 j O.f.f.>.n =       O     .                                                                                                                                                                                                                                                                                                             O   O 5 j  .p.p.O.n 2                                                                                                                                                                                                         #                                                                                                                                                                                                                                                                                                       ",
".                                                                                                                                                                                                                                                                                                                                                                                                                                                                                           #                 % 2 j @.f.f.>.x ,         O   .                                                                                                                                                                                                                                                                                                           O     O 5 j  .f.p.=.n 2                       .                                                                                 #                     #                                   #                                                                                                                                                                                                                                                                                                                                             ",
"                                                                                                                                                                                                                                                                                                                                                                                                                                                                                                              % 2 j ;.f.f.>.n , X       .                                                                                                                                                                                                                                                                                                                 .   % 5 v X.p.p.O.n 2                                                                                                         .                                                                                                                                                                                                                                                                                                                                                                                                       ",
"                                                                                                                                                                                                                                                                                                                                                                                                                                                                                                              % 2 j O.p.f.>.x ,                                                                                                                                                                                                                                                                                                                       O   O   O 5 l  .f.p.-.n ,                                                                                                                                                                                                         #   #                                                                                                                                                                                                                                                                                                   ",
".       X .                                                                                                                                                                                                                                                                                                                                                                                                                                                                                                   O 2 j =.f.f.=.n ,         O                                                                                                                                                                                                                                                                                                                     O 5 x  .p.p.#.n 2                                                                                                       .                       #                                     #                                                                                                                                                                                                                                                                                                                                           ",
"        X                                                                                                                                                                                                                                                                                                                                                                                                                                                                                                     % 2 j @.f.f.>.x ,     X                                                                                                                                                                                                                                                                                                                   O     O 5 l  .p.p.=.n 2                                                                                                                                                                                                           # #                                                                                                                                                                                                                                                                                                   ",
"      # O                                                                                                                                                                                                                                                                   X . o                                                                                                                                                                                                                             % 2 j =.f.f.>.n =       O .                                                                                                                                                                                                                                                                                                                 O   % 5 j  .p.f.O.n , O                     #                                                                                                                                                                                   #                                                                                                                                                                                                                                                                                                     ",
"      O     O                                                                                                                                                                   #       O   O   O O   O   O     O   O   O @   O   O   O     .         O   O       .       .       X       X                                     #             .   #   #                                                                                                                                                       % 2 j =.f.f.>.x , X     O     .                                                                                                                                                                                                                                                                                                             O   O 5 x @.a.p.O.n ,                                                                                                             O O O                                                                                       X #                                                                                                                                                                                                                                                                                                     ",
"  O                                                                                         .                                                                         .     O         O                       O     .                   O         O           O   O         .                                                                   X       #           #   #               O O O         O O     X       X   O O O O     .   X .         .                                                       % 2 j @.f.f.>.n ,         O                                                                                                                                                                                                                                                                                                                 .   O 5 l  .p.p.=.n 2                                                                                                               O O       .                                                                                                                                                                                                                                                                                                                                                                                       ",
"          .                                                                                                 .           .                                                                                                                                       .     .   .     .         O                                       X                           # O                               X   X     X       X     O X O   . X     X X           #                                                       O 2 j ;.f.f.>.n =                                                                                                                                                                                                                                                                                                                       O O     % 5 l  .p.f.O.n 2                                                                                                                       X                                                                                     .                                                                                                                                                                                                                                                                                                   ",
".     #       .     .     .         . .     .   .   .   .           .   .   .       .       .   .     . .         #                 .         . .     . .   .   .       .       .     . .   .   . .         . . #             #     . .                       .                     O O O                                   #       #           .                 . O   .   .         X X   X     X                                 X                 X                                                       % 2 j =.p.f.>.x , X           .                                                                                                                                                                                                                                                                                                             O   O 5 j  .p.p.-.n ,                                                                                             O     O O         X   X     X X   . X                                                   .                               #                                                     o         .         . .             .     .         .             .       .         .     .       .                                                                                                                                   ",
"                                                                                X       .                                                                 X X                           .         .   X   .                         X   X     X .                         O   O . O O   O                         .                     X                             . . . .   O         X       @   X                             O                                                                         O 2 j ;.f.f.=.n ,         O                                                                                                                                                                                                                                                                                                                 O   O 5 x  .p.f.O.n 2                                                                                                             O O O O O                     X                                         #                   #                                                                 .                                                                                                               X                   .     .                                                 X                         .           .   ",
"                                                                      X     .               X   .     X   X                             X       .     X                               X     X               X     X                             .     X             O         O                                     #   #             #                                   O O O O O           @ O O     . .     . O . O           O O O O                 #                                                   % 2 j ;.p.f.>.x ,                                                                                                                                                                                                                                                                                                                         O     O 5 j X.p.p.O.n 2 O                                                                                                       . .       O O O O O O   O                                                         .       X             # . O *                                                                                                                 X                                                                   X       X                         X                                                     X           ",
"  O   O   O   @   O O   O   . O O O O     O   O   O   O   O   @   O O O   @   O O   O   X O O     O O     O   O   O O     O . O O   O     O   O   O O     @ O   O   O   O     O O X   O X O O     O @   X O O   X O   O O   . O   O O   O @ O O   @ O O X O             O O                                         X #                                                 O O O O O     X         O O           O O O .     .     O O % % O                                 .                                   % 2 j O.f.f.=.n =   X   O .                                                                                                                                                                                                                                                                                                               O     % 5 j  .p.p.=.n 2                                                                                                   .       . X   .         # O                                                             X         X #               O                                                       O   O O     O   O   O   O   O   @ O   . O O X   O O   . O O O   O O @   O @   O O   O   O O X   O   O   O O O   O O     O O @   O   O   O O O O   O     O   O O   O   O   O     O O   O     O   O   O   O   O     X O @ O   O X O ",
"O O O O O O O O O @ O @ O O O O @ O O O O @ O O O O O O O O O O O O O O O O O O O O O O O O O O O O O O O O O O O O O O O   O O O   O O O O O O O O O O O O O O O O   O O O O O O O O O O O O O O O O O O O O O O O O O O O O O O O O O O O O O O O O O O   O   O     O                                                   . X       X   .                                 O O O O O   .       O O O O O   O O + + O O             O O O O               .         #                                           % 2 j =.f.f.>.n ,             .                                                                                                                                                                                                                                                                                                             .   O 5 v @.p.p.O.n 2                                                                           O     .                     . O     .   X .     O O     O   O   O   .                                           #         .       # #       O                                   O O O O O O O O O O O O O @ O O O O O O O O O O O O O O O O O O O O O O O O O O O O O O O O O O O O @ O O O O O O O O O O O O @ O O O O O O O O O O O O O O O O   O O O O O O O O O O O O   O O O O O   O O O O O O O O O O O O O O O O O O O O O O O ",
"                          X O           X     .                                       X   #           .             .     X             X     .     .         .           #           X             .         .       #           #       @   X X     O @   O                                                                                                             O O O       . # . . . O + + + O O % % % % +                                             # X               #     .                   % 2 j @.f.f.=.x ,                                                                                                                                                                                                                                                                                                                         O     O 5 l @.a.p.=.n ,                                                                                 O O     O .   . # O O % % * O X . #   . O + O O   .   . O O O O                     .       #         X   # #                       #           X   .     + % % % * O O                       O         X     .                     .     X             X     .       .     X   .       X O     X     #           #             X     .     X   .       X O               #           X                               #         ",
"    .       .   X                   .               .       .   X     X     #                               .     X                 .                             X X                       #   .               X           .             . .     X .   O @   X   X         O   O                                                           X                       X   X @       O   .     . O . + O   O   O   + O + . .   .         X X                 . X #     .                                         % 2 j O.f.f.>.n ,   X     O                                                                                                                                                                                                                                                                                                                 O   % 5 j  .p.f.O.n 2                                                                                   O O % + O O .       O + O         + O O O . .         . . O O                                 #   .           . X X                     X X         . . O + O O   O O O #                 X       .               .       .   X                   .           X                             .             .               .                                 .   X X                       #       .       .   X               ",
".   .   .           .       .     .     #   .   .   .   .       .   .               #           #       .           .       #     .     #   .   . .     #       .                   #             .     #           .     .   .                 .       #       X   X         O O O O                                                                               X               X .       . o . .       X       . O . .         X                               X # .                                     O 2 j =.f.f.>.n =           .                                                                                                                                                                                                                                                                                                             O     O 5 x  .p.p.O.n 2                                                                                   O % + O O               X       O O O O               .   O                                         # #           .     X       X   X X   X       #   . O   .       X         . .           .   .     #   .   .   .   .           .       #     .     #   .       .       #           . .     .         .   .         .       #   .       #           . .     .                   #           .   .   .           .     . . . ",
". # O O   # O . O + . . . O . # O O . .   O . O . # O O   # O . . O . O . O . . O . O . . + . O O . . O   # O . . O . O + . O . O O . .   O . O O   O . O .   . . O . + . + . O + . O . . O . . O   O . O .   . O . . O . O O   . O . . # . . O O O . O O O                 O O O O O O O                                           # X                             O               O O O O .           X X X           O O O       X                                             .     #                     % 2 j @.f.f.>.x , X     O                                                                                                                                                                                                                                                                                                                   O   O 5 j X.p.p.=.n ,                       #                                                   X       O O % O           X X       O O % O O O   X       . .       #                                                                   .       X     . O O .     # X . X X X   X . .     O . . . O . O O . .   O . O . # O O   # O . O . . O + . O . O . O .   O . O . O . O + . O . . O . .   O . O O # . O . O O   . O . . O # . O   O . O + . O . . O . .   O . O . O . + . + . O + . O . . O . . . # O O   # O . O . . O . O O   ",
"= = = % = % = = % = = = = = = % = % = = % = = = = = = % = % = = = = = = % = = = - % = = % = = % = = % = = % = = % = % = = = = % = % = = % = = = ; = = % = = % = = = = = % = = % = % = = % = = = ; = = % = = % = % = % = = = = % = % = = = = = = - = = = = = - O   X   X       O O O O                                               #       .                     O O O X X #       O = = = % % O O % ; ; O           X # O O O                                                                               % 2 j =.f.f.>.n ,         O     .                                                                                                                                                                                                                                                                                                         O     % 5 x +.p.p.-.n ,                     #                                                     X                 #   X   O % % = = = = = % % % O     X   X         O                                                                               O + % O .   . X X X @ O ; = = = = = = = = = = = % = % = = % = = = = = = % = % = = % = % = = = = % = % = = = = = = % = % = = = = % = % = = % = % = % = = = = = = % = = % = = % = = % = % = = = = % = % = = % = % = = = = = % = = % = % = = % = = = = = = % = % = = % = = = = = = % ",
"y p p p p p y p p p y p p y p p p y y p p p y p y p p p p p p y y y p p p y y p p p p p y p p p y p p y p p y p p p p y y y p p p p y p p p y p p y p p y p p p p y p p p y p p y p p p p y y p p y p p p p p p p p p p y p y p p p p p y p y p y p p e 0 7 2 = %               O   O                                                                           O O   #   .     % = 5 0 u s s y t t i i e 5 , %   X X .     O O O O                                                                           % 2 j @.f.f.>.x ,                                                                                                                                                                                                                                                                                                                               O 5 l @.p.f.O.n 2                                                                                                 O = 2 7 u d p p s y i e 9 2 = O   X         O                                                                               O O % O O     X     % , 5 e s p y p y y y y p y p p p y y p p p y p y p p p p p p y p p p y y y p p p y p y y y y y p p p y y y p p p y y p p p p p p p y p y p y p p p p p p p y y p p p y y y p p p y y p p p p p p y p p p y p p y p p p p y y p y p p p p y y p p p y p y p y p ",
"<.;.=.=.>.;.;.<.=.=.=.;.<.;.=.=.=.<.<.;.=.=.=.;.<.;.=.=.>.;.>.=.>.=.;.;.=.>.;.>.=.=.;.;.=.=.;.;.;.<.=.=.>.;.;.<.=.=.=.<.<.;.=.=.>.;.;.<.=.=.=.;.<.;.=.=.;.>.=.<.=.=.;.;.=.>.;.;.>.=.;.;.=.>.;.>.<.;.=.=.=.;.<.;.=.=.>.=.;.=.>.=.;.=.;.<.=.=.<.;.=.=.;.] m u q 5 , %                                                                                                           % 2 e j D ` +.=.=.=.;.+./ K j y 2 =     X .   O   O O                                               .     #                     % 2 j ;.f.f.>.x , X       O     .                                                                                                                                                                                                                                                                                                         O     O 2 x  .p.p.O.n 2                                                                                             O % 5 e x G ` &.-.,.=.+.o./ Z j e 5 1 O   X X                             #                                                     O O O   .   X .   % 5 y x S ` #.=.;.=.=.;.<.>.=.=.=.=.<.<.;.=.=.=.;.<.;.=.=.>.;.>.=.=.=.=.<.<.;.=.=.;.<.;.>.=.>.;.<.=.=.=.<.<.;.=.=.=.<.<.;.=.=.;.>.=.=.=.;.<.;.>.=.=.;.<.;.=.=.;.<.=.=.=.<.<.;.=.=.=.<.<.;.=.=.;.>.=.=.;.;.=.>.;.;.>.=.;.;.=.>.;.>.<.;.=.=.=.<.<.;.=.=.=.;.<.;.>.=.",
"c.m.m.c.c.m.c.c.m.m.m.c.c.m.c.m.c.m.c.c.m.m.m.c.c.m.m.c.c.m.c.c.c.m.m.m.m.c.m.c.c.m.m.m.m.m.m.m.c.c.m.m.c.m.c.c.m.m.m.c.c.m.c.m.c.m.c.c.m.m.m.c.c.m.c.m.m.c.c.c.c.m.m.m.m.c.m.m.c.m.m.m.m.c.m.c.c.m.m.c.m.c.c.m.m.c.c.c.c.c.c.c.c.c.c.c.c.c.b.m.m.c.c.w.| P C d e 2 ; %                                                                                         .   . .   O , w d S _ ,.w.v.M.M.M.M.g.w.,...S d 7 ;     X         O   O                                                                       O 2 j @.f.f.=.x ,                                                                                                                                                                                                                                                                                                                         O     O 2 l  .p.p.=.V ,                     #                                                                     O , 0 j D ` ,.u.a.v.c.v.v.g.u.,.` S d 0 2 % O                               #                                     .   X   #     O   O .         X 1 0 d S _ -.d.v.b.m.m.m.m.m.c.c.m.c.c.m.c.c.m.m.m.c.c.m.m.c.c.m.c.c.m.m.m.c.c.m.c.m.m.c.m.c.m.c.m.c.m.m.m.c.c.m.c.m.m.c.c.m.c.m.m.c.m.m.m.c.c.m.m.c.m.c.c.m.c.m.m.c.m.m.m.c.c.m.c.m.m.c.c.m.c.m.m.c.c.m.m.m.m.c.m.m.c.m.m.m.m.c.m.c.c.m.m.c.c.m.c.c.m.m.m.c.c.m.m.c.",
"m.m.m.m.m.m.m.m.m.m.m.m.m.m.m.m.m.m.m.m.m.m.m.m.m.m.m.m.m.m.m.m.m.m.m.m.m.m.m.m.m.m.m.m.m.c.m.m.m.m.m.m.c.m.m.m.m.m.m.m.m.m.m.m.m.m.m.m.m.m.c.m.m.m.m.m.m.m.m.m.m.m.m.m.m.m.m.m.m.m.m.m.m.c.m.m.m.m.m.m.m.m.m.m.m.m.c.c.c.c.c.f.c.f.f.c.c.c.c.c.m.M.m.f.p.q.0.-.J p 5 %   X . . . .                                                                       O #   . . . . O 2 i n  .9.a.z.M.B.v.B.v.M.M.v.g.g.8.' M e ,       . . . X           #                                                               % 5 j O.f.p.=.c ,               O O O                                                                                                                                                                                                                                                                                                         . % 5 l ' p.p.>.V ,                                                                             .   #     @ % 2 y V O.q.a.g.f.p.f.f.v.v.v.v.g.a.,.' V e 1 % % + . o                       #                                                           . . O O , i M _ <.p.g.v.v.m.m.c.m.m.m.m.m.m.m.m.m.m.m.m.m.m.m.m.m.m.m.m.m.m.m.m.c.m.m.m.m.m.m.m.m.c.m.m.m.m.m.m.m.m.m.m.m.c.m.m.m.m.m.m.m.m.m.m.c.m.m.m.m.m.m.m.m.c.m.m.m.m.m.m.m.m.m.m.m.c.m.m.m.m.m.m.m.m.m.m.m.m.m.m.m.m.m.m.m.m.m.m.c.m.m.m.m.m.m.m.m.m.m.m.m.m.m.m.m.m.m.",
">.>.>.>.>.>.>.>.>.>.>.>.>.>.>.<.>.>.=.>.>.>.>.>.>.>.>.>.>.>.>.<.>.>.>.>.>.>.>.>.>.>.>.>.>.>.>.>.>.>.>.>.>.>.>.>.>.>.>.>.>.>.>.>.>.>.>.>.>.>.>.>.>.>.>.>.>.>.>.>.>.>.>.>.>.>.>.>.>.>.>.>.>.>.>.>.>.>.=.>.>.>.>.>.>.>.<.=.;.;.=.;.;.;.;.;.;.;.;.<.>.<.9.r.a.g.f.q.@.F s 2 O O . + . . .     X                                             O   O   O   O X       O . O & % 2 y V X.q.c.v.g.u.t.-.2.-.,.u.k.g.g.a.9._ V i 5 %     .     O   O                                           .   X   #                 % 2 j O.f.f.=.n ,   .           . O O                                                                                                                                                                                                                                                                                                           O 2 d ' q.f.>.S 2                                                                                 # X + % 2 s V O.a.v.g.a.9.;.@.@.O.-.8.a.a.g.g.7.X.M e 2 = & . o   # .                 #                                                     .   . . O - 5 y V ' 9.p.v.g.a.w.<.<.>.>.>.>.>.<.=.>.>.>.>.>.>.>.>.>.>.>.>.>.>.>.>.<.<.>.>.>.>.>.>.>.>.>.>.>.>.>.>.>.>.>.>.>.>.>.>.>.>.>.>.>.>.>.>.>.<.>.>.>.>.>.>.>.>.>.>.>.>.>.>.>.>.>.>.>.>.>.>.>.>.>.>.>.>.>.>.>.>.>.>.>.>.>.>.>.>.>.>.>.>.>.>.>.>.>.>.>.>.>.>.>.>.>.>.>.>.>.>.>.",
"p p p y p p p p p p p p p p p p p p p p p p p p p p p p p p p p p p y p p p p p p p p p p p p p p p p p p p p p p y p y p p p p p p p p p p p p p p p p p p p p p p y p p p p p p p p p p p p p p p p p p p p p p p p p p p p p p y p p p p d d d j v A | @.<.q.q.;.A t 1 %   . o .                                                   #   #       # O             . % 5 p S @.q.f.p.w.*.K c d u i y l ) +.-.0.w.8. .I d 9 =         O O O                                         X                           % 5 j O.p.p.=.n 2 .       .                                                                                                                                                                                                                                                                                                         O           + 2 j ' q.p.>.S 5 O                                                                         #       O ; 2 y S +.w.d.w.0.#.I n g s p j S ` 2.,.w.a.d.:.J p 5 *   X   #                                                                   O #   O   . . % 2 d I  .<.9.8.>.=.` n d p p p p p p p p p p y p y p p p p p p p p p p p p p p p p p p p p p p p p p p p p p p p p p p p p p p p p p p p p p p p p p p p p p p p p p p p p p p p p p p p p p p p p p p p p p p y p p p p p p p p p p p p p p p p p p p p p p p p y p p p p ",
"= % = = = = % = = % = = % = = % = % = = = = % = = % = = % = = % % = = = % = = = = % = % = = = = = % = = = % = = = = = = = = % = % = = = = % = = = = % = % = = = % = = = % = = = % = = % = = = = = % = = = = % = = = = , , = = , = = = = , , , , , 3 8 e g F ` 8.a.w. .Z u , O X o O O O O O                                         O       # @         O     O O O , p S  .p.a.7.O.I n y 5 = % O % 5 f n I ' 8.a.w.-.U f 5 O       O % O                                                                     % 2 l @.p.p.>.n 2 %     .                                                                                                                                                                                                                                                                                                         O             % 5 l  .q.p.=.V 5 O                                                                       .         ; 2 s C o.u.d.7. .I n p 0 2 , = , 0 f C K ` 7.a.w.O.I s 3       X                   #                                                 O O O .   O = r I =.q.8.#.( J V x 7 = = = % = = = % = = = = = = = = % = = % = = % = = % = = % = % = = = = % = = = = % = % = = = = % = = = = % = % = = = = = % = % = = = = % = = = = % = % = = = = % = = = = % = % = = = % = = = % = = = = % = % = = = = = = % = = % = = = % = = = = % = ",
". . O .   . O . O . O .   .     . . O .   . O . O . O .   .     O . . O . O   .   + .   . O . .   O .   O . . O . . O .   . O . . O . .   # O     . . O . O . . O . . O . O   .   + .   . O . . . . O .   . O . #   O + % + O O + O O + + + + % - - % = 2 e S  .w.a.w.O.A 5 O   #   # O O O                                               O       O     O       O % 0 V O.r.d.7._ V e 5 = %     O ; ; , 5 e x _ w.g.a.+.m 0 O   X     O                                                 .                     % 5 j X.e.p.=.V 5 % O O O O   #                                                                                                                                                                                                                                                                                                             X   % 7 n  .r.p.=.V 2 O                                                                         . . O % % 7 V *.w.k.w.O.J y 5 , = % % % % % , 2 0 j ` 8.w.r.:.S y , O #                                                                             #   O 5 b  .a.g.<.^ l e 7 2 % + O # .   O O . O . . . O .   . O . O . O .   .       . O . . O . . . . O .   . O . . O . .   # O     . . O . O . .   . . O . O . . . . O .   . O . . O . .   # O     . . O . O . . O . . O . O   .   + .   . O . .   . . O .   + . . . O .   . O . ",
"                  .     .   # .                   .     .   # .           #           .         .   .                             .         . .     .       .             #           .                           .         . .     .         . . O . O O 2 p J -.a.N.w. .p 2 %       O % %                                                                     % 2 s ( w.j.d. .V e , O .     . O % %   O , e S -.g.g.8.U s =   .       O                                                                     % 5 j  .q.p.=.n 2 + O O O O O                                                                                                                                                                                                                                                                                                                   = 7 x  .r.p.O.V 2                                                                           . O O % 2 p ^ w.z.a.,.I p , O O     .   O       % 7 V @.r.d.0._ x 7 ; O                                                                                 = p U 8.g.a.O.V e , O     .     .   . .                         .     .   # .     .       .                     .         . .     .       .       .       .                     .         . .     .       .             #           .             .     .                     ",
"                                                                                        X                                                                                               X                           X       X     .   X X   #   X # X O O % 5 d ^ 8.v.g.,.J y %   X   O O                                           O   O           O         # = e Z ;.j.g.7./ s , - O   . O + % % O   O O 2 j ` w.g.s. .V 9 = % O + O   .                                                                   = 5 x @.p.p.O.x , O O O O O                                                                                                                                                                                                                                                                                                                 O O = 0 n X.p.p.=.V ,                                                                         O + # O , y C =.w.g.8./ d 2 O     .               % 7 j ( 1.p.q.O.S 0 = O #                                                                             % 0 S >.f.j.7.( d 5 %   .                                                                                                                                                                                                               X                                       ",
"      .                               .                                                                     .         .                                                                               .                                   X     X         + - w Z  .p.g.q. .x ,     O O                                             O       O #   O     O .   X = g Y <.f.g.-.A 9 O O O . O + + % O % O @   = e C -.a.f.9.( y 2 = % + % O                                                                     % 5 x  .p.q.@.x =   O O O     .                                                                                                                                                                                                                                                                                                               O = 7 n  .p.p.>.n =                       .                                                   . O O 2 l ] i.a.w.-.V 9 O   X . . . . . # O   O O , e C ;.p.f.r.] h , % X                                                                   O O O   O , g  .f.c.g.:.V y , . o X .                 X         .                                               .                                                               .                                                                                               .         ",
"O O O O O O   O   O   O O O   O O O O O O O   O   O   O O O   O O . O   @ O O   O O     O O O O   O   O O O . O O O O O   O   O O O     O O O O   O   O O O . O O . O   @ O O   O O   O   O O O O O O O O O   O     O     O       X   X   X O O X X O O o . O 1 e F =.g.a.+.V 5 O                                                   O   O     O     O #   O O O , l ' w.g.,.J y 2 O O O + & O     X X O   # & 3 y I q.h.s.X.d 5 = O O O . #                                                                   % 5 c O.p.s.@.l =     O                                                                                                                                                                                                                                                                                                           X           O % 2 l X.q.f.,.V =                                                                         . .   + 2 x o.q.a.>.Z e = O   o . + .         % % O % 2 y I q.c.g...x 5 %                                                                     O O     O 5 n >.c.c.e.I y 2 - + . . #   O O O O O O O O O O O O O O O   O   O   O O O   O   @ O O   O   O O O O O   O   O O O     O O O O   @ O O   O   O   @ O O   O   O O O O O   O   O O O     O O O O O O O O   O   O O . O   @ O O   O O     O O O O   @ O O   O   O O O O O   O   O ",
"              O   O           O               O   O           O     O       O         O           @                     X O           O           @                 O       O         O                       O   O O                 O @   O X O O @   . . O * 7 n X.g.a.-.C 5 O   X                                                     #   # O               , x X.w.a.O.m 7 =   . O & + .   X X X       . % 7 V <.h.p.;.l 5 % . .                                                                       O % 5 v O.p.p.O.d =               . O                                                                                                                                                                                                                                                                                                         .   O 2 d _ q.f.>.V ,                                                                           . . O 5 n #.a.a.X.M 7 %     . . + .         % % # O O 7 S 7.c.g.-.c 7 =                                                                     O O     O 5 n >.f.h.<.V 7 = - + . X   O     X                           O   O           O O         O             X O           O         O         O     O         O             X O           O           X       O         O       O         O         O         O             X O     ",
"                    X                               X                   X                                                                                               X                   X                                                           .   X % 5 x X.a.g.O.V 5 O   .                                                               O       X # 2 n O.a.w.$.x 5 O   # + . O         X       o   2 x @.s.h.;.l 2 .         .                                                                   - 2 x O.p.p.@.x ,   X   X       .   O                                                                                                                                                                                                                                                                                                           O 2 g ' q.p.>.S ,                                                                         . .     2 n ;.a.a.X.l 5 %   O + .       X X   O O .   . , n >.f.g.O.k 2 %                                                                             O 2 j @.h.s.@.x 2 + . . .       .   X X                               X                                                                                                                                                   X                                                       ",
"                                                                                            X                           X                   X                                                                   X                                       .     % 5 l X.q.g.-.V 5 O O                                                                       O   O 2 V ,.a.a...c 5       O #         X     .   . . , l @.s.h.;.l 2   #                                                                           % 2 x @.p.f.=.V 5 O   X   .     O O O O                                                                                                                                                                                                                                                                                           O O O   #   . % 5 l ] w.p.>.V 2 O                                                                       . .   # 2 V =.f.p.` j 2 + O % % .   .     X X   O   . . = x ;.f.p...a , O                                                                       .     O , l ;.s.s.@.l 2 O . . .   .                                                                             X                   X                                           X                   X                                               X                           X       ",
"  .               .               .               .                                   .           .                                   .           .                               .         .     .                 .   O     O   .   .   O O .     .   . . O = 7 x X.w.a.O.V 5 % O O                                                   O   O       O     O     5 S >.f.a...x 5 = O O O               X   . . + 2 x ;.f.h.>.n 2 O .         X                                                                 * 2 j X.q.f.q.I e ; O X     . O O O   X   .                                                 . X                                                                             . X                                             . X                                                                                         #         O O O O .     , e C O.p.r.@.n 5 O O                                                                       .   O 5 S =.f.a...l 5 % O % O         O         . . . = l @.s.p...s = O                                                                     O O O O % , j ;.h.s.;.n 5 % . . O O       .                 .               .               .           .                       .           .           .   .           .                       .           .       .                           .           .           .                 ",
"                                                                                                                                                                                                                        O           O             .         O = 7 l ] w.u.-.V 5 @   O                                               O                           2 S 7.f.a...j 7 = O                       . + + 2 x ;.h.c.=.x 5 +                                                                           X % 3 d ( q.f.p.` f 5 O X X X O & #     #                   X           .               X                   X           .                               .               X                   X           .               X                   X           .                                   X           .                               O X X   * 8 c _ 7.p.9.) j 2 %                                                                         .   O 5 S ,.f.a.' j 5 %   % O     . . O   X X   . . . = l ;.p.p.#.d , %                                                                       O O . & 2 j ;.c.h.<.n 5 - . . O O   O                                                                                                                                                                                                                                                   ",
"                                                                                                            O                                               O                                                                                           .   % , 7 j ' w.a.-.D 5 % O       X                                         #     O O   O   O         O 2 S >.p.w.` d 2 O             O +         . . . , x @.f.h.>.x 5 O .     X                                                                 .   % 2 a Y 9.f.f.-.C 0 % X   # & % +   X       X                                                                                               .                                                                                                                               .                                               X         O #     = u E t.g.f.>.L s 2 %                                                                       . .   % 0 S <.f.a.` g 2 O     O     .             . .   , V <.b.h.;.x 5 %   #                                                                       . O 2 j ;.h.h.<.n , . . .                                                                       O           O                                                   O           O                                                                                   O           O       ",
"    O   .   O       O   .   O       O   .   O       O   .   O     . O   O     .   O   O   .   O   O     O         . O   O     .   O   O   .   O   O     O         . O   O     .     O   O           O   .   O                                           .   O ; 0 l  .w.a.-.S 5 O                                                   O                     O     2 S >.p.q.` g 2 O X         . O O + O       . . , l @.f.c.=.l 2 %   #                                                                         % = 0 F =.p.f.y.U d 3 O O   % - % . X                                                                                                                                                                                                                                                                                           X         . % 7 x &.z.v.q. .M 0 = O O                                                                       . . = 7 S ,.f.p.] f 5 %     O   X   .       .     . . , n 9.c.f.@.x 5 %                                                                           . O 2 x >.c.c.;.x , .       X           O   .   O       O   .   O       O   .   O     O     O         . O         .   O   O   .   O   O     O     O   O     O         . O         .   O   O   .   O   O         O     . O   O     .   O   O   .   O   O     O         . O         . ",
"                                                                                                                                                                                                                                                              % 7 c o.w.a.=.V 7 %                                                         .       #             2 V >.f.w._ d 2 %     .     .   .         . . O , x =.f.f.=.j 2 O                                                                             #   2 j _ w.v.a.O.V i 2 % O % % % +                                                                                                                                                                                                                                                                                               .       X = d ^ >.g.g.,.K y , %                                                                               O 5 V <.p.p._ l 5 %     X         .               , n >.f.f.@.j 2 %                                                                             % 2 j =.c.f.=.x , . .                                                                                                                                                                                                                                                             ",
"                                                                                                                                                                                                                                                        X     % 7 M +.p.p.=.V 5 O                                                                 X             2 V =.f.g...f 2 % O     .       X   O       . O 2 n >.c.f.=.d 2 %         .                                                               #   #   % 0 V +.u.a.7.@.F l t 2 , ; = % % % O O % O O O % O % % O % % O % % O % % O % O % % O % % O % % O % % O % % O O % % O O % % O O % % O % % O % O % % O % % O % % O % % O % % O O % % O O % % O O % % O % % O % O % % O % % O % % O % % O % % O O % % O O % % O O % % O % % O % % O % % O % % O O % % O O % % O O % % O O % % = = = = 1 9 s J =.a.g.7.` v 7 % O                       # o                                                       2 V ;.f.p.X.x 5 %                     O O     . , n >.f.f.@.j 2 O                                                                             % 2 j >.c.f.=.x , O O                                                                                                                                                                                                                                                             ",
"                                                                                                                                                                                                                                                              % 7 n +.w.p.=.V 5 O   .                                                         X                 2 V >.f.a.` j 2 O O   O .           O     #   O 2 x =.f.c.=.l , %                                                                         # O X .   , e C +.8.g.j.9.@.L l e 2 2 3 2 2 2 2 2 2 2 2 2 2 2 2 2 2 2 2 2 2 2 2 2 2 2 2 2 2 2 2 2 2 2 2 2 2 2 2 2 2 2 2 2 2 2 2 2 2 5 2 2 2 2 2 2 2 2 2 2 2 2 2 2 2 2 2 2 2 2 2 2 2 2 2 2 2 2 2 2 2 5 2 2 2 2 2 2 2 2 2 2 2 2 2 2 2 2 2 2 2 2 2 2 2 2 2 2 2 2 2 2 2 5 2 2 2 2 2 2 2 2 2 2 2 2 2 2 2 2 2 2 5 2 2 2 2 5 2 2 2 2 2 2 2 5 7 0 e j I  .7.f.g.8.( x 7 = O                                                                                 . 2 V >.p.s.X.l 7 %               . .           . , n >.f.f.O.j 2 % O   .                                                                       % , j 1.c.f.=.x 2   O   .                                                                                                                                                                                                                                                         ",
"                                                                                                                                                                                                                                                              % 7 m #.a.f.=.V 5 O                                                                             # 2 V =.f.a...g 2 %       .   .               . O 2 x ,.c.f.=.d 2 O     .   .                                                                   .     O , r V ..w.v.v.f.<.' A v g j k v c n x c n x c n x x c x c x x c x x c x x x x c x x c x x x c x c x x c x x c n x x c x c x x c x x c x x x x v n x c x n x c x c x x c x x c n x x c x c x x c x x c x x x x c x x c x x x c x c x x c x x c n x x c x c x x c x x c x x x x x x x x x n x x c x x c x c x x c x x c x x x V J  .q.v.c.g.7.' n 9 ; O   O                                                                           O   # 2 V =.p.p.X.x 5 %     X                       X , n >.f.f.@.j 2 O                                                                             % 2 j 1.f.f.=.x , O . .                                                                                                                                                                                                                                                           ",
"                                                                                                                                                                                                                                                              % 7 M +.p.a.=.V 5 O   #   X                                             .     #     X       #     2 V >.f.a.` d 5 %     O .             X     . O 2 x >.f.f.=.d , O .       #                                                                     O O O * 1 0 j ` 8.v.M.g.a.w.0.8.8.8.7.7.7.8.8.w.7.7.7.8.w.8.7.7.w.7.7.8.q.8.q.8.w.7.7.8.q.8.q.8.8.7.8.q.w.8.8.q.7.w.7.8.w.8.7.7.w.7.7.8.q.8.q.8.7.8.q.8.7.8.7.8.8.7.8.q.w.8.8.q.7.w.7.8.w.8.7.7.w.7.7.8.q.8.q.8.w.7.7.8.q.8.q.8.8.7.8.q.w.8.8.q.7.w.7.8.w.8.7.7.w.7.7.8.q.8.q.8.w.7.8.q.7.8.8.w.7.8.q.8.w.8.7.7.w.7.7.8.q.8.7.,.=.=.<.w.v.M.v.q.^ x 0 % X                             #                                                       O 2 V =.f.p.X.l 5 %                 .   O         , n =.f.f.+.j 2 %                                                                             % 2 d >.c.f.=.x , O #                                                                                                                                                                                                                                                             ",
"                                                                                                                                                                                                                                                              % 7 m +.w.f.=.V 5 O                                                                 .             , V >.f.a...d 5 % O       .     .           . O 2 n ,.f.c.=.l , % .       X                                                 #               #   O & O O @ % 7 j / -.w.g.g.v.M.n.v.c.c.c.c.c.c.c.c.c.c.c.c.c.c.c.c.c.c.c.c.c.c.c.c.c.c.c.c.c.c.c.m.c.c.c.c.c.c.c.c.c.c.c.c.c.c.c.c.c.c.c.c.c.c.c.c.c.c.c.c.m.c.c.m.c.c.c.c.c.c.c.c.c.c.c.c.c.c.c.c.c.c.c.c.c.c.c.c.c.c.c.c.c.c.c.m.c.c.c.c.c.c.c.c.c.c.c.c.c.c.c.c.c.c.c.c.c.c.c.c.c.c.c.c.c.c.c.c.c.c.c.c.c.m.c.c.c.c.c.c.c.c.c.g.a.p.d.w.8.,._ x 7 ;       .   .                                                                             O 2 V =.p.p.X.l 7 % .                             , n >.f.f.+.j , %                                                                       O     % 2 j >.c.c.=.x 2   O                                                                                                                                                                                                                                                             ",
"                                                                                                                                                                                                                                                              % 7 n +.p.p.=.V 7 O                                                     X                         2 V >.f.a. .f 2 % O       .         O     .   O 2 x >.c.f.=.d 2 O   .                                                                         # #   . .   O % 2 e x J ..,.7.w.q.q.q.p.f.f.p.p.p.p.f.p.p.p.p.p.p.p.p.p.p.p.p.p.p.p.p.p.p.p.p.p.p.p.p.p.p.p.p.p.p.p.p.p.p.p.p.p.p.p.p.p.p.p.p.p.p.p.p.p.p.p.p.p.p.p.p.p.p.p.p.p.p.p.p.p.p.p.p.p.p.p.p.p.p.p.p.p.p.p.p.p.p.p.p.p.p.p.p.p.p.p.p.p.p.p.p.p.p.p.p.p.p.p.p.p.p.p.p.p.p.p.p.p.p.p.p.p.p.p.p.p.p.p.p.p.p.p.p.p.p.p.p.p.p.p.q.1.X.( V n d 5 ; O                                   .                                                     . 2 V >.p.s.' l 5 %                     O         , n >.f.f.@.k 2 %                                                                           O % 2 d ,.c.f.=.x , O O .                                                                                                                                                                                                                                                           ",
"                                                                                                                                                                                                                                                        X     % 7 n +.w.p.=.V 5 O   .                                                                           2 V =.f.a.` d 2 %   .   .   .               . O , n >.f.f.=.j , %                                                       #                                   X   * 3 i c K J U I Y I ( ^ ( ^ _ _ ^ ^ _ ( _ _ _ _ _ _ ^ _ _ _ _ ( _ _ ^ _ _ _ _ ( _ _ ^ _ _ ( _ _ _ ^ _ ( _ _ _ ' _ _ ^ _ _ _ _ ( _ _ _ ( _ _ _ ( _ _ ^ _ _ ( _ _ _ ^ _ ( _ _ _ ' _ _ ^ _ _ _ _ ( _ _ ^ _ _ _ _ ( _ _ ^ _ _ ( _ _ _ ^ _ ( _ _ _ ' _ _ ^ _ _ _ _ ( ^ _ ^ _ _ ( _ _ _ ( _ _ ^ _ _ ( _ _ ^ _ _ _ _ _ _ ` T Z d e 5 , % X O O O O O   .                                                                               2 V =.f.p. .x 9 %         X       . .         X , n >.f.f.O.j 2 %                     #                                                       % 2 j =.c.f.=.x ,   . .                                                                                                                                                                                                                                                           ",
"                                                                                                                                                                                                                                                              % 7 m +.p.p.=.V 5 O                                                                       #       2 V =.g.g...d 5 %       . O     .           . O 2 x >.c.f.=.d , %                                                                                                 O = 2 5 5 5 5 5 5 5 5 5 5 5 5 5 5 5 5 5 5 5 5 5 5 5 5 5 5 5 5 5 5 5 5 5 5 5 5 5 5 5 5 5 5 5 5 5 5 5 5 5 5 5 5 5 5 5 5 5 5 5 5 5 5 5 5 5 5 5 5 5 5 5 5 5 5 5 5 5 5 5 5 5 5 5 5 5 5 5 5 5 5 5 5 5 5 5 5 5 5 5 5 5 5 5 5 5 5 5 5 5 5 5 5 5 5 5 5 5 5 5 5 5 5 5 5 5 5 5 5 5 5 5 5 5 5 5 5 5 5 5 5 5 5 5 5 5 5 7 0 e e 0 5 2 % O X   O O O % % % % O                                                                             # 2 V =.h.s.X.l 7 %                   .         X 1 n >.f.f.@.j 2 %                                                                           O % 2 j >.c.f.=.x , O . .                                                                                                                                                                                                                                                           ",
"                                                                                                                                                                                                                                                              % 7 M +.w.g.=.V 5 O   O                                                 .                         , V >.f.a...d 2 % O   #     .   X         # O O 2 n =.f.c.;.l 2 %   .       .                                                                                     .       O   O                         O     O   .                       O               O       O     O         .                       O               O       O     O       O                         O               O       O     O                 O         O   O           O         O       O     # % % = = % O   X     O % + O O % O O                                                                               2 V =.f.p.' l 5 % .               . .           , n >.f.f.O.j , %                                                                             % 2 j >.f.c.=.x ,   O   .                                                                                                                                                                                                                                                         ",
"                                                                                                                                                                                                                                                              % 7 M +.p.p.=.V 5 O                                                     X #                       2 V >.f.a.` f 2 %         .               . O   2 x >.f.f.=.g 2 %       #                                                                         O O O         .     .   O O O O   O . O   O   O     # . .     O .   O O # . O O . . O .     . . . O .   . O . .     # . .   O O .   O O # . O O . . O .     . . . O .   . O . .     # . .   O . .   O O #   O O . . O .     . . . O .   . O . .     # . .   O O .   O .     . .   .   O .   . O . #   . O . O O . .   .         #   O   . .   . O O O   X                                                                                   # 2 V =.p.p.X.x 5 %                     O         , n >.f.f.O.f 2 %                                                                             % 2 d >.c.f.=.x 2 O     .                                                                                                                                                                                                                                                         ",
"                                                                                                                                                                                                                                                              % 7 m +.w.p.=.V 5 O   .                                                   X           .           2 V =.f.g.` j 2 %   O   .   .       O       . O 2 n >.c.f.=.d 2 O .                                                                             O % % % O     .   . .   . O + + O .   O . . O .   .   O   O O . O   . O   . O   . O O   . O # O O     O O . O   O   . O   O O . O   . O   . O   . O O   . O # O O     O O . O   O   . O   O O .   O . O   . . O . O O   . O # O O     O O . O   O   . O   O O . . O . O . O # O O O . O   . O O   . O     O .   O . O   . O         . O           # O       X                                                                                 O 2 V =.f.s.X.x 5 %                   .         . , n >.f.f.+.j 2 %                                                                           O % 2 l -.c.f.=.x , O #                                                                                                                                                                                                                                                             ",
"                                                                                                                                                                                                                                                              % 7 m +.p.p.=.S 5 O                                                                               2 V =.f.a.` d 2 %     O   .     #           . O , x >.c.c.=.d , %       .                                                                       O % O O O O       . .   + + O . O     O O O     O   O   O   O     O   O O   O     O   O O   O   O   O   O O   O O   O   O   O     O   O O   O     O   O O   O   O   O   O O   O O   O   O   O   O O O   O   O     O   O O   O   O   O   O O   O O   O   O   O     O   O O   O     O O   O   O   O     O   O   O   O   O O O   . O + O + . .               X X                                                                                 O 2 V >.s.p.X.l 5 % .               . . O       X , n >.f.f.O.j 2 %                                                                             % 2 j >.c.g.=.x , O . .                                                                                                                                                                                                                                                           ",
"                                                                                                                                                                                                                                                          X   % 7 M +.w.a.=.V 5 O   #                                                 #   .           #         2 V >.f.a...j 2 % O     .                   O O 2 n ,.f.f.;.d 2 %                                                                               O                 X   O O X       . @     O @ O     X O   O X   O   O     .   O O   O       X O   @         O       X O   O X   O   O     .   O O   O       X O   @         O       X O   O X       O       X O O   O       X O   @         O       X O   O X   O   O         O O         O   X   O   #       # O   O       O O O O + . .   O % O   O X   X                                                                                   . 2 V =.p.p.X.x 5 %                               , n >.f.f.O.j , O                                                                             % 2 d =.v.f.=.x ,   O                                                                                                                                                                                                                                                             ",
"                                                                                                                                                                                                                                                              % 7 n +.p.p.=.V 5 O                                                                             # 2 V =.f.a...d 5 % O                         O   2 n =.f.f.=.l , %       .                                                                         . .         O O O @ O             .   .       .           .                           .             .         .           .                           .             .         .           .           .     .         .             .         .             .         .                                                 .       .   X X   O % % O O     O                                                                           X       O 2 V =.f.p.X.l 7 %     X             .           , n >.f.f.O.j 2 O #                                                                         O % 2 d >.c.f.=.x , O O . .                                                                                                                                                                                                                                                         ",
"                                                                                                                                                                                                                                                        X     % 7 m +.a.p.=.S 5 O   .                                                   X         X             2 V >.g.a...g 2 %   .   . .   .     .     . . O , c >.c.c.=.d , O   .     X                                                                     .               O O O     .     .     .             .     .     .     . .       .     .     .     .     .     .     .     .     .     . .       .     .     .     .     .     .     .     .     .     .         .     .     .     .     .     .     .     .     .     .     .         . .   .         .   .     .     .               X   O O % % O O @ O O O O                                                                                 2 V >.p.e.X.x 5 %                 .   . O       , n =.f.f.@.j 2 % O                                                                           % 2 l >.c.c.=.x ,   #                                                                                                                                                                                                                                                             ",
"                                                                                                                                                                                                                                                              % 7 c +.p.p.=.V 5 O   .                                               #                   X       , V >.f.a.` d 2 % O   . O       .           . O 2 n >.f.f.=.d 2 %                                                                                                 @       #                                                                                                                                                                                                                                                     .                                                             O     O   O                                                                                     # 2 V >.p.s.X.l 5 %           X       .         X , n >.f.f.+.j 2 %                                                                             % 2 d -.c.c.=.x , O .                                                                                                                                                                                                                                                             ",
"                                                                                                                                                                                                                                                              % 7 M +.w.a.=.V 5 O                                                                               2 V =.f.g...d 2 %       .   .   X         O   # 2 x -.c.c.=.d 2 O   .                                                                                                     X                                                                                                                                                                                                               .                                                                                                     #                                                                                               2 V =.f.p.X.x 5 %                 .   O       . , n >.f.f.+.j , O                                                                             % 2 j >.c.f.=.x ,   O   .                                                                                                                                                                                                                                                         ",
"                                                                                                                                                                                                                                                              % 7 n +.p.p.>.S 5 O   .                                                 X         #         #     2 V >.f.a.` j 2 % O   O .           O       O O 2 n >.f.f.=.d 2 %                                                                                                                                                                                           .   .                                                                                                                         X                                         .                                                             X                                                                                           . 2 V =.p.p.X.l 7 % #                             , n >.f.f.@.k 2 %                                                                       O     % 2 j >.c.f.=.x , O   .                                                                                                                                                                                                                                                           ",
"                                                                                                                                                                                                                                                        X     % 7 n +.w.p.=.V 5 %                                                     .                         2 V =.f.a...g 2 %             .         .   . O , c >.c.c.=.d 1 % .                                                                                                                                                                                                                                                                                         .     X #                 #   .                 .                                                                                     .                                                                                           O 2 V =.h.s.X.j 5 %                 .   O       X , n >.f.f.O.j 2 % O                                                                           % 2 d -.c.c.=.x , O O .                                                                                                                                                                                                                                                           ",
"                                                                                                                                                                                                                                                              % 7 m +.p.p.=.V 5 O .   .                                                 X                   #   2 V >.f.a.` d 5 %     O .             X     . O 2 n =.f.c.=.d 2 O                                                                                                                                                                                                                                                                                               X       .           #                                                                                       #           X #                                                                                                   O 2 V >.p.p.X.l 7 %                     .         = n >.f.f.@.j 2 %     X                                                                       % 2 d >.c.f.=.x 2   O .   O                                                                                                                                                                                                                                                       ",
"                                                                                                                                                                                                                                                              % 7 M +.w.g.=.V 5 O                                                                               , V >.f.a...d 5 % O     . .     .           . O 2 x ,.c.f.=.d 2 %                                                                         .                                                                                                                                                                                                                                               .                                                                                                                                                                                                   # 2 V =.f.p.X.j 5 %                 . .           , n >.f.f.O.j , %                                                                       O   O % 2 l -.c.f.=.x ,   #   .                                                                                                                                                                                                                                                         ",
"                                                                                                                                                                                                                                                              % 7 M +.p.p.=.V 5 O       X                                                                       2 V >.f.a. .f 2 %         .         O     .   O 2 n >.f.f.=.d , % .                                                                                                                                                                                                                                                                                                               #                                                                                                                                                                                                             2 V ;.f.p.X.x 5 % .                   O         , n >.f.f.O.j 2 %                                                                             % , j >.c.f.>.x , O                                                                                                                                                                                                                                                               ",
"                                                                                                                                                                                                                                                              % 7 m +.w.p.=.V 5 O                                                     .             .           2 V =.f.a.` d 2 % O .   .   .               . O 2 x >.f.c.=.d 2 O   .                                                                                                                                                                                                                                                                                                               X                                                                                       #     .                                                                                                         . O 2 V =.p.p.X.l 7 %                               , n >.f.f.O.f 2 O                                                                             % 2 j =.v.f.=.x 2 O . .                                                                                                                                                                                                                                                           ",
"                                                                                                                                                                                                                                                          X   % 7 c +.a.p.=.V 5 O   .                                                 #             .           2 V =.g.g...d 5 %       . O     .           . O 2 c >.f.c.=.d 2 %                                                                                                                                                                                                                                                                                                                   .       #                                     X                                                                                                   #                                                       # 2 V >.h.p.X.l 5 %               .     .         , n >.f.f.O.j 2 %                                                                             % , j >.c.g.=.x , O . .                                                                                                                                                                                                                                                           ",
"                                                                                                                                                                                                                                                              % 7 M +.p.p.>.V 5 %                                                                         X #   , V >.f.a...d 2 % O   #     .   X         # O O 2 n >.f.f.=.d 1 %                                                                                                                                                                                                                                                                                                                                                                                                                                                                                                                               2 V =.p.s.X.x 5 %     X           .   O         , n =.f.f.O.f 2 %                                                                             % 2 j =.c.f.=.x , O O                                                                                                                                                                                                                                                             ",
"                                                                                                                                                                                                                                                              % 7 n +.w.p.>.V 5 O   .                                                                           2 V >.f.a.` f 2 %         .               . O   2 x =.c.c.;.d 2 %                                                                                                                                                                                                                                                                                                               X     # #                                       .   X                                         X X                                                                                                             # 2 V =.f.p.X.l 7 % .                             , n >.f.f.O.j 2 %                                                                           O % 2 j =.n.c.=.x ,   O   .                                                                                                                                                                                                                                                         ",
"                                                                                                                                                                                                                                                        X     % 7 m #.p.a.=.V 5 O                                                                               2 V =.f.g.` j 2 %   O   .   .       O       . O 2 n >.c.f.;.d 2 O     .                                                                                                                                                                                                                                                                                                     # # #       X                                             # #                                       #                                                       #                                                       2 V =.p.p.X.l 5 %                 . .         X , n >.f.f.@.j 2 %                     #                                                       % , j >.c.f.=.x ,   # .                                                                                                                                                                                                                                                           ",
"                                                                                                                                                                                                                                                              % 7 n +.a.a.=.S 5 O       X                                                                       2 V =.f.a.` d 2 %     O   .     #           . O , x >.c.c.=.d , %     .                                                                                                                                                                                                                                                                                                                                                           .                                                                                                                                                           O 2 V >.p.p.X.l 7 %                 .   O         , n =.f.f.+.j 2 %                                                                         O   % 2 j >.c.f.=.x 2 O .                                                                                                                                                                                                                                                             ",
"                                                                                                                                                                                                                                                              % 7 M +.w.p.=.V 5 O   .                                                               #           2 V >.f.a...j 2 % O     .                   O O 2 n ,.f.f.=.d 2 O                                                   #                                                                                                                                                     .                                                                                                                                                                                                   .                                                                                                             . O 2 V =.f.p.X.x 5 %                       O       , n >.f.f.+.j , O                                                                             % , j =.c.f.=.x ,   O   .                                                                                                                                                                                                                                                         ",
"                                                                                                                                                                                                                                                              % 7 m +.p.p.>.V 5 O   .                                                             X     .       2 V =.f.a...d 5 % O                         O   2 n =.f.c.;.d 1 %                                                                                                                                                                                                                                                                                                                                                                                                                                                                     # #                                                       2 V =.s.p.X.x 5 % #                   O         , n >.f.f.@.j 2 O #                                                                           % 2 j ,.c.c.=.x ,   O .                                                                                                                                                                                                                                                           ",
"                                                                                                                                                                                                                                                              % 7 n +.w.p.=.V 9 O                                                                               2 V >.g.a...g 2 %   .   . .   .     .     . . O , c >.c.f.=.l 2 %     .     . .                                                                                                                                                                                                                                                                                                       .                                                                                                                                                                                                   X   O 2 V =.f.q.X.l 5 %                 . .         X , n >.f.f.O.j 2 % O                 .                                                       O % , j =.c.f.=.x , O O .                                                                                                                                                                                                                                                           ",
"                                                                                                                                                                                                                                                              % 7 M +.a.p.=.V 5 O       X                                                                       2 V >.f.a.` j 2 % O     . .         X     . #   2 n >.f.f.=.d , %                                                                                                                 O                                                                                                   O                                                                                               O                                             O                                                                                                                                                         # 2 V =.f.s.X.x 5 %                 .   .         , n >.f.f.@.f 2 %                                                                             % 2 j >.c.j.=.x , O .                                                                                                                                                                                                                                                             ",
"                                                                                                                                                                                                                                                              % 7 m +.w.p.=.S 5 O   .                                                                         X , V >.f.a._ d 2 %       .                 O O O , n -.c.c.=.l , O     .                                                                                                                                                                                                                                                           O                                                                                                                                                                                                                                                             2 V >.p.p.X.l 7 %                     O         , n >.f.f.O.j 2 O                                                                             % , j =.c.f.=.x ,   O   .                                                                                                                                                                                                                                                         ",
"                                                                                                                                                                                                                                                              % 7 n +.w.g.=.V 5 O                                                                     .         2 V =.g.a...f 5 %     O .     .           . . O , n -.c.f.=.d 2 %       . X                                                                                                                                                                                                       O                                                                                               O                                                                                                                                                                                                           . 2 V =.f.s.X.l 5 % .               .             , n >.f.f. .j 2 %                                                                           O % 2 j >.j.f.=.x ,   O .                                                                                                                                                                                                                                                           ",
"                                                                                                                                                                                                                                                              % 7 n +.p.p.=.V 5 O   .                                                                     #     2 V >.f.a...d 2 % O   .   .       .         O   2 n >.f.f.=.l , %   .                                                                                                                                                                                                                                                                                                                                                                                                                                                                                                                         O 2 V =.s.q.X.x 5 %                     .       X , n >.f.f.O.j 2 % O                                                                           % , j >.c.c.=.x , O O .                                                                                                                                                                                                                                                           ",
"                                                                                                                                                                                                                                                              % 7 M +.w.p.>.V 5 O   .                                                           #               , V >.f.a...j 2 %     #                     O O 2 n =.c.f.=.d , %   .         .                                                                                     O   O O   O               X               X               X                                                                                                                                                                                                                       X X                                                                                                                                     O 2 V =.f.p.X.x 5 %     X                         , n =.f.f.+.j , %                                                                         O   % 2 d >.c.f.=.x , O .   .                                                                                                                                                                                                                                                         ",
"                                                                                                                                                                                                                                                        X     % 7 x +.a.p.=.V 5 %                                                                               2 V >.f.a...d 2 % O O   .       .   O     . . . 2 x >.f.c.;.l 2 %         #   .                                                                             O     O O     .   O                     X               X               X                                               X                                               X                                               X                                                       X                             X                                                                                                                   # 2 V >.p.p.X.l 7 %                   . O         , n >.f.f.+.j 2 %                                                                             % 2 j >.c.c.=.x 2 O   .                                                                                                                                                                                                                                                           ",
"                                                                                                                                                                                                                                                              % 7 m #.a.p.=.V 5 O   .                                                                           2 V >.f.a.` f 2 % O     .   .               O O , n >.f.f.=.l , O                                                                                                                     O     O   O               O                           O   O               O               O               O           O   O                           O   O               O               O               O           O   O                     O             O               O           .                                                                                                               2 V ;.f.p.X.l 5 % .               .   .         , n >.f.f.@.k 2 %                                                                             % 2 d ,.c.f.=.x , O #   .                                                                                                                                                                                                                                                         ",
"                                                                                                                                                                                                                                                              % 7 M +.p.a.=.S 5 O                                                                           #   2 V =.g.a. .l 2 %         .     X   .       O   2 n >.c.f.=.d , %                                                                                                           .         O O   O       O O O O O O     O O O O O O O O O O O O   O     O O O O O O     O O O O O O     O O O O O O     O O O O   O     O O O O O O O O O O O O   O     O O O O O O     O O O O O O     O O O O O O     O O O O   O     O O O O O O O O   O O O O O O   O   O O O O O   O   O O O O O + O .                     O O O                                                                           . O 2 V =.p.p.X.x 5 %                     O       X , n >.f.f.O.j 2 O                                                                           O % 2 j =.c.f.=.x ,   O                                                                                                                                                                                                                                                             ",
"                                                                                                                                                                                                                                                              % 7 M +.p.a.=.V 5 O . .                                                                           2 V >.f.a.` j 2 % O   .   .               . O . 2 n >.f.f.=.d 2 %     .                                                                                       O         O           O O . O   O O   . O   O   . .   O   O . . .   .   O . O .   .   O   O . . . O   .   O   O . .   O   O . . . O   .   O   O . .   O   O . . .   O .   O . . O .   O   O . . . O   .   O   O . .   O   O . . . O   .   O   O . .   O   O . . .     O #     O   O . O .     O   . O . . O   O O % % % O O O   O         O                           #                                                         # 2 V =.f.s.X.x 5 %                   .         X , n >.f.f.@.j 2 %                 .                                                           % 2 d >.c.f.=.x , O . .                                                                                                                                                                                                                                                           ",
"                                                                                                                                                                                                                                                              % 7 m +.w.p.=.V 5 O                                                                   X           , V >.f.a._ d 2 % O         . .             O O 2 x ,.c.c.=.d 2 +                                                                                         O O   O O O   O O O O   O .   .   .     . .   .             .             .       .         .           .       . .         .           .       . .         .             .                 .           .       . .         .           .       . .         .         .       .     .     .   .     .         . .       O   O   O O O O   O   O                             #                                                         2 V >.p.p.X.l 7 %     X   X       . .           , n >.f.f.O.j , %                                                                         O O % 2 j -.c.c.=.x , O O                                                                                                                                                                                                                                                             ",
"                                                                                                                                                                                                                                                              % 7 n +.w.p.=.V 5 O                                                       X                       2 V =.g.a...f 5 O O   O .       .   O X   . . O 2 c =.f.f.=.d 2 %                                                                                       O             O O O . O O                                                                                                                                                                                                                                                                                                           # O O O O O                               # .                                                     # 2 V =.h.p.X.l 5 %                     O       . , n >.f.f.O.f 2 %                     #                                                       % , j >.c.f.=.x ,   O   .                                                                                                                                                                                                                                                         ",
"                                                                                                                                                                                                                                                              % 7 M +.p.g.=.V 5 O       X                                               .           .     #   X 2 V >.f.a...d 2 %       . .                   O 2 n =.c.c.=.d 1 %                                                                                                     X       O @                           .   X   .         .       . .       . X           .       . .       X   .         .       . .       . X           .     .   .       X   .         .       . .       . X           .       . .       X   .         . .         .     .         .         X             X X X X   # O O O O     O                         #                                                           2 V =.p.s.' x 5 % .                 .         X , n >.f.f.+.j 2 %                                                                             % 2 l -.c.f.>.x ,   # .                                                                                                                                                                                                                                                           ",
"                                                                                                                                                                                                                                                              % 7 x +.w.p.=.V 5 O   O                                                     .     #               , V >.f.g.` j 2 % O       .                 O . 2 x -.c.f.=.d 2 %     .                                                                               .       X   X X   X     X O X   X X                                                                                                                                                                                                                                                                             X       X   X X           X   #     . O                       .                                                         O 2 V >.f.p.X.x 5 %                 . . O         , n >.f.f. .j 2 %                                                                             % 2 j >.c.g.=.x , O .                                                                                                                                                                                                                                                             ",
"                                                                                                                                                                                                                                                        X     % 7 m +.a.p.>.V 5 O   .   X                                                                       2 V >.f.a...d 2 %       . .               . . O 2 n >.c.f.=.d 2 O                                                                                               X     O % % = , , , 2 , , = , , ; = , = 1 = = 1 = , , = ; , = , 1 = , = 1 = , ; = , , = ; , = , 1 = , = ; , , ; = , , = ; = , , 1 = , = ; , , ; = , , = ; , = , 1 = , = ; , , ; = , , = ; = , , 1 = , = ; , , ; = , , = ; , = , 1 = , = ; , , ; = , , = ; = , , , ; , , , ; , , , ; , , , ; , , , = = , , = , , , , , = % @ @                                                                                               . O 2 V =.p.p.X.l 7 %                               , n >.f.f.O.j , O                   X                                                         % 2 d 1.f.f.=.x ,   O   .                                                                                                                                                                                                                                                         ",
"                                                                                                                                                                                                                                                              % 7 M #.a.p.=.V 5 O                                                                               2 V =.f.a.` l 2 %   O           X   #     #   O 2 n >.f.c.=.d , % .                                                                                           O % , 2 0 u a d x c x x j j j j j j x j x x j j x x j j x x j x j j j j x x j x j x j j x x j x j j j j x x j x j x j j x x j j j j j j x x j x j x j j x x j x j j j j x x j x j x j j x x j j j j j j x x j x j x j j x x j x j j j j x x j x j x j j x x j j j j j x j x j x j j j x j x j x j x j j x j x x x x x f y 0 5 ; O X X X       O O O                                                                               2 V ;.f.p.X.l 5 % #                   .         , n =.f.f.O.j 2 O #                                                                           % 2 d >.c.c.=.x , O O .                                                                                                                                                                                                                                                           ",
"                                                                                                                                                                                                                                                              % 7 m  .p.a.=.V 7 O .                                                                         #   2 V =.g.g._ d 2 %     # O . .               O   , x =.f.f.=.j 2 O                                                                                     . . O % 1 5 e j C W { $.+.+.+.+.+.+.+.+...+.+.+.+...+.+.....+.+...+.+.o. .+.+.+.+...+...+...+.+...+.+.+...+.+.+.+...+...+...+.+...+.+.+. .+.+.+.+...+...+...+.+...+.+.+...+.+.+.+...+...+...+.+...+.+.+. .+.+.+.+...+...+...+.+...+.+.+...+.+.+.+...+...+...+.+...+.+.+. .+.+...+...+...+.+.+...+...+...+...+.+...+...+.+.-.o.) K m d 0 2 %   X .   O   O O                                                                         X   O 2 V =.p.p.X.x 5 %                 . .           , n >.f.f.O.j 2 % O                 .                                                       O % 2 l >.c.f.=.j , . O                                                                                                                                                                                                                                                             ",
"                                                                                                                                                                                                                                                              % 7 x ..a.q.=.S 5 O                                                                 #             2 V >.f.p...f 2 O X       .                 . O , x @.f.f.=.j 2 O   #                                                                             # O . + % , 9 l Y  .=.8.w.a.g.g.g.f.a.f.a.g.f.p.g.p.g.g.g.g.g.f.g.p.g.a.g.f.g.g.g.p.g.a.g.f.g.d.f.a.g.g.j.p.g.g.f.g.g.a.h.g.g.f.g.p.g.a.g.f.g.g.g.p.g.a.g.f.g.d.f.a.g.g.j.p.g.g.f.g.g.a.h.g.g.f.g.p.g.a.g.f.g.g.g.p.g.a.g.f.g.d.f.a.g.g.j.p.g.g.f.g.g.a.h.g.g.f.g.p.g.a.g.f.g.a.g.f.g.f.g.p.f.g.a.p.g.f.g.g.a.g.g.f.g.a.f.g.f.f.s.e.=.;.` K c 8 %       O X                         #                                                       O 2 V =.h.p.X.n 5 % .                       O     , x =.p.p.O.j 5 %                 .                                                           % 2 d >.f.f.@.l ,       .                                                                                                                                                                                                                                                         ",
"                                                                                                                                                                                                                                                          O   O 5 x ` r.p.=.V 5 O       X                                                         X             , V =.f.p._ d 2 O X     . O O         O O   X   , x @.p.f.=.x 5 O       .                                                                         O + + - 5 e x ! ;.s.s.j.g.g.g.f.p.f.p.p.f.f.p.f.f.f.p.f.p.p.f.p.g.s.f.f.f.p.f.p.f.p.f.f.f.p.f.p.f.f.f.p.f.p.f.p.f.p.f.f.a.p.f.p.g.p.h.f.f.p.f.p.f.p.f.f.f.p.f.p.f.f.f.p.f.p.f.p.f.p.f.f.a.p.f.p.g.p.h.f.f.p.f.p.f.p.f.f.f.p.f.p.f.f.f.p.f.p.f.p.f.p.f.f.a.p.f.p.g.p.h.f.f.p.f.h.f.p.f.p.a.f.f.s.f.f.f.p.f.p.f.f.p.f.p.f.f.s.h.h.s.r.p.a.w.,.` c 0 1 % O                                                                                 X   . 5 V =.f.s.@.n 7 %     X                     O   , n =.p.p.O.x 5 %                                                                             O 2 j >.c.f.@.j ,   O   O O                                                                                                                                                                                                                                                       ",
"                                                                                                                                                                                                                                                        O     O 5 c o.w.p.=.S 7 %                                                             .                 2 V =.p.a...j 2 O       O O O .       O   . X   , x O.f.c.=.x 5 O .                                                                                   + 3 a K  .9.p.p.q.8.-.-.:.1.:.#.+.#.O.#.@.O. .@.#.#.@.#.O.#.O.#.#. .#.#.@.#.O.+.#. .#.#.@.#.@.#. .#.O.#.#. .#.#.#.#.@.#.O.#.O.#.#. .#.#.@.#.O.+.#. .#.#.@.#.@.#. .#.O.#.#. .#.#.#.#.@.#.O.#.O.#.#. .#.#.@.#.O.+.#. .#.#.@.#.@.#. .#.O.#.#. .#.#.#.#.@.#.O.#.O.#.#. .#.#.@.#.#. .#.#.#.#.#.#.#. .#.#.#.@.#.#. .#.#. .#.#. .@.@.>.7.g.v.v.a.-.K p 2 %                           #                                                     X   O 5 S =.f.s.X.x 7 %     X   O     .       O     O 2 n =.f.f.@.x 5 %                                                                             % 2 j >.f.p.=.l ,     #                                                                                                                                                                                                                                                           ",
"                                                                                                                                                                                                                                                              % 7 n  .w.p.=.S 7 % .   .                                                   X                   # 2 V =.f.a...l 5 %       O + O O .     O O       , n =.f.f.>.x 5 %                                                                                 X O 2 a D +.a.c.s.9.X.I C x n n n x x x j j j j j j j j x j j j j x j x j j x x j j x x j j x j x j x x j x j x j x j j x j j x j j x x j j x x j j x x j j x j x j x x j j x x j x j j x j j x j j x x j j x x j j x x j j x j x j x x j j x x j x j j x j j x j j x x j j x j j x j j x j j j x x j x j j x x x j j x j x x x n S ^ -.w.g.g.d.>.J y 2 %   . .                       #                                                     O 5 S >.p.p.X.n 7 %             O         O     O , n =.p.f.;.x 5 ; O                   #                                                   . O % 2 j >.f.f.=.x , O O   O O                                                                                                                                                                                                                                                       ",
"                                                                                                                                                                                                                                                        O     % 7 n +.a.p.=.S 7 %   O .                                                           X       #     2 V >.p.p. .j 2 % X     O + O O O O   O .     O 2 x ;.f.f.>.x 5 % .   O                                                                         X % 7 f E 2.k.g.a.X.L x i 7 5 2 2 , , , = , , = , , , , , 1 , , , , 1 , , , , , = , 1 , , , , , = 1 , , = , , = , , = , , 1 , , = , 1 , , , , , = , 1 , , , , , = 1 , , = , , = , , = , , 1 , , = , 1 , , , , , = , 1 , , , , , = 1 , , = , , = , , = , , 1 , , = , 1 , , , , , , , , = , , , , , , = , , , = , , = 1 , , , 1 , = 2 7 t j A  .9.s.p.;.J p 2 O O .                       #                                                     + 5 S ;.f.s.X.n 7 =         O   O .               , n =.p.f.O.x 5 %                                                                         O O % 2 j >.c.f.=.x ,   O   O                                                                                                                                                                                                                                                         ",
"                                                                                                                                                                                                                                                              % 7 n  .d.p.>.S 7 % O                                                               .             2 n =.f.g...j 5 %     # + % O + O   O O +   . O 2 n ;.f.f.>.x 5 %       O                                                                       @ ; y D 2.k.z.a.O.n i 7 = % @ @ @ X   O     X         X                     X               X               X         X                     X               X               X         X                     X               X               X         X                     X       X         X     X         X                 . O O % , w V X.e.f.q.#.C 0 = + . .                                                                       O O % 7 S >.p.s.X.n 7 % .       O O O .             X , n =.f.p.@.x 5 %                                                                       O   . % 2 j =.c.f.=.x 2 O O . O                                                                                                                                                                                                                                                         ",
"                                                                                                                                                                                                                                                              % 7 n  .a.p.>.S 7 * O . O                                                                         2 n =.p.g...l 5 %     . O O O O   #   O         2 n =.f.c.=.x 2 % .                                                                               , d / 2.u.w. .V e 4 ; % O O                 O O     O                   O               O           O   O       O   O                   O               O           O   O       O   O                   O               O           O   O       O   O                   O       O     O         O       O   .             O + % % % O   ; i V @.p.s.r.Y p , O                                                                         O O O & 5 V =.p.q.X.v 7 =         O O O . .             , M ;.p.p.O.l 5 =                                                                         O   % 2 j 1.c.f.>.n 2 O O .                                                                                                                                                                                                                                                           ",
"                                                                                                                                                                                                                                                            X % 7 n o.a.p.=.V 7 +     .                                                                         , n O.p.g.o.j 5 %       O . . O O O         # O 2 x =.f.f.=.x 2 O     O O                                                                     O % 7 n +.w.w.4.T d 2 O         O # O . O O O       O       O .     O O         O   O O         O   O   O       O   O       O .     O O         O   O O         O   O   O       O   O       O .     O O         O   O O         O   O   O       O   O       O .     O O         O       O     O O       O   O       O O     O   + + & & & X   2 d ( 9.f.f.+.n 7 O                                                                             O % 5 V ;.s.q.X.l 7 ;         O O O                 , x =.p.p. .j 2 %                                                                     O   . O % , d -.c.f.=.x 2 O                                                                                                                                                                                                                                                               ",
"                                                                                                                                                                                                                                                            X O 7 n  .w.p.=.V 5       .                                                                 #       2 n @.p.q...j 5 %     X   O . O   .   X .       2 n =.f.c.=.j 2 O                                                                             % 2 g ] i.g.w. .M 0 , %       .           .     .     . .     .   .   .           .   .                 .               .     .   .   .           .   .                 .             . .     .   .   .           .   .         .       .             . .     .   .   .             .   .   .         . .     .         .         . . O + O O , 0 V O.q.f.q.` x 2 O                                                                         O O * 5 V O.q.9.' n 7 =           O O           X     2 n ;.p.p. .j 2 %                                                                           . O , d =.h.n.=.x 2 O O . .                                                                                                                                                                                                                                                         ",
"                                                                                                                                                                                                                                                              % 7 m +.w.q.=.V 5 O   .                                                                           , n O.p.g...c 7 %     . . . .         X   . # @ 5 n >.c.f.=.j 2 O         #                                                                   = 7 x #.a.f.7.I y 2 % O . . .     .   .     .               .             . .             . .           .   .   . .         .             . .             . .           .   .   .           .             . .             .             .   .   .           .             . .                   .           .     . .         .       . + & + O 2 s I >.p.p.=.V 5 %                                                                         O   O 5 n #.e.e.X.v 7 =           O O   .             , n =.p.q.X.d , %                                                                             O , d =.c.c.=.x 2 O O .   X                                                                                                                                                                                                                                                       ",
"                                                                                                                                                                                                                                                              % 7 V  .a.p.;.V 2 O .                                                                             , n @.p.a.+.x 7 = X           . . X         . O 5 n >.c.c.=.d ,                                                                           # O = 5 x +.p.f.>.V 2 O   . O O O O #       . .                                                                                                                                                                                                                                                                                     X     # + & O   % 7 x _ 9.w.-.V 2                                                                           O   O 5 n ;.r.e.X.n 0 = #           O         X       2 V =.f.p.X.d , %                                                                               = d :.c.c.>.n 5 O .       .                                                                                                                                                                                                                                                     ",
"                                                                                                                                                                                                                                                          X   % 0 V O.a.a.=.V 2   X .                                                               .           2 n @.p.g.+.M 7 =   . X .   .           . #   O 7 n >.c.c.=.j ,   . #       X                                                               O % 5 c  .p.a.=.x , X     O O + % O .                                                                                                                                                                                                                                                                                             X X     & + # . O 2 d _ q.w.O.n , X                                                                               2 n #.s.s.X.n 0 , O               .           O 2 V >.n.h.X.d 2 %                                                                             O = s =.c.v.>.n 5 % O #     X                                                                                                                                                                                                                                                     ",
"                                                                                                                                                                                                                                                          X   = e S O.g.h.1.V 5 O .                                                                             , n @.p.g. .n 9 = O   .   . .   #   .   . #   % 7 V >.c.c.=.j , O       O                                                                   O % 2 z  .p.s.;.n , X . .   O % O     X                                                                                                                                                                                                                                                                                               O % & . .   % 5 l _ p.p.+.n ,                                                                               # 5 n ;.s.s.@.V e , O           O             % % 7 S >.v.f.O.g 2 O                                                                             O = d ;.v.m.>.V 7 = O O .                                                                                                                                                                                                                                                         ",
"                                                                                                                                                                                                                                                            O = r S -.g.f.=.V 5 O   X   O                                                             #         2 n ;.f.g.-.n e 1 O O     . O     O   O     O = 0 F 7.c.c.=.j 2 O     .                                                                     O % 2 f +.q.p.>.V 7 %   .   O   O         X                                                                                                                                                                                                                                                                                       O   O % + .   O = 0 n  .p.p.-.n 2                                                                             . O 2 V =.p.f.=.S p 5 %           O .         O % = 0 I q.c.f.O.f , %                                                                             O , g ;.c.m.7.C w = % O O O                                                                                                                                                                                                                                                       ",
"                                                                                                                                                                                                                                                          O O , p K 1.g.p.>.V 5 O . + . O                                                                     # 2 n =.p.g.-.A a 2 % O   O O . . O O O   O O % , t T q.c.c.=.j 2 +     O O .                                                               O O * 5 k  .p.f.q. .x 8 %   .   X   X X                                                                                                                         O                                   O                                                                                                                                       .   O % 5 l ( 7.f.p.-.V ,                                                                           X   O 5 V =.f.f.=.T f 8 -         .             % % 1 u / p.c.f.@.z 3 %                                                                     O O   . O , d -.c.m.q.L i 3 ; & +                                                                                                                                                                                                                                                         ",
"                                O                                                                                                                                                                                                             O         O O % 5 c | r.g.a.X.n 2 O O O                                                             X             , l _ q.a.8.| b w = O . O . O + .     O + + ; 9 z ] a.g.w.` s , % O                                                                         . % 2 f | 7.f.p.1.U a , O       X X   O     O O       O     O     O   O     O     O   O         O   O     O                                     O               O           O                                   O   O             O                               O   O     O   O   O     O   O       O     O     O   O         O     .   .     ; r L 1.f.f.w.` f ,                                                                               O , x o.9.p.9.o.N r , O   X     O .     O O % , 8 z &.a.f.q.' s , %                                                                             O = i ` w.c.a.] z 7 , % & + O O                                                                                                                                                                                                                                                   ",
"    .   @   X         . . . . . % + O   X                     X           O       O   O       O   O   O         O O       O     O       O         O O   O         O O   O         O O         .     O       O   O     O                     O   O O O O   O 1 y P 9.g.g. .n e , O O O                                                                           % 7 x _ q.j.r.) g 2 O # . O + .       + % O , y U 0.a.8./ j 2 = % %   X                                                                       O % 7 n  .w.k.0./ j 7 = O       .   . .   O   O   O O   O O   O O   O O   O O   O O       O   O   O O   O O         X   X     @       X X .       O     . + O O   X   X X O O                           O .   O O O         X           O                   O       O     O   O       O   O   O O   O   O     O   O   O O   O     . . . X X O 2 p X.p.v.g.+.x 7 %                                                                               X % 0 n O.a.a.4.U p , O   .     . . O   O O = 5 d K 4.a.w.+.n 7 %                     #                                                   X   % % % 5 j { t.z.,.P y , + % % O   O       O O         O O             O O         .       O O       O     O       O   O   O         O O       O         O   O       O     O       O   O   O         O O       O + .   . .     X       X         O O O + O O     .                   ",
". .   O     X         . . . . O & * O O   X X   O O O               O     .   O           O     .         O .         O   .   O     O       O         .     O .       .     O .       . O O       O   . O   O     . O   O                 O O O O % O % % 2 i Z @.r.p.8.^ p 2 % O O O   .                                                 X                     O , y P >.s.s.=.J d 2 % % + . O #   O % , , t F ;.q.a.-.N 0 = O % +                                                                       . #   O 1 p I 1.u.8.+.S p 5 , % % # + . .   O O                                           O     O   .                     .     O O O           X # . . .     O O O O           O O             X X       O . O . O .     @ X   # .   O                             O   . O   O     .   O O     .         .     O O                   . . % - % 2 i F >.g.v.8.I y , O                                                                         O O   X X 1 p U ,.a.a.-.Z y , O O .   . . O O % , 9 p S +.u.w.2.U d , @ O X                                                                         O % O = 0 N +.g.p.;.V y 2 , - + O   O O         O           O O           . O O       O       . O   O   .     O     .         O .         O   .   O O   O     . O   O     .   O     .         O .         O O   . . .           X         X   O O O O O O O   . X                   ",
".   O     X X X X   + . . .   . X O         . + + + O O + O + + O . #           .           .               .                         .       . .               .               .                   .                           X                 O O , 0 j ^ =.p.a.8.( v 7 = O   . + O                                                   .                       % 7 m o.7.f.f.>.( d 0 3 % O O O O = 9 y j I ;.p.f.a...d 5 O   O O                                                                   X       @ O , e V ` t.w.w.=.I n y 5 = %       X                                 .     .     .         .   .         .   . O + % % + & O O .       .   . o .   O O       X       O               X         O   O # O # .   X   O O O             # . O . O # .     .                   .                       .             . .   .         % , 5 e l U -.g.g.w.` c 5 %                       #                                                   O * O     ; 0 n  .w.g.g.8.^ j e 2 ; O     * ; 5 y x I >.w.w.8.` m e - O                                                                             O O   O 3 j ..w.f.a.1.L j y 7 =       .       .           .       . .                   .               .       .               .                                       .       .               .             . O   . O O O O % O O   .         .   X     . X X .                   ",
"O O O O X         O O O   . .     O O = 1 , 5 5 7 5 5 6 5 7 5 5 5 5 2 2 3 , , , 2 , , 3 , 2 , 2 3 , , , 2 , , 2 3 , , 3 3 , , , 3 , 2 , , 3 , , , 2 , , 3 , 2 , , 2 , , 3 , 2 , , 2 , , 3 , 2 , 2 , , , , 3 , , , 2 2 , 2 2 1 , , , , , , 2 2 2 5 5 9 u V _ 7.p.f.r.] n w , O   . . . O O O                                                                       O = t V +.r.v.f.7.` A f e 5 5 5 5 e v F _ ;.q.c.d.=.V e , O   O       X                                                                 X       % 3 p D ..8.g.g.8. .A d w 5 2 2 2 2 , , , , 2 1 2 , 2 , 1 2 , 2 2 , , 3 , , 2 , 3 , , 2 , , , , , , 3 2 2 2 5 5 5 7 5 7 5 5 6 5 3 3 , ; O     .   O           O O % O                         O O O X . X O @   O ; , 2 3 , 2 3 2 , 2 2 5 2 2 2 5 5 2 2 2 , 3 3 , , , , 2 , , , 3 , , , , 3 , 2 , , 2 , , 3 , , , , , 2 , 3 , 2 7 y l F _ 8.d.a.w...m t ,                                                                             O + O     O 1 y S +.w.v.g.w.+.P d w 5 2 2 5 e d V  .8.g.z.8.` C p 2 %   #                                                                       X   O . .   , y G =.p.g.s.=.( S b 7 2 , , , , , 2 , 2 , , 2 , , 2 , 2 , , 2 , , 3 , 2 , 3 , , 2 , , 3 , , , , 2 , , , 2 3 , , , 2 , , 2 3 , , 3 3 , , , , 3 , , , , 3 , , 2 , , , 2 , 2 3 , , , 2 , , 2 3 , , 3 1 2 2 2 5 5 5 7 7 7 5 5 5 5 , , % O   X .     X . X                     ",
"O O O           O O O . .   X   % , 5 e g M V S S S Z S C S S S S S S S C V V S S V V V S C S V S V V S V V V S V S V S V S V S V V S V S V V S S V V S S V V V S V V S S V V V S S V S V S V V S V V V S C S V V S V S V V V V V V V V V V S S S S I _ 1.d.g.v.w.' n 9 % O O . O . .   O O                                               .                           , e n  .w.g.p.w.-.` I S S S F I @.<.p.s.f.9. .V y 2 %                                                                                 #     O ; 2 y V ` i.g.g.g.1.] J V V S S V V V S S V S V V S V V V V V V V V V V S V V S V V V V S V S V V V V S S S S S S S C S J S J S V l s 7 2 % O % %       X O % % + O   X                       O . X . X X O = 2 e d n m V S J J S S S S V S S S J J S S C S V V S S V V V S S C V S V V V V V V V S S C V S S V V S V V V V S F I  .<.a.g.g.8.` n y 2 %                                                                             O . . .   X O 2 y V  .8.v.v.g.7. .I J S V V I ' >.d.g.j.8.` n y 2 % #                                                                               O . . O % 2 y S  .7.f.f.r.<. .J S V S V V S S V V V S V V S V V S V S S V S V S V V V V V S V V V V V V S V S C S V S V V S V V V S V S V S V S V S S C V S V V V V S V V V S C S V S V V S V V V S V S V S V V V V V S S S S J S S S S C f y 5 = O X X X X                         ",
"O   O O   X     O % + # X   @ 2 0 s l F ) #.=.>.8.,.<.=.1.1.1.9.0.,.1.9.0.8.0.0.0.0.0.0.,.0.0.0.0.0.0.0.0.0.0.9.0.,.0.0.0.1.0.0.0.0.0.0.1.9.0.0.0.0.0.1.0.9.0.0.0.0.0.1.0.9.0.0.0.1.0.,.0.9.0.0.0.0.0.0.,.0.0.0.0.9.0.9.9.0.9.<.<.<.1.<.<.9.<.8.>.7.>.q.a.j.x.r.' n w %     . . . . . . O .                                                                           O , e V _ 8.g.k.k.u.8.7.>.;.<.9.a.f.f.h.0.' n e 2 = O . . #                                                                                 X X O , e V ..8.a.g.q.9.>.=.=.>.7.0.0.9.1.9.9.1.9.0.9.0.9.0.9.9.0.9.9.0.0.0.0.0.<.0.0.0.0.0.9.0.0.0.9.0.1.1.9.8.1.<.<.>.1.8.7.9.>.-.] I n s 0 5 ; % X X     O & % +   .         X         .     .     X   O 4 e d V I X.:.>.>.8.8.q.9.0.1.1.<.0.0.7.r.0.1.0.8.0.0.1.0.0.0.0.9.0.8.0.9.0.0.0.9.0.0.0.9.0.0.0.,.1.9.0.0.0.0.0.<.>.>.>.q.j.n.g.,./ n t 2 % O   .                     #                                                       .   X   X % 2 y n _ 8.a.g.f.p.r.q.0.<.;.<.9.w.f.a.8. .n u , O # .   #                                                                             . . .   % 2 e n ( ;.s.j.g.q.7.8.9.9.<.<.9.0.0.9.0.0.0.1.9.9.0.<.0.0.1.0.,.0.9.0.0.0.0.0.9.0.0.0.9.0.r.1.<.0.0.0.0.0.0.0.0.0.0.0.9.0.,.0.0.0.1.0.0.0.0.0.9.0.0.0.9.0.0.0.0.,.0.0.0.0.0.0.0.0.0.0.9.0.,.0.0.0.<.1.;.<.9.8.8.0.0.8.7.8.8.2.` K x p 9 1 O X   X   X                   ",
"      O O   . O O + O X   O 1 s Z _ @.;.s.h.h.c.c.h.p.s.p.s.s.f.f.f.c.f.f.f.f.f.f.f.f.c.f.f.f.f.f.f.c.f.f.c.f.f.f.c.f.f.c.f.f.f.f.f.f.f.f.b.f.f.c.f.c.f.f.f.f.f.c.f.c.f.f.f.f.h.c.f.f.f.f.f.f.f.f.f.f.c.f.f.f.f.f.f.f.c.f.f.f.c.f.f.f.c.b.c.f.c.c.c.f.f.w.1.#./ x e = X     . O O .   .                                                                           .   . O 1 0 d G o.,.u.z.v.n.f.f.s.s.j.q.>.X.Q g 9 ; % O O O . .                                                                         X       . . X O = w l J #.<.7.q.g.j.v.g.f.c.f.f.f.f.f.c.f.f.f.f.f.f.f.f.f.f.c.f.f.f.f.f.c.c.f.f.f.f.f.f.f.f.f.f.f.f.f.f.f.s.p.p.p.f.b.c.h.b.s.9.@._ V d 9 =   X   . O % % #     X         O           .         O 1 i S _ ;.9.e.h.h.b.c.c.b.f.p.p.s.s.p.f.f.h.f.f.f.f.f.c.f.f.f.c.f.f.f.f.c.f.f.f.f.f.f.c.f.h.c.f.f.f.f.b.f.f.b.f.f.c.c.f.p.a.a.7.+.U f 7 , % O % O .                           #                                               .   . . .     % ; 7 s G ) 1.q.f.M.f.f.f.f.g.d.r.0.#.J l 0 1 O   X X                         #                                                       O . O . O O ; 9 s F X.<.q.f.f.f.f.c.f.f.c.f.f.c.f.c.f.c.f.c.f.f.f.c.f.f.f.f.f.f.f.f.f.f.f.f.f.f.f.f.f.f.c.f.f.f.f.f.f.c.f.f.c.f.f.f.c.f.f.c.f.f.f.f.f.c.f.f.f.f.f.f.f.f.c.f.f.f.f.f.f.c.f.f.c.f.f.f.c.f.f.f.f.f.f.f.f.f.p.p.f.c.v.c.v.j.a.7.=./ m p 5 = O                         ",
"      O O O O . . O O   O , e S @.r.s.h.h.h.p.e.e.e.9.9.<.9.9.e.r.s.e.e.e.s.e.s.e.e.e.e.s.e.e.s.e.e.e.e.e.e.e.s.e.e.e.e.e.e.s.e.s.e.e.s.e.e.s.e.e.e.e.e.e.e.s.s.e.e.e.e.e.e.s.e.e.e.e.s.e.s.e.s.e.e.e.e.s.e.e.s.s.e.r.w.w.a.w.w.r.r.p.w.w.w.w.w.w.q.q.,.] J n d 0 1 O   . X   . .                                                                                     .   O ; 5 i x S ` ,.8.a.w.e.9.9.0.-.I n t 4 ; @     . +                                                                         .   O   . .   . X   O = 7 s n I  .-.7.w.w.d.w.w.w.a.q.w.w.w.w.p.w.w.a.q.a.w.a.r.p.e.s.e.e.e.e.e.e.e.s.e.s.s.e.s.e.e.s.e.e.e.e.9.9.9.9.9.q.e.s.f.h.f.f.r.-.I d 7 ; X     O + +   . .       O   O O O . .       X   @ 1 t n +.a.p.p.h.h.p.p.e.e.9.e.e.9.9.9.9.9.e.e.e.s.e.e.e.e.s.e.e.e.e.e.e.e.e.e.e.s.e.s.e.e.e.e.e.e.e.s.e.e.s.e.e.s.s.q.q.q.<.=. ./ V p 2 %     O % % O .                     #                                                     . .       X   . * , w g J  .<.w.w.a.w.r.8.1. .J n g 5 = O X     . .                       #                                               O         . . O O     O 1 t v I  .8.7.q.q.r.s.r.r.p.r.q.r.q.r.p.r.q.r.s.e.e.e.e.s.e.s.e.s.s.e.s.e.e.s.e.s.e.s.e.e.s.e.s.e.e.e.e.e.e.e.e.s.e.e.e.e.e.e.s.e.e.e.e.e.e.s.s.e.e.e.e.e.s.e.e.s.e.e.e.e.e.e.e.s.e.e.e.e.e.s.e.s.q.q.9.9.e.9.q.7.q.q.p.f.f.a.7.+.S d 7 , @                       ",
"  X X O O O .         % 5 s P =.a.g.g.k.8. .( U L F F F F F F P P Y I P L L L L L L L L L L L L P L L L L L L L L L L L L L L L L L L L L L L L L L L L L L L L L L L L L L L L L L L L L F L L L L L L L L L L L J P K P K P K G K K P P K K K K K K A s w 5 2 = % O   .   .           O                                                                         . . O % O @ % ; 2 0 d A P T T T P F D x y 5 ; % O O O O . .                                                                                 X         X   @ % 2 w y j m F P K K K G K K K K K K K K K K K P K K P K F P L L F L L L L L F L L L L L L L P J P L P F F F P F L I I @.1.k.z.v.g.>./ l 5 O @   O O O   .       O O   O   .     .   . O = 5 s G #.u.g.z.w.,.O._ I F F Z F F L L P L F F F F L L L L L L L L L L L L L L L L L L P L L L L F L L L P L L L L L J P I P V m j y 5 , @     X   O O                         #                                                   O O         .   #   O % 2 0 d A P P P P P G C l y 0 , = O X       O   O X                                                                           X   . . + .   O * ; 5 e x C G K K K K K K K P P J P J K G K K J F L L L L L F L L L L L L L L L P L L L L L L L L P L L L L L L L L L L L L L L L L L L L L L L P L L L L L L L L P L L L L L L L L L L L L L Y P L L L L F F Q F F Y ' <.r.f.f.d.,./ j 7 ;                       ",
"X       O + .       O 5 s I  .w.g.z.t.&.U n p e 0 0 0 0 e 0 e 0 0 0 e 0 e 0 0 0 e 0 0 0 0 e 0 0 0 0 0 0 0 e 0 0 0 0 0 0 0 e 0 0 0 0 0 0 e 0 0 0 0 0 0 0 0 e 0 0 0 0 0 0 e 0 e 0 0 0 0 e e 0 0 0 0 e 0 0 0 0 0 e 0 0 0 e 0 0 0 e 0 e 0 0 e e e e e e 0 7 3 % O O O + + . .   X       @     .                                                                         O % % O X X X @ = 2 7 0 0 e 0 e 0 e 7 , % O X O + O . .         X   X                                                                 . . O O O O     X   @ % = 2 5 0 e e 0 0 e 0 0 0 0 0 e 0 0 0 e 0 0 0 0 0 0 e 0 0 e e 0 0 0 0 e e 0 0 0 0 e 0 0 0 e e 0 0 0 0 e 0 e 0 0 e p c U $.t.k.v.p.=.J s 5 %     . .           O O         . . .   O = 7 d J +.8.a.a.t.&.U V f e 7 5 7 7 0 e e e e e 0 7 0 0 0 e 0 0 0 e 0 0 0 e 0 e 0 0 0 0 0 0 0 0 e 0 0 e 0 0 0 0 0 0 0 e e e e e 0 0 5 2 % O   X   .                                                                                     @   X . #   O . .       = , 7 0 0 e e e e 7 7 , = O     X     O O   #   .                                                                           .   . . O + #   O O = 7 0 0 e 0 0 0 0 0 e 0 0 e 0 0 e 0 0 e e 0 0 0 0 e e 0 0 0 0 e 0 0 0 0 0 0 0 0 0 0 0 e 0 0 0 0 0 0 0 e 0 0 0 0 0 0 0 e 0 0 0 e 0 0 0 0 0 0 e 0 0 0 0 e 0 0 0 0 0 0 0 e 0 0 0 0 e 0 0 e e e 0 0 0 w 0 0 0 0 e i j F X.,.a.g.a.-.I l 7 ;                     ",
"  X   . . O     X X 1 g I -.a.a.8...D f e 3 = % % % = = = = - % % = % - = = = - = = = - = = = = = = - = = = - = = = = = = = ; - = = = = = = = = = = = ; = = - = = = = = = = = % - = = = = = - = = = = = - = = = = = = = = = = ; = = = = = = ; = = = = %         O + . .     .   @ O O O   O                                                                           O O @     X X O = = = % % % ; = = =     . . + O + . .                                                                                   X O # #     X   @ O O % % % % % % % % = = ; = = ; = = ; = = = ; = = = = = = = = % - = = = = = - = = % - - = = % - % = = = , = ; % % = 2 r f C } w.g.g.1.W s 2         . O   .   O                 . % 7 j / 8.a.k.,.` D c a 0 , % O   O O = , , 2 , , = = = = = ; = - = = - = = = = = = = = = = = = = = = = = = = = = = - = = - % % % % O O O .     .           X                       #                                                   @       .   . O O . O O O O O O % O O % % % % % O O O X       X   O O                                                                                   . . . O + + .   .   % = = = % ; = = = = = % = = = = ; = = = % - = = = = = - = = = = = = = = = = = = = = = = = = = - = = = - = = = = = = = ; - = = = = = = = = = = = - = = = = = = - = = = - = = = = - = = = - - % % - = = = % % ; 2 e d S _ 8.a.k.3.T d 2 %                   ",
"        . O # X X @ 9 V +.g.g.7._ n 0 2 % O   . #   + + O O O       .                     .                         .                 .   .     .                     .   .                       .                     O   O   O   O                         . . + . .       O O O @                                                                                 O             O O O             O O   . . . O .             O                                                                                           .   . O                                                     .                                       . . O O + + O     O % , 0 j _ 7.g.a.*.C w * X     O .   .             .       % , i J 8.g.v.w.^ c e 5 = % O   X   .     O % % % O O   .                           .                 .   .                     .               .   .   X                                 .                                                 X   X     . . . O + + +                     # O       X             #                                                                           O           . .   . . . .                 X                       .                     .                 .   .                         .               .                     .                             .     . . . .   . O .       O = 2 0 j ( 8.g.r.*.V e =                   ",
"* O     .       ; 2 d ' w.v.a. .x 7 %       #   O % % % % O O   . O                                                                                                                                                           O             X                 # .             O O O O                                                                       #   X   X         .   O O % % %         . O O O .                   O O O                                                                                             O     O     O O     X               X   X         X                                     .   . . O O O O % O O O       O % 5 j ..a.a.8.` f , O X   O       . O           .   . % 7 x ' a.g.g.O.x 5 % O     X             O   O O                                                                                   . . O . O O       X                             .                   o                                   X   X           . O O O O       O + O .   . O                                                                                                   O O .     X       .     #   O                                                                                                                                                                                   . + . . o . + + + + O O   O O % 5 x X.q.g.8.` j 5                   ",
"O O . X X     * 1 y F >.g.g.,.I e ; O X X         O O O + % O O     O .       X       X             X         X                       X         X       X     X       X           X   X                   X X       X     X       X   X   .   X X X     O O         .           O   O                                                             # . X             X     X . X O + * & * & & O                     . X         O O                                                                                                 #     O O O O     X   X X   X   X         X X X               X   X       X           . O O . O O O O + O               ; 0 A ,.g.g.,.S e ; O X         . . O               = y F =.g.f.8.I t %     X X   X       X     O       X         X           X X               X         X           X   X     .       .   O %               O                                     .                                                               O O   O         O O O .     .                                                                                             . O .           .                   X   . X   X   X   X   X     X   X   X   X                     X         X             X         X                             X         X             X         X         X     O . O O O + + + O O . O       ; t V ;.g.g.,.U e                   ",
"O             = 7 V  .a.h.8.) l 6 % @     O   # . X           O                                                                                                                                                                     O                   O O       .   O O X X X       . . .                                                   #   O   X .         @       #   O #   .     # O         .         .         X X       O .                                                                                 .       .   .   O O                                                                                       O               O O O O   % 1 s  .a.v.w.` f 5 % X           .       O .       , d _ 9.h.w._ j 2 O O O O #               O                                                                                       . O O O O     X     O % % O                           # # #         X     #       .                     O O         X                           O O O O .               O                                                                                                 O                 .     .         .         .                                                                                                                                                           O O       X .           @ 4 g ( q.v.k.&.f                   ",
"O O O         = 0 S =.j.p.O.S t ;   O   O O X       X                   X                       X                                                                                                                   .   #     . O   .     .             O O         O O       X X .   . . .                                                         #       #                                   #     X X     O O                     O .                                                                       .   O O .                 O           .   .   . .       .   .         .                     .                       .       X         O O O O ; 7 J ,.g.a. .x 7 *   X     .         O O         , l X.q.f.>.S e ;   O O O O               O       . X                                   X                                               O O           O % % O                       .               #           # X                     O % O                       X                 .     .         . O                         #                                                       .           X       O .     X X   .   .   .   .     .   . . .                                 X                       X                                       X                       X                           X X                           X O % 9 S q.v.v.-.l                   ",
"  O .   .     % 7 S ,.p.a. .n 0 %       O                                                                                                                                                                                                                                                                                                       % @ . X     # .                                   X X                                                                                                                                                                                                                                                       O O 2 S 1.f.a. .x 5 O   X                 O         , x ;.p.f.=.n 5 % X   O   O                                                                                                                               O                                                                                                                                                                                                                                                                                                                                                                                                                                                                                   % 5 n 8.c.c.>.l 2 O               ",
"O   O   .     O 7 S <.f.w. .c 7 % O                                                                                                                                                                                                                                                                                                                                                             # X                                                                                                                                                                                                                                                           O 2 V =.p.p.+.l 5 O # O     X             O   .   = x =.f.f.=.k 2 *                                                                                                                                                                                                                                                                                                                                                                                                                                                                                                                                                                                                                           O O 2 n ,.v.f.<.j 2 % O       .     ",
"  O   . . .   O 7 S 0.g.d.o.c 7 %         #                                                                                                                                                                                                                                                                                                                                                                                                                                                                                                                                                                                                                   O 2 V -.f.a.@.j 5 %     O                 O       = n ;.f.g.O.j 2 %     #                                                                                                                                                                                                                                                                                                                                                                                                                                                                                                                                                                                                                     O O 2 x ,.c.c.<.l 2 % O             ",
"O   #         O 7 S 8.p.w. .n 7 %         X                                                                                                                                                                                                                                                                                                                                                     O O #                                                                                                                                                                                                                                                         O 2 V =.f.a.X.v 5 O   O O                   .     = x =.f.f.-.c 2 %           #                                                                                                                                                                                                                                                                                                                                                                                                                                                                                                                                                                                                                 O 2 x ,.c.c.<.x 5 %               ",
"  O .   .     O 7 S 8.g.w. .n 7 % O       #                                                                                                                                                                                                                                                                                                                                                                                                                                                                                                                                                                                                                   O 2 V =.p.p.X.v 5 % .   O O             X   O .   = x =.f.g.-.j 2 %     O                                                                                                                                                                                                                                                                                                                                                                                                                                                                                                                                                                                                                       O 2 x =.c.c.<.l 2 %           O   ",
"O   . . .     O 7 S 9.f.a...M 7 %                                                                                                                                                                                                                                                                                                                                                               o                                                                                                                                                                                                                                                             O 5 V -.f.a.@.j 5 O     O                         , x =.f.f.-.k 2 %   X                                                                                                                                                                                                                                                                                                                                                                                                                                                                                                                                                                                                                   #   O O 2 x ,.v.c.>.x 2 % O .           ",
"  O     . . X O 7 S ,.g.a. .n 8 * . #   X                                                                                                                                                                                                                                                                                                                                                       .                                                                                                                                                                                                                                                             O 2 V =.f.f.X.x 5 %   O               X   O O     = x =.f.j.-.j 2 % X       .                                                                                                                                                                                                                                                                                                                                                                                                                                                                                                                                                                                                                 O O 3 n ,.v.c.>.x 2 %               ",
"      .       O 7 S 0.g.a.o.n 7 % O     #   .                                                                                                                                                                                                                                                                                                                                                                                                                                                                                                                                                                                                                 O 2 V -.p.a.X.l 5 O   . O                         = x =.c.g.-.k 2 % X                                                                                                                                                                                                                                                                                                                                                                                                                                                                                                                                                                                                                           O 2 c >.c.f.>.l 2 % O             ",
"      . .     O 7 J 8.g.q...n 7 %                     .                                                                                                                                                                                                                                                                                                                                         O                                                                                                                                                                                                                                                             O 2 V -.f.p. .x 5 O     O                   O     , x =.f.f.=.j 3 %             #                                                                                                                                                                                                                                                                                                     .                                                                                                                                                                                                                                                                               # .                     O O 2 x -.c.c.>.x 2 % .       .     ",
"O     .   .   O 7 Z ,.f.g...n 7 =                                                                                                                                                                                                                                                                                                                                                               O                                                                                                                                                                                                                                                               2 V =.p.p. .l 5 %   O                       .   = x =.f.f.=.j 2 %               .                                                                                                                                                                                                                                                                                                                                                                                                                                                                                                                                                                                       #                     O 2 c ,.v.c.>.l 2 % O             ",
"      . .     O 7 S <.f.a. .n 7 ;                     X .                                                                                                                                                                                                                                                                                                                                                                                                                                                                                                                                                                                                     O 2 V =.f.p. .x 5 O   O                   O   .   , x =.f.g.O.j 3 %             X                                                                                                                                                                                                                                                                                                                                                                                                                                                                                                                                                                                                             . O 2 x ,.c.c.>.j 2 % O             ",
"            X O 5 S ,.g.a. .n 0 %   O             #       #                                                                                                                                                                                                                                                                                                                                     X                                                                                                                                                                                                                                                             O 2 V =.f.p. .j 5 %     O                 O       = x =.f.g.-.j 2 %                 X   .                                                                                                                                                                                                                                                                                               #                                                                                                                                                                                                                                                                                                       % 2 c =.c.c.<.l 5 O               ",
"      . .     @ 7 S 1.f.g. .n 8 =   O                     X                                                                                                                                                                                                                                                                                                                                     %                                                                                                                                                                                                                                                             O 2 V =.p.p.@.v 5 O .                   X     .   , x =.f.f.-.j 2 %                       #                                                                                                                                                                                                                                                                                             #                                                                                                                                                                                                                                                                               X                     O O 2 c >.c.c.>.l 2 %   .     O     ",
"      . .     O 5 S ,.f.a. .n 7 =                     .                                                                                                                                                                                                                                                                                                                                         %                                                                                                                                                                                                                                                               2 V -.f.p. .j 5 %     O                 O       = x =.f.g.=.k 2 %   X                 #                                     X                                                                                                                                                                                                                                                                                                                                                                                                                                                                                                                                     #                           O 2 x ,.v.c.>.l 2 % O             ",
"    #   . .   O 5 S <.f.a...n 0 %                                                                                                                                                                                                                                                                                                                                                               .                                                                                                                                                                                                                                                             O 2 V =.f.p. .v 5 O                       O       , x =.f.g.-.j 3 O                                                         #       .                                                                                                                                                                                                                                                                                                                                                                                                                                                                                                                                       .                 . O 2 x ,.c.c.>.l 3 %               ",
"              O 7 S ,.f.a. .n 7 =                                                                                                                                                                                                                                                                                                     O                                                         .                                                                                                                                                                                                                                                             O 2 V -.p.p. .j 5 %   O O                         = x =.f.f.O.j 2 %             #                                             .                                                                                                                                                                                                                                                                                                                                                                                                                                                                                                                                     .     X                     O 2 x ,.c.c.>.j 2 % O             ",
"      .   .   O 5 S ,.g.a. .n 7 % O                                                                                                                                                                                                                                                                                                                                                                                                                                                                                                                                                                                                                             2 V =.p.p. .v 5 O   .                           = x =.f.f.=.j 3 %                                                                                                                                                                                                                                                                                                                                                                                                                                                                                                                                                                                                                             O 2 x <.c.c.>.x 2 %         .     ",
"        . .   O 7 S <.f.a.+.x 7 %                                                                                                                                                                                                                                                                                                                                                               .                                                                                                                                                                                                                                                             O 2 V =.p.p. .x 5 %   O O         X     X O   #   = x =.f.g.=.k 2 %                                                                                                                                                                                                                                                                                                                                                                                                                                                                                                                                                                                                                           O O 2 x >.c.c.<.j 3 %           .   ",
"  O   .   . . O 7 S ,.f.p. .n 7 %       X                                                                                                                                                                                                                                                                                                                                                       X                                                                                                                                                                                                                                                               2 n =.p.p. .v 5 %     O                 O       , x =.f.f.O.k 2 %                                                                                     O                                                                                                                                                                                                                                                                                                                                                                                                                                                                                                                                     . O 2 x <.c.c.>.j 2 %         .     ",
"        .     O 7 S ,.g.g. .n 7 % O     #                                                                                                                                                                                                                                                                                                                                                                                                                                                                                                                                                                                                                     O 2 V -.f.p. .x 5 O   O                           , x =.f.f.-.j 2 %                                                               .                             O                     .       . O                                                                                                                                                                                                                                                                                                                                                                                                                                                                                             O O 2 x ;.c.f.<.j 2 % O       .     ",
"      # .     + 7 S ,.f.a. .c 7 %                                                                                                                                                                                                                                                                                                       X                                                       . . #                                                                                                                                                                                                                                                           2 V =.p.p. .n 5 %     O                     .   = x =.f.g.-.j 2 O                                                                                                                     .                                                                                                                                                                                                                                                                                                                                                                                                                                                                                                     # O 2 x >.c.c.<.x 2 % O         .   ",
"O       .     O 7 S ,.f.a. .n 7 % O     .                                                                                                                                                                                                                                                                                                                                                         .                                                                                                                                                                                                                                                           O 2 n =.p.p.X.x 5 O   O                   O       , x =.f.f.O.k 2 %                                                                                                                                                                                                                                                                                                                                                                                                                                                                                                                                                                                                                             O 2 x >.c.c.,.j 2 %               ",
"  .     . .   O 7 S ,.f.p. .n 7 =                                                                                                                                                                                                                                                                                                                                                                                                                                                                                                                                                                                                                               2 V =.p.p. .x 5 %   . O                         = x =.f.g.-.k 2 %                                                                                                                                                                                                                                                                                                                                                                                                                                                                                                                           O                                                                                               O O 2 x >.c.f.<.j 2 % O       .     ",
"        .     O 7 S ,.f.g. .c 7 % O                                                                                                                                                                                                                                                                                                                                                               #                                                                                                                                                                                 O                                                                         O 2 V -.p.p. .c 5 %     O O         X     O O .   , x =.f.g.O.j 2 %                                                                                                                                                                                                                                                                                                                                                                                                                                                                                                                                                                                                                       .     O 2 x >.c.c.>.j 2 %       .       ",
"  O           O 7 S ,.g.p...n 7 %                                                                                                                                                                                                                                                                                                             X     O O + + .                                     O O                                                                                                                               X                               O         O                                                                                 2 V =.p.p. .j 5 %   O                   O   .   , x =.f.f.-.j 2 %                                                                                                                                                                                                                           X                                                                                                                                                                                                                                                                                           O           O                                                                                         O 2 n >.c.c.=.j 3 %               ",
"      . . .   + 7 S <.f.g. .n 7 =                                                                                                                                                   X                             X                                                                                                                         X       O O % O + .                                   O O X     X             X               X               X               X               X               X               X                                 O                                                                                                 O 2 V =.p.p. .v 7 %     O               X         , x =.f.g.=.j 3 %                     .                                                                                                                                 X                 X               X         X                                                                                                                                                                                                                     X               X         X                     X               X               X               O   O                                                                                             O + 2 x >.c.c.<.x 2 % O     .   .   ",
"        .     O 7 S 8.f.a. .x 7 % O                                                                                                                                                                                                                                                                                                   O     X   X   X             O O O O     .       @   @ X   O O                                                                                                                                                       O             O                                           .                                           2 V =.f.p. .v 5 %     O                   O     , x =.f.g.-.j 2 O                                                                                                                                                                                                                                                                                                                                                                                                                                                                                                                     O   O     O                                                                                             O 2 x <.c.c.1.j 2 %           .   ",
"@     . .   . O 7 S ,.p.p...n 7 %       #                                                                                             O           O     O         O           O     O       O     O     O       O           O       O               O                                                                                                 X X .     . O O O   O X     X     X   O X     O   O           O         O       O O       O             O       O O           O         O       O O         O           O     O               O   O     O O                                                                                             O 2 n =.p.p. .j 5 O . O O                   .     = x =.f.g.O.k 2 %                                                                           O                             O O     O           O       O O           O         O       O O       O             O     O         O       O O       O             O     O         O O   O     O                                                                                                                                           O O           O         O     O       O         O O         O           O       O O           O   O   O     O                                                                                         O O 2 x ;.c.c.>.j 2 % O       .     ",
".             O 7 S ,.f.a. .n 7 %                                                                                               O   O     O   O O O O O O O O O O O O O O O O O O O O O O O O O O O O O O O O O O O O O O O O O O O O O O O O O O O O                                                                                       O X X     X X X         O   O   O X   X   X     X           O O O O O O O O O O O O O O O O O O O O O O O O O O O O O O O O O O O O O O O O O O O O O O O O O O O O O O O O O O O O O O O O O O O O O   O O       O O     O                                         X #     X .     .                               2 V =.p.p. .x 5 O     O           X             = x =.f.f.=.k 2 %                     .                                                                             O   O O O O O O O O O O O O O O O O O O O O O O O O O O O O O O O O O O O O O O O O O O O O O O O O O O O O O O O O O O O O O O O O O O O O O O O O O O O   O   O   O     O O                                                                                                                         O O O O O O O O O O O O O O O O O O O O O O O O O O O O O O O O O O O O O O O O O O O O O O O O O O O O O     O     O O     O                                                                                     # O 2 x >.c.c.<.j 2 % O       .     ",
"      . . .   + 7 S 8.f.a. .x 7 ; O                                                                                     O   O O   O O O O O O % O O O % O O O O O O O O O O O O O O O O O O O O O O O O O O O O O O O O O O O O O O O O % O O O O O O O                                                                                       O O   X X   X   X     X     X O O % O         O O O   O O O O O O O O O O O O O O O O O O O O O O O O O O O O O O O O O O O O O O O O O O O O O O O O O O O O O O O O O O O O O O O O O O O O O O O O O   O O O                                                 #                     X                         O 2 V -.p.p. .v 5 %     O                   O     , x =.f.f.=.j 2 %                                                                                               O O   O O O O O O O O O O O O O O O O O O O O O O O O O O O O O O O O O O O O O O O O O O O O O O O O O O O O O O O O O O O O O % O O O O O O % O O O O O O O O O O O O   O   O O   .                                                                                                                     O O O O O O O O O O O O O O O O O O O O O O O O O O O O O O O O O O O O O O O O O O O O O O O O O O O O O O O   O       O                                                                                           O 2 x >.c.c.,.j 2 %           .   ",
"    .     . . O 7 S 8.g.a. .n 7 %                                                                         .                 O   O O O O O % % % % % % % % % % % % % = % % % % % % % % % % % % % % % % % % % % % % % % % % % % % % % % = % % % % % = % O O                                                                                   O   O O O O @   O O O O #   X .   % % % O O O % % - % % O % % % % % % % % % % % % % % % % % % % % % % % % % % % % % % % % % % % % % % % % % % % % % % % % % % % % % % = % % % % % % % % % % % % % % % % % + O O O     O                                                 .     #         #                           2 n -.p.p. .v 5 %   O                 X         = x =.f.g.-.j 2 % X                                                               #                 .                 O + % % % % % % % % % % % % % % % % % % % % % % % % % % % % % % % % % % % % % % % % % % % % % % % % % % % % % % % % % % % % % % % % % % % % % % % % % % O % % + + O O                                                                                                                   .           O % % % % % % % % % % % % % % % % % % % % % % % % % % % % % % % % % % % % % % % % % % % % % % % % % % % O O + O O   O O                                                                   #                       O O 2 x >.c.c.1.j 2 % O       .     ",
"  O       .   O 7 S ,.g.a. .n 7 =                                                                               O     #   O   O % , 2 5 7 0 0 e e e e e e e e e e e e e e e e e e e e e e 0 e e e e e e e e e e e e e e e e e e 0 e e e e e y e e e e 0 , = % % O X     X . .   . O       X                                             X     O O O O   O   O O O       X X O % = ; 2 5 0 r p p y e e 0 e e e e 0 e e e e e e e e e 0 e e e e e e e e e e e 0 e e e 0 e e e e e 0 e e e e e e e e e 0 e e e e e e e e e e e e e e e e y y e e y e e 0 0 5 , ; % O   O       .                                                                                   2 V =.p.p. .v 5 %     O                   O #   , x =.f.f.O.k 2 %                                                             .           #     # O   X       O % , 2 7 0 0 e e e e e e e e e e e e 0 e e e e e 0 e e e e e e e e e 0 e e e e e e e e e e e 0 e e e e e 0 e e e e e e e e e e e e e e e e e e e y e e y e t e e e e 0 0 5 , = % % O O     .   X                                                                                           . X O % % 1 2 5 0 e e e e e e e e e e e 0 e e e e e e e e e e 0 e e e e e 0 e e e e e e 0 e e e e e e e e e e e e e e e e e 7 5 , , % % O   .                                                                                     . O 2 x >.c.c.>.j 2 %           .   ",
"        .     O 9 S <.f.a. .c 7 =                                                                       X       O O . .       % 5 e j F ( X.@.@.@.;.;.@.;.;.;.;.;.;.=.=.;.=.;.=.=.;.;.;.;.;.;.;.;.;.;.;.;.;.;.;.;.;.;.=.;.;.;.;.;.@.;.=.;.@.;.;.;.=.;.( x y 0 5 =     X . .   .   O O X X                                                   .     O   O   O O   O .       O % 1 2 9 p n ) :.1.>.+.X.@.#.;.;.;.;.@.;.;.;.;.;.@.;.=.;.;.;.;.@.;.;.;.;.;.@.=.;.;.;.=.;.;.@.=.;.;.;.;.@.;.;.;.;.;.@.=.;.;.;.;.@.;.;.;.;.=.;.=.;.;.=.=.=.=.=.=.=.=.=.=.=.=.` V s 6 ; @ O   # .   . .                                                                                 2 V =.p.p. .x 5 %         O                 .   , n >.f.f.O.f 2 %                     X                                             #   X .   . O O   . . X X O 2 0 j I ..o.#.#.:.;.;.;.;.;.O.;.=.;.;.@.=.;.;.;.;.@.;.;.;.;.;.@.=.;.;.;.;.@.;.;.;.;.;.@.=.;.;.;.;.;.=.;.;.;.;.@.=.;.;.;.;.;.=.=.=.=.;.=.=.;.=.=.;.=.;.=.=.;.;.<.1.-.+.` Z t 5 2 = % + . . .   X X                                                                       .       O . . . o . X * 1 7 p S | X.;.;.@.;.;.@.;.;.;.;.;.;.;.;.;.;.;.;.=.;.;.;.;.@.;.;.=.;.;.@.=.;.;.;.;.@.;.;.;.;.;.@.;.;.@.;.;.;.@.;.;.;.-...S d 0 5 1 O . . . $ . .       O                                                   .                 O + 2 n ;.c.c.>.l 2 %         . .   ",
"X O         . O 7 S ,.g.a. .n 7 %                                                                         X X O % * O       ; 9 l F _ >.q.p.f.c.c.f.c.c.c.c.f.c.c.c.c.m.c.c.m.c.c.c.c.c.c.c.c.c.c.c.c.c.c.c.c.c.c.c.c.c.c.c.c.c.c.c.c.c.c.c.c.c.c.c.c.q.o.U S l 0 =     . . . . + + O @ X X                                                     O                 . . # + = , w s M Y ;.d.b.M.v.c.p.p.c.c.c.c.c.c.c.c.c.c.c.c.c.c.c.c.c.c.c.c.c.c.c.c.c.c.c.c.c.c.c.c.c.c.c.c.c.c.c.c.c.c.c.c.c.c.c.c.c.c.c.c.c.c.c.c.c.c.c.c.c.m.c.c.c.c.m.m.c.c.M.c.p.@.I v i 9 ; + O . . . + #                           #                                                   2 V =.p.p. .c 5 %       O                       , n >.f.p.+.d , %               #     .                                                         % *   .   X % 5 s V _ w.j.p.p.f.c.v.b.c.c.m.c.c.c.c.c.c.c.c.c.c.c.c.c.c.c.c.c.c.c.c.c.c.c.c.c.c.c.c.c.c.c.c.c.c.c.c.c.c.c.c.c.c.c.c.c.c.c.c.c.c.c.c.c.c.c.c.c.c.c.c.c.c.c.c.c.c.m.c.g.a.;.! v s e , % . X     X # . #                                                                             O . . . . = 5 s Z ( 1.g.f.c.c.c.c.c.c.c.c.c.c.c.c.c.c.c.c.c.c.c.c.c.c.c.c.c.c.c.c.c.c.c.c.c.c.c.c.c.c.c.c.c.c.c.c.c.c.c.c.c.c.c.c.c.g.1./ A l 0 = O   . . . . .   O O                                                                       O , n <.c.c.>.j 2 % O             ",
"    .   . .   O 7 S 8.f.a. .n 7 =                                                                     .   X   % % * . .   = e m ` 1.w.g.v.c.c.v.M.M.M.M.M.M.M.M.M.M.M.M.M.M.M.M.M.M.M.M.M.M.M.M.M.M.M.M.M.M.M.M.M.M.M.c.M.c.c.v.v.c.v.v.c.v.v.c.M.M.c.v.a.w.,. .V i 4 O X     + % % % X X                                               #     X       O             .   O , w x / 1.r.g.n.v.v.v.v.v.M.M.M.M.M.M.M.M.M.M.M.M.M.M.M.M.M.M.M.M.M.M.M.M.M.M.M.M.M.M.M.M.M.M.M.M.M.M.M.M.M.M.M.M.M.M.M.M.M.M.M.M.M.M.v.M.c.c.v.c.c.v.v.c.c.c.M.c.M.c.v.v.g.g.g.r.=.` V y 2 %     . + O #                     .                                                       2 V >.p.q. .x 7 %     .   O                   . , n >.c.f.+.f 2 %             .         #                                                     O % - +     , e Z ` -.w.g.g.g.a.v.M.M.M.M.M.M.M.M.M.M.M.M.M.M.M.M.M.M.M.M.M.M.M.M.M.M.M.M.M.M.M.M.M.M.M.M.M.M.M.M.M.M.M.M.M.M.M.M.M.M.M.M.M.c.v.v.c.c.v.v.v.M.c.c.M.v.v.v.c.c.M.M.M.v.M.v.f.r.>._ m 0 % . . # @                         X                                               + O #   X   O O + + , e n ' 0.x.g.f.M.M.M.M.M.M.M.M.M.M.M.M.M.M.M.M.M.M.M.M.M.M.M.M.M.M.M.M.M.M.M.M.M.M.M.M.M.M.M.M.M.M.M.M.M.M.M.M.M.M.M.M.M.M.v.z.8.1. .S e = % . .   . . O                                                                         . O 2 x <.c.c.<.j 2 %         .     ",
"O .       . . O 5 S 8.f.a. .n 7 %   O                                                                   . X   O + O O % , 0 C ..8.a.g.v.g.7.<.>.-.,.,.,.,.>.,.,.>.,.,.>.7.8.,.7.8.>.,.,.>.,.,.,.,.>.,.,.,.>.,.,.,.>.,.,.-.,.,.,.,.1.1.=.-.,.,.,.>.-.,.8.a.g.g.d.X.V s 5 O   . O - % % O                                                           #     O   O # #   . % 2 w n ` 8.g.v.g.w.>.=.O.1.,.>.>.8.>.,.,.>.8.,.,.,.,.8.>.,.>.,.,.>.8.,.,.,.,.8.>.,.>.,.,.,.,.8.>.,.>.,.,.>.8.,.,.,.,.8.>.,.>.,.,.>.8.,.,.,.-.-.-.-.,.-.-.=.>.-.,.-.-.,.1.,.,.,.w.a.g.j.w.+.S p 2 O     . O O O                                                                         O 2 V ,.p.p. .x 5 %       O O                     , n >.f.p.+.f , % O O         X   #                                                   O     X X % % % % 2 e C +.w.a.p.a.7.,.1.:.,.,.,.<.>.,.,.,.,.,.8.>.,.>.,.,.>.8.,.,.,.,.8.>.,.>.,.,.>.8.,.,.,.,.8.>.,.>.,.,.>.,.,.,.,.,.8.>.,.>.,.,.>.-.,.-.-.,.-.,.-.-.-.-.-.=.-.-.-.=.>.=.=.-.8.a.c.v.f.w.` x 7 = % O O O                       .                                               O %     X X   O = 2 r m  .9.f.b.a.w.8.,.,.,.>.>.,.>.,.>.,.>.,.,.,.>.,.,.>.,.>.,.,.>.8.,.,.,.,.8.>.,.>.,.,.>.8.,.,.,.,.8.>.,.,.>.,.>.,.>.,.,.8.u.a.a.w.a.d.-.n 0 2 % O O   O O O                                                                         % 2 n =.c.c.1.x 2 %         .     ",
"      .       O 7 S 8.p.a. .n 7 %                                                                     X X         O % 5 p G +.t.u.a.a.8...S x d d p d d d p d d d d d d d d d d d d d d d d d d d d d d d d d d d d d d d d d d d d d j d j j d d j c S #.8.r.h.q.=.J p 2 % O X . O + .                                                             O   O     O O   % 5 p J O.a.z.a.w.2.U M d d s p s p d d d d d d d d d d d d d d d d d d d d d d d d d d d d d d d d d d d d d d d d d d d d d d d d d d d d d p d p d d d d d d d d d d d d j x V / +.8.a.g.a.,.K y , O       % % O                                                                         2 V 1.p.p. .c 5 %       O                     . 2 n >.f.p.+.j 2 % O O           #                                         X   .     #             O % 5 d S +.w.a.a.w.0. .S x l d d d d d d d g d d d d d d d d d d d d d d d d d d d d d d d d d d d d d d d d d d d d d d d d d d d d d p p d p d d p d d d d d d d d d d s s p j C ` ,.w.g.g.w...C u 2 % O X X                                                                     O O     X X   ; 5 p C +.w.f.p.7.+.{ n d d d d d d d d d d d d d d d d d d d d d d d d d d d d d d d d d d d d d d d d d d d d d d p d d d d j S ( #.-.w.g.w. .K p 5 = O O       O                                             X     # .                 O 2 x <.c.c.,.j 2 %               ",
"      .   .   O 7 S 8.g.a. .n 7 =                   .                                                   .   . X X O 1 y K 4.u.a.8.-...I x 0 2 , = = = = = = = ; = = = , = = = = = = = = = = = , = = = = = ; = = = = , , , , , , , , , , , , , 2 2 2 5 t M U  .9.g.p.;.V y 1 @         . .                                                             X           O , s K -.a.z.a.,./ V s 0 5 , = = = , = = = , = = = , = = = = = , = = = = = , = = = , = = = , = = = , = = = , = = = = = = = = = = = = = = = = = , , , = , , , , , , 2 , , , , 2 5 e d m I =.g.N.k.O.C r ;     X % % O                                                                         2 V >.p.q. .x 7 %     .   O     X               , n >.f.f.+.f 2 % O             X     #                                         . O O     O O O X   2 s I -.w.w.7. ./ K x e 2 2 = , = , = = = , = = = , = = = , = = = = = = = = = , = = = = = , = = = , = = = , = = = = = = = = = = = = = , , , , = , , , = , = = , = , , = = % , 2 0 j S ( ;.q.a.u.+.C u 3 * X O                                                                     . .     X X X 2 y S +.w.g.w.=.^ V s 5 , = = ; = = = = = = = = = = = = = = = = = = = = = = = = = , = = = , = = = = = = = = = 1 = = = = = , = 2 e l m F ..7.g.w.-.S p 5 %                                                       #     X                 O + 2 x =.c.f.>.j 2 % O     .   .   ",
"O       . .   + 7 S 8.f.g. .c 7 %                                                                         X . .   % 9 n -.z.g.8...J l 0 1 O       X   #       O                   O                       O         O O O O O O O O O O O % % % % % % 1 2 w n _ 7.f.d.;.V 9 % O   . . . .                                                         O O     #     O % 7 D ,.z.v.w.+.Z e 5 , = = % O O                                                                                   O           O           O O O   O O O   O O O O O O O O % O % = 1 2 t V O.w.g.w.+.V 6 @ X O O O O                   # #                                                   2 V >.p.p. .x 5 %       O                       , n >.c.p.O.j , %             .                                                         O O O O X % w m #.d.a.0._ x y w 2 = O                                         O                                               O           O       O O O O O O O O O O   O O   O       . O = 2 2 0 i x  .8.z.u.+.S p 1 O # o                                                                           X X O 9 n ..a.g.8._ n i 5 , O     O                   O             O         O                         O                   O       O ; 2 2 9 x X.r.g.p.-.J e %                                                                               O O 2 x >.c.c.<.x 2 %           .   ",
"X     . .     O 5 S 8.p.a. .n 7 ;                   X                                                 .   . o   O 2 y Y w.v.g.-.S y 2 %   X X   X     X                                                                                       O . O O O   ; i Z =.p.n.q.^ y , %   . X   + .                                                                   # O 4 p ^ w.v.v.,.S y =       O O O                                                                                                                                               #         = y J -.a.v.w.^ p , %                                                                               O 2 V >.p.q. .x 7 &         O                 .   , n >.f.g.+.g 2 % O             .       #                                             @   O   O O 2 d ) r.g.a.+.S e , ;     X .               X                                                                                                                       #     o . + % % % % , 0 S -.g.z.w./ j 7 % @ O #                                                                   #         ; p Y 7.g.w. .n 0 1 * O     # X                                                                                   X                 O @ ; w V  .f.v.a._ a , O   X                                                                           O 2 x =.c.c.,.j 2 % O       .     ",
".       . .   O 7 S ,.f.a. .n 7 %                                                                         . .   % w V O.g.g.d._ p - O O O       #     .                     O                                 O                       .     . O O   O . O % 5 d _ w.g.w...Z e , O     . + .                                                   X           O # O ; e F =.f.v.w...j 5 % # X . . . .                                                                                                         O                       .     O .         .   X % 5 l _ w.g.p.=.I p ,                                                                                 , V >.p.p. .x 5 %       O             X   .     , n >.f.f. .j 3 %                   .                                           #     #     . O = t G O.g.g.8.` j 2 O X   # O O .                                                                                                                                           . . . % % + O ; 5 x _ r.j.w. .V e ; %                                                                     . O .     O 9 Z O.p.g.,.U d 5 % O O                                   O                                                     .     O .   . .   O O O O 2 s I w.v.q. .n 0 = O . + .                                                                     O O 2 x >.c.f.>.j 2 %         .     ",
"      .   .   O 7 S 8.p.p...n 7 =                                                                       . + % + , y Y <.p.g.=.V 5 O O @ O     O   O   O O . O . O     O   O   O   O   O O   O   O O   O O   O                                     O O   O % , 0 D -.a.a.,./ d 5 %     . . .                                                       #   O         , x ] r.a.r.#.Z e = O   . . . # .       O   O O   O   O O   O O O     O   O O   O   O O O   O O O   O O O   O O   O O   O     O   O O   O     O   .         .       O         O .     X   O ; e S =.w.g.w. .n 5 O X X                                                                           2 V 1.p.p. .x 7 %       O O                     , V >.c.f.O.f , ; O                                                                         . + , s / 8.g.g.O.n 0 %         . O O O O   O   O O O   O O O   O O   O O   O     O O     O   O O   O   O O O   O O O     O   O O O   O O                               .       . . . . .     O , e V @.w.a.-.P f 2 %                                                                     O + O   O = y ( w.f.a...M 0 , O O O .   O O     O   O O O O     O       O   O   O   O O   O   O   O   O O   O O   O     O O   O   O   O O O O O % O O = w m ,.g.w.=.J s 2 %   . +                                                                     # O 2 x >.c.c.,.j 2 % O         .   ",
"      .   . . O 7 S ,.f.a. .n 7 %   O   #                                                               O + % % 2 l ] r.g.7.F y ; O O O + O # O O   O     O O   O   O           O     O O   O       O           O                           O       O O + + + 2 p I ,.a.w.` n 0 1     .                                                             #   #     O 2 V ;.w.w.o.v 9 ;     . . . . . O O O           O         O       O O     O   O                                   O   O   O O   O         O       .   O O   O   O     O   O   O O . . .     % 2 p J =.g.a. .V 0 % # .                                                                           2 S ,.p.p. .c 5 % .       O       O X X .   .   2 n <.f.f.+.j 2 %   O                                                               O     .   + , h +.g.v.w.I y 1 O   . + . . #   O   O   O                       O   O   O O     O O     O   O                 O     O O         O                                       .   .   .   .   X   ; e J >.s.r.] c 5 % #                                                                   O . O O % 2 g +.g.g.>.I y 2 %         O   O     O           O O     O     O     O O         O   O           O   O   O O     O O       O     O % % O X @ 2 s ^ 8.a.r.) l 7 = O . .                                                                     O O 2 x <.c.c.<.j 2 %         .     ",
"  O     .     O 7 S 8.f.a. .n 7 =                                                                       # O - % 5 x X.w.f.>.j 5 %     @           O   O O                                                 O                                     O     .   .   % 0 V -.a.a.+.V 0 = O     .                                                           O   O     X 5 J >.p.9.T s , O X     . . . + O   O                 O                             O               O                                                     O   O     O   O   O O   O       X O = 0 x  .a.g. .V 0 =                                                                             O 2 V >.f.q. .x 7 % . @     O         O         O 2 n >.f.f.+.j 2 = O O                                                           O       X   . * 2 j -.g.v.,.V 5 O     - & . . .                     O                                               O                                                             #         .                 O 2 V >.p.w. .j 5 %                                                                         . O = 5 x -.f.f.=.V 7 % O   .                 O                 O                           O                                   O         + O       ; 0 J 1.w.w.] n 7 = O . .                                                                       O 2 x <.c.c.<.j 3 % O         .   ",
"      . .     + 7 S 8.p.a. .n 7 %                                                                       # . + - 7 n =.p.p.:.d 5 = O   .   X   X           .   X                                                                             O     O     . .     5 n +.a.g.-.V 7 %                                                                 O           O 5 S 7.a.8._ h 2 % @ % % & + + % O   .                                                                                                               O     O     O   O   O   O   O       . # X O 5 l  .w.g.+.n 7 % O                                                                             2 V -.p.q. .x 7 % . X   O     X   O   X     .   2 n >.c.f.-.j 2 % O       X                                                     .     O   O O % 2 x -.f.g.=.x , X   . + + X . X .                                                                                                             O         O     O     O   O O O O O         . O O 5 V <.b.a.X.s , O                                                                           + = 7 x =.f.p.=.n 2 O     .                                                                                           X   X .   X       #       X   5 S ,.p.p.X.m 0 %   .                                                                       O + 2 x ;.c.c.>.j 2 %         . .   ",
"  O     .     O 7 S 8.f.a. .c 7 % O                                                                       . O % 5 n >.j.f.-.j 5 = O           X .                                                                     O O   O                             . X @ 5 x  .g.a.-.V 5 O     # .                                                           # O   O   O 5 S >.p.w...j 5 % O % % & + & % O   X                                                                                                             O           #   O       O           . . #   O 2 j ` a.g. .n 5 O   .                                                                           2 S =.p.p. .v 7 * . #   O O         O O X     # 2 V >.c.g.+.l 2 % O O                                                             X         O % 5 l =.f.p.=.x 2     # O .     X                                                                                                                 O                             O O O     . O O O 2 n <.h.f...f , %                                                                             = 7 x >.f.f.=.x 2 O                                                                                                       X           .         @ 5 S ,.p.q.O.n 0 %   . .                                                                       O 2 x <.c.c.<.x 2 % O             ",
"      . . .   O 7 S ,.f.g. .n 7 %       .                                                                 . #   , n 8.M.v.,.x 7 = % O O   X           O                                                                                                       O 7 x ..a.g.+.V 5 O                                                                 #       #     2 V =.a.a...x 7 % O O # . . O O   X                                                                                                                 #     X           .                 % % + % 7 x ..k.g.-.V 2     .                                                                           2 V 1.p.p.o.x 8 * .   O O   .     O           O 2 n <.f.f.+.k 2 = O     #                                                           #     O O ; 2 l @.f.c.8.V 7 %     % O       X                                                                                                                                             O   X       . .   , V >.f.p.+.k 2 % O                                                                       X   % 2 j =.c.c.=.n 5 +                                                                                                                     X O % % = 0 J ,.p.p.@.V 7 %     .                                                                     . O 2 x >.c.c.>.j 2 %         .     ",
"@       .     O 5 S ,.g.a. .n 7 ;                                                                         #     , j =.v.c.q.J p 5 % O O O O   O O   O     X   O                                                           O                             O O X % 7 x  .a.a.O.n 5 %                                                             .   O #   O       , x @.a.g.,.I p 2 O . . . . . .     X                                                   O                                                                                     .   .   + - = = 5 a I -.a.d...n 2 O                                                                             O , n O.p.p.>.J e , # X O O O .   . . . # O   + , e J 7.f.d. .f 2 %   X                                                           X   O   O     * 2 g X.p.f.q.I p 2 %   + O O O #           O                                                                                                                                 O @ X   .   . . + % w I 9.f.a.#.b 5 %                                                                       X     O , l >.f.c.=.x 5 % O . O                     O                         O                                           O                 X . O % , 2 p I ,.g.r.X.n 7 % .                                                                           % 2 x >.c.f.<.j 2 %         .     ",
"      .       O 5 S 8.f.a. .x 7 % O                                                                     .   X * 2 g ( r.n.f.>.I y , # X . + +                                           O O O               @   X   X X   O               O O O     .         % 7 c +.w.p.=.V 5 O                                                                               = f T 8.g.g.1.K r = . . . . . . X X X                                                                                                                               O   X   O   . . $ + & = 2 p K ,.d.d.0.) l 2 O     O                                                                         , j ^ 7.f.f.1.F 9 % O O & + $ $ $ $   . + O 2 s J O.w.a.8.) s 2 O .                                                             #     #     X O 2 s Y 8.g.p.1.U p 2 % + . + + .                                                                                                                                   X     X   O O O   . .     % 0 D :.a.g.8.) h 2 O                                                                             % , l >.c.f.=.x 2 O O .                   O O O O .             O       O O                 .   O O                                   O + & * , 0 M #.q.a.7.^ j 7 O                                                         #                   O 2 x <.c.c.<.j 2 %               ",
"        . .   + 7 S 8.f.a. .n 7 %       .                                                                     O ; e n  .a.g.g.O.x 5 O     O + .                                         O O O             O                       X   X   O O                 % 7 M +.p.a.=.S 5 O                                                                               % 0 V -.g.v.a._ d 2 % + . . .                                                                                                                                           O           .   . = e n  .q.g.q.X.n e , O O O                                                                           = 0 n @.f.v.h._ s , O O & & + $ $ + # .   % 7 n O.7.p.r.+.S e , O     X                                                                     X   , e C ..w.g.w.+.n 0 %   . # + + .                                                                                                                                           O O O O . + + O 3 x _ q.v.a.O.C 9 % O                                                                             % 2 j =.c.f.=.x , . O   . O   . .     X     % O               O     O O   O                   O .                                     . O O ; 7 g U ,.g.a.=.S y , O     .                                                                     O + 2 x =.c.c.<.j 3 % O     .   .   ",
"O       .     O 7 S 8.p.a. .c 7 %                                                                           . . O 2 p I >.g.g.>.J p 2 O .     X X #   .                           X   O O O             .     O % O O O                         O             % 7 m +.q.p.=.S 5 O                                                       X         .   #   # X # % 5 d ' w.c.s.;.V i , % + + +   O O O .                                                                                                                         #         #               2 j I =.q.a.7.I i 1 O O O .                                                                           O ; y ( p.m.f.;.V 0 %   - = *   + +     X ; e J >.w.w.1./ j 5 %                                                                       # X   . O = 7 x ^ >.a.w.1.J t ;     . O O .                                                                                                                                 .     #     X . O O O % 2 y I >.f.n.a. .j ,   #                                                                             % , j 1.c.f.=.x , O .       + O   X     X O O             O O O     O O #             O                                               X O O 2 p P O.w.g.r._ j 2 O     . +                                               .                     O O 2 x >.c.c.,.x 2 %           .   ",
"      # .   . O 7 S 8.g.a. .n 7 = O                                                                     . . .     = 0 x ' 8.q.w. .I d w 1 ; % O O O O O O O O O O O O O O O O O   O O % = % O O   O O + + O O & & % % O           O O       X                 % 7 M +.a.p.=.V 5 O . .                                                                           O ; 0 V O.s.s.e.X.F s 7 3 , % O * % % % O O O O O O O O O O O O O O O O O O O O O O O O O O O O O O O O O O O O O O O O O O O O O O O O O O O O O O O O % O O % O O O O O O O O O O % 1 5 s J =.8.8.0.@.V 5 O X o .                                                                               O 5 n @.q.p.7.X.V t 9 5 5 = O % = = ; 4 t n X.q.w.8.` m 0 =     # .                                                             #     #   .   O , y n  .8.w.7._ n i 4 ; % % O O O O O O O O O O O O O O O O O O O O O O O O O O O O O O O O O O O O O O O O O O O O O O O O O O O O O O O O O O O O O O O O O O O O O O O       % 1 5 e d V @.q.f.h.1.I y % .                                                                               % 2 j 1.f.c.=.x ,   O     O % %                           O O   #   # O O O % O O O % % = = O O     O O O O O O O O O O O O O O O O O ; 1 9 p F  .r.g.r. .V 0 %     . & %                                                                       O 2 x >.c.f.>.j 2 % O       .     ",
"      .       O 7 S ,.f.a. .n 7 %                                                                     # X . . o   % 2 t M ] ,.w.q.8.@.I n y 7 2 , , , , = , , , , , , , , , , , , = , , 2 , , , , , 2 , = % O . . +     .       . % % O                       % 7 x +.w.p.=.S 5 O   .                                                         .   X   #     .   O O , t V ;.s.h.s.e.X.L g 0 3 , , , , , 1 , , , = , , , , , , = , , , , , , , , , , , , , , , , = , , , , = = , , , , , , , , , , , , , , , , , , , , , , , , , , , , 2 , , , , 2 5 t g L ' >.q.f.w. .n i , O X X .                         o                                                 . O O 1 e n  .a.g.a.8...J x y 5 1 1 2 e j F ' ;.q.g.w. .V e ; X X     .                 #                                         .         . .     O 2 y D O.w.g.a.>.' F d w 2 1 , , , , , , , , , = , , , = = , , , , , , , , , , , , , , , , , = , , , , , , = , , , , , , , , , , , , , , = = , , , , , , , , , , , , , = = % % 2 y n Y X.<.s.s.e.@.V p 3 . .                                                                               % 2 d >.c.f.=.x , O O .   O O O   X   X           .                 O % = , , , , , 2 2 5 2 , = = = = , , , , , , , , , , , , , , , 2 e v L X.>.p.j.a. .V e ;   X   . % - O                                                   .               O O 2 x >.c.c.1.j 2 % O       .     ",
"        . .   + 7 S <.f.a. .n 7 =                 .                                                           . . + ; 2 e x ] 1.a.f.p.e.@.I n x j l l j j l l d l d g j d j g j d l d l g d g d g j j g y 5 , % O     O         . O O O     X                 % 7 m #.a.p.=.V 5 O   .                                                                               O , y S ;.p.b.m.h.<.( M j f f f j j j d g j l j j d j d j j l d l d l d d j j d l d l d g j j j l d j l j j l d l d l d d j j d l d l d g j l d j d j l d l l j j l l l l j v M F ' =.d.a.d.w.O.S e 2 = O   . . .                                                                               O = 0 V +.a.g.v.g.w.X.V v l g v F X.>.p.f.f.w. .V y , O X     .           .                                                             . O     O 1 y V  .w.g.n.g.<._ Z l d d l d j d l l d j l j d j l j j l d l d l d d j j d l d l d g j l j j d j d j j l d g j j d d l l d g j j d j j l d g j l d d j l d d j j d s s p x J  .7.s.h.h.e.X.Z i 2 % .     .                                                                     O     % 2 j >.c.c.=.x 2 O       O O O O       X     . .   . .       X   + , 5 e p f f j l x x n n l g s d l l d j d l d l d j d l d l d l x F _ 9.p.f.f.w.=.F e , O X       + %                                                                     # O 2 x >.c.c.>.j 2 %           .   ",
"  O   .       O 7 S ,.g.a. .n 7 %       #                                                                 . . . O % % = , 9 j T 8.g.c.v.f.q.7.7.7.7.7.>.9.8.8.8.8.7.8.7.7.7.7.8.<.8.<.<.<.<.;.<.1.<.1.#.( V p 7 ;   X     O O . . . . .                 X     % 7 n +.a.p.>.V 5 O   O                                                                             . . O , e V  .f.m.m.f.q.=.=.-.,.8.8.7.7.7.8.8.8.9.8.8.8.8.7.7.8.7.8.8.7.>.7.7.8.8.7.7.8.7.8.8.8.9.8.8.8.8.7.7.8.7.8.8.7.>.7.7.8.8.7.7.8.7.8.8.7.7.9.8.8.8.8.8.8.8.8.8.8.8.8.7.8.e.q.s.v.v.g.7.' n y 2 % O O .   . .                                                                         . .   O   = w c / -.a.v.M.f.q.9.<.9.9.q.p.v.v.g.7._ v 9 , % O       .                                                           .           O           O , 0 c ` 8.g.v.g.p.q.9.7.8.8.8.9.8.8.8.7.7.8.8.8.8.8.7.7.8.7.8.8.7.>.7.7.8.8.7.7.8.7.8.8.8.9.8.8.8.8.7.7.8.7.8.7.7.8.7.7.8.7.8.7.7.7.7.7.8.7.8.8.8.9.9.8.9.8.8.8.7.>.<.,.,.7.w.g.f.c.f.9.( l 9 ; % O . . . X                   #                                                     O % 2 d ,.c.f.=.x ,   # .           X           . . O O       X X % 5 s n ^ +.-.,.8.8.7.9.9.9.9.<.;.>.>.9.8.8.8.7.7.8.7.8.8.7.8.7.8.7.7.q.p.c.n.g.q.X.n e 1 O X X     .   .                                               .                     O O 2 x <.c.c.>.j 2 % O       .     ",
"        . . . O 7 S 8.g.d. .n 7 %   O                 #                                                     . . + % O O   ; 5 l / ,.w.g.g.c.c.c.c.c.c.M.m.m.m.M.m.c.M.c.c.M.c.c.M.v.v.c.f.c.c.c.c.c.f.f.w.#.I n w 1 O X O O +     .                 O         % 7 M #.p.a.=.V 5 O                                                                                 . . .   1 e V @.9.q.q.p.a.g.g.v.c.c.M.c.c.M.m.m.c.m.m.m.c.m.c.m.c.m.M.c.M.M.c.m.c.c.M.m.c.m.m.m.m.c.m.m.c.c.m.m.c.m.M.c.M.M.c.m.c.c.M.m.c.m.m.m.m.c.m.m.c.m.c.m.m.m.c.m.m.m.m.c.v.v.c.g.7.:./ x 0 2 = O     O . .                         #                                                     . X     % 5 g E +.t.a.g.v.v.c.c.f.c.v.g.d.-.I x 7 % O O O       .                   # o                                                     O         O = 9 j U -.w.a.g.c.c.c.m.c.c.m.m.c.M.M.m.m.c.m.m.c.c.m.m.c.m.M.c.M.M.c.m.c.c.M.m.c.m.m.m.c.m.m.m.c.m.c.m.c.M.c.M.c.c.m.m.c.M.c.M.c.c.m.m.c.m.m.M.m.m.m.m.m.m.m.c.M.c.c.v.v.v.v.f.w.1.( v 5 @       + O                       #                                                       % 2 j =.c.f.=.x , O O .         O O O         O + + +   #   @ 2 i v T #.r.g.v.v.M.v.c.c.c.m.c.c.c.c.c.c.M.m.c.m.m.c.m.m.m.c.c.M.M.M.c.v.g.a.w.1.` m e , % O X                                                                                   O 2 x <.c.c.,.j 2 %           .   ",
"      . .     O 9 S ,.f.a. .x 7 %     X                                                                 O O O % % O     X O ; 5 y j K +.1.t.d.g.f.f.p.f.p.f.f.f.f.p.f.f.f.f.f.p.g.g.a.w.w.p.f.c.f.c.f.c.f.f.7.@.F y 5 % % O + . .   X .               O       % 7 n +.a.p.=.V 5 O                                                                               . . . . . # % 7 d n S ) #.0.a.g.f.f.f.f.f.p.f.f.f.f.f.f.f.f.f.f.f.f.f.f.f.f.f.f.f.f.f.f.f.f.f.p.f.f.p.p.f.f.p.f.f.f.f.f.f.f.f.f.f.f.f.p.f.p.f.f.p.f.p.f.f.f.p.f.p.f.f.p.f.p.f.p.f.g.w.,.` D l t 5 ; O       .   O O O                                                                             X   O O   O 1 r j D ` y.w.w.w.r.r.r.0.o.D p w 5 = O   O                         #   #                                                   O O O         X O ; 5 w d C o.8.k.g.g.f.f.f.f.f.f.f.f.f.f.p.p.f.f.p.f.f.f.f.f.f.f.f.f.f.f.f.p.f.f.p.f.p.p.f.f.f.f.f.f.f.p.f.f.f.f.f.p.f.p.f.f.f.f.f.f.f.f.f.f.f.f.f.f.f.f.f.f.f.j.p.p.p.q.a.w.-.J l e 5 % @       O # .                                                                           O % 2 j >.c.f.=.x ,   O .           O O         % % O O   O % 5 d Y ;.e.p.f.c.M.j.p.p.q.a.p.f.f.f.f.f.p.f.f.f.p.f.f.f.f.f.f.f.f.f.f.f.a.r.1.o.J v u 7 1 % % O                                                                 #                 O + 2 x ;.c.c.>.j 2 %         . .   ",
"@           . O 7 S ,.f.g. .x 7 = O                                                                       O O O O     . .     O = 5 p c D U / ` X._ _  ._ _ _ _ _  ._ X._ _  ._ _ ` / / / _  . .@.@.O.<.w.f.v.a.#.J g 5 , % O # X . .       X       O O O     % 7 M +.w.a.=.V 5 O   .                                                                                     .   % , 7 e f C /  . . . ._ _ X._ _ _ _ _ _ _ _ X._ _ _ _ _ X._ _ _ X._ _ _ _ _ _  ._ X._ _  ._ _  ._ _ _ _ _ _ _ _ _ _ _ _  .X._ _ _ _ _ _ _ _ _ _ _ _ _ _ _ _ _ _ _ _ _ / J j e 2 % O         X .     O O O                                                                               + O     O = 5 e v K U U I U U T S x w 2 = %               O                     #                                                   O O                 O % 2 r n K / ` `  ._ X.' ' _ _ ' X._ _  ._ _  ._ _ _ _ _ _ _ _ _ _ _ _  .X._ _  ._  ._ _ _ X._ _ _  ._ X._ _  ._ X._ _ _ _ _ _ _ _ _ _ _ _ _ _ _ _  ._ _  ._ _ _ ^ ^ ^ K m r 3 = % #       . .                       .                                                         % 2 j >.f.c.=.x , O .   .       O O O O     O O % .   O = 7 d I 9.f.f.h.d.7.O._ ^ I ^ ( ^  . . . ._  ._ _ X._ _ _ _ _ _ _ _ X._ _ ' _ T S l r 5 = % % + % +         X                                                                           O 2 x <.c.c.>.j 2 %               ",
"O     . . .   O 7 S ,.f.a. .n 7 %       .                                                               O O O       .           O % = 2 7 e 0 0 w 7 7 7 7 7 7 0 7 7 7 7 7 7 7 7 7 7 7 5 5 e e y y y g M ( -.a.g.a.,.I d 7 - O X X .                 O O       % 7 m +.q.p.=.S 5 O   .   X                                                                             X X       . O = 3 8 0 u p e w 7 7 7 7 7 7 7 7 7 7 7 7 7 7 7 7 7 7 7 7 7 7 7 7 7 7 7 0 7 7 7 7 7 0 7 7 7 7 7 7 7 7 7 7 7 7 7 7 7 7 7 7 7 7 7 7 7 7 7 7 7 7 7 7 7 7 7 7 7 7 7 0 e w , %         . #   #   X   O                     # # X                                               O O O % + O O . O O O % 2 5 7 0 7 0 0 0 5 2 , = ; % %       O       O O O                                                                       O         X   .     % , 2 3 7 0 e w 7 7 7 7 7 7 7 0 7 7 7 0 7 7 7 7 7 7 7 7 7 7 7 7 7 7 7 7 7 7 7 7 7 7 7 7 7 7 7 7 7 7 7 7 7 7 7 7 7 0 7 7 7 7 7 7 7 7 7 7 7 7 7 7 9 7 7 7 7 7 9 9 9 w 7 7 2 % . . .   .   O     X                                                                               % 2 d >.c.f.=.x 2   O             O O O   O . O + #   O 2 d ^ 7.g.g.w.1.) A d e 9 5 5 5 7 0 0 0 w 0 7 7 7 7 0 7 7 7 7 7 7 7 7 7 0 7 7 0 7 2 = O     + % + O O       X   O                                                                     . O 2 x >.c.c.<.j 2 % O       .     ",
"          . . O 7 S ,.f.a. .n 7 =                                                                       X       X       . . . # . O     O % % O   O O O O O O     O O   O O   O O O O O O % = = = = , 9 f D +.a.B.z.-.K d 2 *   X . O       X       O O       % 7 M +.a.p.=.V 5 O                                                                                   O X X X             O % = = % O O   O O   O O O   O   O O O O     O O   O     O O O O   O   O   O   O   O O O   O O   O O O   O O   O O   O   O       O         O       O   O O % O     X . .     O O O       X                                                                             O % % O . O + . + O % % % O % O O O X       O % % O             O O O       #       #                                                         O             . # & % % O O + % O O O O O O O O   O   O   O   O O O   O O   O O O   O O   O   O O O O   O   O O O   O O     O O     O O   O   O O   O O O O O   O   O O O   O O X O O O O   .   . . .   # O O X                                                                               O % 2 l -.c.f.=.x , O .   .   O   O O O   O O O   .     1 t S >.g.g.u. .S d 0 2 % O O O O O O O O O O O   O   O O   O O O O O     O O O % % % O O . O + + . .           O O                                                                       % 2 x >.c.c.,.j 5 %         .     ",
"        . .   O 7 S ,.f.a. .c 7 %                   # X                                                     X           O O O O O O O       .   O . O . O . O . O . O .   O . O O + + + + & * O O O O % 2 y V  .a.N.z.+.C e ,     O         X X       O       % 7 x +.a.p.=.S 5 O   O                                                                             O @ O O X   O + O   . . + * O O     . O   O .   O . O   O .     O O . O . . O . O   O   O .   . O   O . + O . O . O . . O .   O   O   O . O     O   . .     . .   .   O . .             # X . #   O O O % O                                                                                   X O O . . . . . O O   O O O & - * . # O       O O .     O     . O %                 . X #                                   #                   O   .     .   .   O + & * .     . O . O O . O . . O   O . + O . O . O . . O .   O   O   O . O     O . O   O .   O O   . O   O O . O . O O O   . O O   .   O . O O #   O O O O O   O O O O X X     . . .   O O                                                                                 % 2 j >.c.g.=.x , O . .     O O O         O         % 0 n o.a.w.-.U x e 2 ; % + % % % % O .   .       . O   O . O   O . O . O   O O O O O O % * - & O   .   .     O O O O                                                                       + 2 x <.c.f.<.j 2 %               ",
"O     .   .   O 7 S 8.p.g. .n 7 %   O   .                                                                               O O O O O           .     .   .   .       .     .           O   O   .       #   O , y V -.z.z.u.^ j 5 %   X O                   O     % 7 m #.w.p.=.V 5 O   #                                                                             O O % O O   O O . . .   O . O .         .   .     .   .   .   .   .     .   .     .     . .   .   .               .         .   . .   .   .   .   .         .   .                 .         O O O O     + O                                                                                           . .   #       X     # - O     O         O       O           O         .   #                                                             O             .       O O # .     .         .   .   .               .         .   . .   .   .       .   .   .       .     . .   .           .       .   .           .   .   + O     O O O       . .         O   X                                                                             % 2 d =.v.f.=.x ,   O   O   O O     X X #   #     % 5 l ) 0.g.7.` x e 2 ;     O & + - O .           . .   .   .   .       .   .   .   X #   O O O % O   .         O O O O                                                                     O % 2 x ;.c.c.>.j 3 % O     .   .   ",
"  O     . .   + 7 S 8.f.w. .n 7 % O                   #                                                                 .                       .   # . .   .     . .   . .     X X X         . . O O       1 y I 8.g.a.-.J u ,     X   O                     % 7 n +.a.p.>.V 5 +                                                                                       O . O #   X     O O O O       . .   .   . .   .   .   .       .     . . .   . .   .   . .   .   .     . .     . . .     . .   .   .   .   .   . .   .     . . .   . .   #                   O O   X     O                           .                                                 O   X   . O O O O X X X           .         X X # #                                     #                                                                 O O * %     .         O . # . .       . .   .   .     . .     . . .     . .   .   .   . . .   .   .   . .   . .   .   . .   .   . . . . .   . .   .   . . . . . . .   . . #   O     X O O       O       #                                                                           O % 2 d >.c.f.=.x , O #       O O   X     # .     O 2 d U 1.p.p.>.K d 5 ; o X     # O O O   . X X         .   .   . . . . .   . .   . # X               O   #                                                                                     O 2 x >.c.c.,.j 2 %           .   ",
"X       .     O 5 S 8.f.a. .n 7 %                                                                                                   X     O O         .                             X X   X X     O O   X X O 5 n %.k.g.u.` j 2 O               X       X     % 7 M #.p.a.=.V 5 O                                                                                       . + O     X X X   O O O O   .                                                                                                                                                       O   O   X               O                                                                             . .   . O O     X   X # X . . # O O O X       O               .                           .   #   #     #                                             O O + O O     X     O                                                                                                                                               . . . .   O @     O O O   O   #   .                                                                               % 2 l >.c.c.=.x , O   .     O O               . O 5 x ..w.f.q.O.c 0 1 O   X X     O               O                                       X   X   # O                                                                                         O O 2 x =.c.c.>.x 2 % O       .     ",
".       . .   O 7 S ,.g.a.+.n 7 %                                                                                                                                                       X                   O ; 7 n =.p.a...x ,   O                           % 7 n +.a.p.=.V 5 O   .   X                                                                               .   #                                                                                                                                                                                   .         X                                                                                                                                                                   .       #                     .         X #                                 O         X . X                                                                             #                                                             X     .   . .                 O       .                                                                                   % 2 d -.c.c.=.x ,   #       O             .   O % 5 k  .d.g.>.S 7 = O O   X   X       .                                                 X             #                                                                                         O 2 x >.c.c.<.j 3 %         .     ",
"      .   .   O 7 S ,.f.a. .x 7 ;                                                           #     .                                                                               . .       O       .         % 2 j +.g.g.=.n 2   O   # .                     % 7 M +.w.a.=.V 5 O                                                                 #                                 #     #       . X                                                     X                                                                                                                                                                   #                                       . X                                                                       X     #                                   X       # X                                   .                                                                                                                         X                                                   X                                                                                       % 2 j >.c.f.=.x , O O .               .         % 2 l o.g.f.>.V 2           .   #     X                                                     X X           .                                                                                   O + 2 x >.c.c.>.j 2 % O         .   ",
"      .   . . O 7 S 8.f.p. .n 7 % O O                                                       #                                                                             .       .       O         .         % 5 j O.g.g.O.n ,   O O                         % 7 m +.q.p.=.S 5 %                                                                 #   X                 #       .                                     #                   # X               #           #                                   #       .                                                         #                                                                                         #                                           #   .         . X                                 #       .         .                     .       #                                       X                                                       X                                                                                           #             .                                                                       O     % 2 j >.c.f.=.x , . O                 . .     O % 5 j ..p.f.=.V 2                                                           .             .   #                                                                                                 O 2 x <.c.c.1.j 2 %         .     ",
"  O     .     O 7 S ,.g.a. .n 7 %                                                                                                                                                   .       O           O     % 2 j  .p.g.O.n , O O O                   X     % 7 M +.a.p.=.V 5 O   .                                                   X             .           X   .   # #   X                             X   # X     .                   .     .   # #                                                               # # X                                                                                           .                                                                                             X             #           #                     . X X O   #                               #   # X             X #                     #       X   X   .                                         .                                                   .                                                   X                                                                             % 2 d -.c.c.=.x , O .   .           .           % 2 d ..g.f.>.V ,                                                             #                                                                                                               O O 2 x =.c.c.>.j 2 % O         .   ",
"      . .     + 7 S 8.f.a. .c 7 %                                                             #                                                                                             O       X     O   % 2 j  .f.g.=.c ,   + O .                       % 7 x +.w.p.=.S 5 O   .                                                               #   .                 .               X         #       .       X                                             .   #                                             #                                                   X                                           #         #   .                                                                                                                                     X     . .       X #       .                                 .   X                             .                                       . .                                             .                                                                                                                                               % 2 d >.c.f.=.x 2 O   .               .   O     % 2 j  .a.f.>.V ,       X                                               .         .         X #         #                                                                                     # O 2 x <.c.c.1.x 2 %         . .   ",
"  O     .     O 5 S ,.f.a. .n 7 % O                                                             . X                                                                                                           % 2 j  .g.p.-.n ,   O O   .                     % 7 m #.a.p.=.V 5 O   .                                                                 X X     # #                     .   #                     .   #                 # #         .                   X                                 X         X     .                                             # #                                     # X       # X           X                                                                                                                                                                                       .                         #                                                             X                                             .                                                                                                                                   O   O % 2 l -.c.f.=.x ,   # .             .     #     % 2 j ..p.f.;.V 2                                                         # X                                                                                                                   O 2 x >.c.c.<.j 2 % O             ",
"      . . .   O 7 S ,.f.p. .n 7 %                                                           #   #                                                                                                   .         % 2 j  .g.g. .x 2 O O O     .             X     % 7 n +.a.p.>.V 5 O   O                                                               .   O X           #   X   # X O                   .                             .           X                                                                                                                             .     .                                                                                                                                                                                                                                                                                   .                                                                                                                                                                                                                                     % , j >.c.f.>.x , O O                   .     O % 2 j  .p.f.=.V ,     X                                                     #                                                                                                                 O O 2 x =.c.c.>.j 3 %         .     ",
"@       .     O 7 S ,.f.g. .c 7 % O                                                                                                                                                               .     O     % 2 l  .f.g.=.n ,   O O                         % 7 M #.p.a.=.V 5 O                                                         .                                                                                                                                                                           .   #                                           #                                     X   .     #     .                                                                                                                                                                                                                                                                                                                                                                                                                                                                                 % 2 j =.v.f.=.x 2 O   .     O           #     O % 2 d  .p.f.>.V ,     .                                                                                                                                                                       . O 2 x >.c.c.>.j 2 %         .     ",
"      .       O 7 S ,.g.p...n 7 %                   X #                                                                                                                                                 .     % 2 j +.g.a.=.n ,   O O                         % 7 n +.a.p.=.V 5 O .                                                             #                                                                                                                                                                                                                                                                                                                                                                                                                                                                                                                                                     #                                                                           X     #                                                                                                                     % , j >.c.g.=.x , O     .   O           .       % 2 j  .a.f.=.V , X                                                                                                   #                                                                         O 2 x >.c.c.=.x 2 % O       .     ",
"        . .   + 7 S <.f.g. .n 7 ; O                                                                                                                                                         O                 % 2 j  .f.g.=.n , O O .                         % 7 m +.w.p.=.V 5 O   .                                                                                                                                                                                                                                                                                                                                                                                                                                                                                                                                                                                                                                                                                                   .                                                                                                                     % 2 j =.c.f.=.x , O O .             . .   O   O % 2 l  .a.f.=.V ,               #                                           #       X                                                                                                         O + 2 x >.c.c.<.j 2 %         .     ",
"O       .     O 7 S ,.f.a. .n 7 %       .                                                                                                                                                   O       . .       % 5 j O.a.a.O.n 2   O O   .         X           % 7 M +.a.a.=.S 5 O                                                                                                                                                                                                                                                                                                                                                                                                                                                                                                                                                                                                                                                                                                 #                                                                                                                         O % 2 j =.v.c.=.x ,   O .               . .       % 5 d _ g.f.>.V 2       .                                                     #                                                                                                                 O 2 x <.c.c.,.l 2 %         .     ",
"      # .   . O 7 S ,.f.q...n 7 =                                                                                                                                                                             % 2 j +.p.g.O.c , O O . .                 X     % 7 n +.q.p.=.V 5 O       X                                                                                                                                                                                                                                                                                                                                                                                                                                                                                                                                                                                                               #                                                                             #                                                                                                                       % , l >.c.f.=.x ,   #   .   O           . O     % 2 f  .p.f.=.n 2                                                         .                                             .                                                                     O O 2 x =.c.c.>.j 2 % O             ",
"      .       O 7 S 8.g.a. .n 7 % O     #                                                                                                                                                                     % 2 j +.f.g.-.n ,   O O                         % 7 M +.a.p.=.V 5 O   O                                                                                                                                                                                                                                                                                                                                                                                                                                                                                                                                                                                                                                                                                                                                                                                                                     O   % , j >.c.f.=.x 2 O .                   O     O % 5 f  .a.f.>.V 2     #                                                       #                                                                                               #               # O 2 x <.c.c.<.j 2 %         .     ",
"        . .   + 5 S <.f.a.X.n 7 %       X             #                                                                                                                                                 O     % 5 j  .g.p.=.n , O O .   .                     % 7 m +.w.p.>.V 5 O   .                                                                                                                                                                                                                                                                                                                                                                                                                                                                                                                                                                                                               .                                                                             #                                                                                                                           % 2 j =.c.f.=.x ,   O   .             .         % 2 g  .p.f.;.V ,               X                                     X     #                                         .                                                                         O 2 x >.c.c.,.j 2 O O         .   ",
"  O   .   .   O 7 S ,.g.a. .n 7 % O                       #                                                                                                                                 .                 % 2 j +.p.g.O.n , . O O                   X     % 7 n +.w.p.>.V 5 O                                                               #                                                                                                                                                                                                                                                                                                                                                                                                                                                                                                                                                     # #                                                                             #                                                                                                                       % , j ,.c.c.=.x ,   O .     .   .     . .     O % 5 j  .p.p.>.Z ,                                                       #       #   .                                                                                                         O O 2 x >.c.c.>.j 2 % O       .     ",
"          .   O 7 S 1.f.a. .n 7 %                   .                                                                                                                                                 #       % 2 j  .g.g.O.n 2   O O                         % 7 M #.p.a.=.S 5 O   .                                                       #                                                                                                                                                                                                                                                                                                                                                                                                                                                                                                                                                                                                                                           #                                                             #                                                     O % 2 j =.c.f.=.x , O O .                 O       % 2 d  .p.f.=.V 2             .                                             #   X                                                                                           #                 . O 2 x >.c.c.>.j 2 O         O     ",
"O .         O ; 7 V 2.a.p.O.n 7 O     O           X       .                                                                                                                                                   % 5 j  .g.p.O.n , O O O                         % 9 M +.a.p.=.V 5 O                                                                                                                                                                                                                                                                                                                                                                                                                                                                                                                                                                                                                                                                                                                                                                                                                             % 2 j >.c.f.=.x , O                 .         O % 2 l  .a.f.=.V 2                                                             X #                                                                                                 O             . 1 x 7.c.c.<.l , O     . O O     ",
"# .           % 7 n +.a.p.=.V 5 @       O             X                                                                                                                                                 .     % 2 j +.f.g.=.n ,   O O   .               X     % 7 n +.p.p.=.V 5 O   O                                                           X                                                                                                                                                                                                                                                                                                                                                                                                                                                                                                                                                                                                                                                                                                                                                             % 2 j =.c.c.=.x , O O .               .   .     % 5 d ..p.f.>.n 2     .         X                                         .                                                                                                           O           , c 7.M.c.>.l , O   . . O O     ",
"+ +       X   % 7 n +.a.p.;.n 7 @                                                                                                                                                                     .       % 5 j +.a.g.=.n , O O O .                       % 7 M ..w.p.=.V 5 O                                                           # .                                                                                                                                                                                                                                                                                                                                                                                                                                                                                                                                                                                                                                                                                                                                                             O % 2 d 1.c.f.=.x ,         .             . .   O % 2 d  .a.f.=.V ,         .                                                                                                                                                                   X O 2 c ,.M.c.>.l , O   .     O O   ",
"O O     X   X O 5 n :.g.p.@.V 7 O                                                                                                                         .                                           . .     % 2 j  .f.a.=.c 2   O .     .                   % 7 m +.a.p.=.S 5 O   .                                                                                                                                                                                                                                                                                                                                                                                                                                                                                                                                                                                                                                                                                                                                                                                                                         % 2 j -.c.f.>.x , O # . .             .         % 5 f  .p.f.=.V 2                                                                   .                                                                                                           O 2 x >.c.c.>.l , O   .   O O     ",
". .       X X O 5 n #.f.f.O.V 7 %                         X                                                                                 #                                                       .   .     % 2 j  .g.p.-.x ,   O O                         % 7 m +.p.a.=.V 5 O                                                                                                                                                                                                                                                                                                                                                                                 # X                                                                                                                                                                                                                                                                                                                                                                 .                                                                       % 2 l >.c.g.=.x , O . O               .         % 2 l ..g.p.>.V ,             X                                                   X #                                                                                                         O % 2 n ,.c.f.>.j , % .       O O   ",
". . O       X O 5 n #.p.p.O.n 7 &     .               .   #                                                                                 # #   . #   # X                                             .     % 5 j O.p.g.O.x 2 O O O                         % 7 M +.w.p.>.V 5 O   #                                                                                                                                                                                                                                                                                                                                                                                                                                                                     # #         X                                                                                                                                                                                                                                                                                                                                       % , j -.c.f.=.x ,   +                   .     O % 2 j _ p.f.=.V ,                                                                                                                                                                         O O O % 2 x >.c.f.>.l 2 % .           O ",
". .         @ % 5 n #.a.p. .n 0 %                   O O O                                                                                   .             #                                             .     % 2 j  .g.g.-.n ,   O . .                     X % 7 n +.p.p.=.V 5 O                                                                                                                                                                                                                                                                                                                                                                                                 #                                   # .         #       .         . X         #           .                                                                                                                                                                                         X                                                 .                                                                                 O O % 2 d >.c.f.=.x , O # .             .           % 2 j  .a.f.>.V 2                                                         .                                                                                                               + % % O 2 x >.v.c.<.x 5 %   .         O ",
"  . . O O @ O % 7 n #.p.p. .n 7 % .     X             O                                             #   # #                                     #                                                     .       % 2 j +.p.p.=.x 2   O O     .                   % 7 m +.a.p.=.S 5 O   .                                                       #                                                                       O           O                                                                                                                                                                                                                                             .                                     X               X                                                                                                             #                                                                                                                       .                                                                                                                                   % 2 j >.c.c.=.x , O     .               # O     % 2 l _ g.f.=.n 2   X     #                                                           .                       .                                                                       O O O O O O , x >.c.c.8.x 2 % O             ",
".     O O O O = 7 V *.p.a. .n 7 * . . . X       O   O                                                                                                                                                         % 5 j O.g.p.O.n ,   O O                         % 7 c +.p.p.=.V 5 O   .   X                                                                                                           #       # O   O       O                                                                                                       #           #                                                                                                                                                                                                                                                                                                     #   O         O #   O #                                                                                 X     O         O   O #     O X .   #                           X                                                                                 % 2 d -.c.c.=.x ,   O   . .             .   O   % 2 j  .p.f.>.V , .                                                       #                                             #     #                                           X O O             O O O , x >.M.M.8.x 5 -               ",
". O   O       ; 7 n *.a.p.=.V 0 % O             . O                                                                                                                                                   . .     % 3 j +.p.g.=.n , O O O   .                     % 7 M +.w.a.>.V 5 O                                                                                         # #               #     #     O         # O                 O                                                                                                           # X                                                                                                                                                                                                                                                                                                 O       #                                                                                           O                           O                 #             .         #                                                                             % 2 j >.c.f.=.x , O   .                       O % 2 f _ g.f.=.V 2       X #                                                                                   .       X             #                                     O O O   X       .     @ 2 n 7.c.c.,.j 2 % O             ",
"+ O       X   O 5 c %.d.f.>.J y , O O   O # O # O                                                       . # #             #     # #                                                                 .         % 2 j +.a.g.=.n ,   + O                         % 7 n +.p.p.=.S 5 O .                                                                                         #           #   X   #   #   #   O     O #             O                                                                                             X #                 .                                                                                                                                                                                                                                                                                           O             O       O     O                                                                                 O   # O   #           X O #           #                     #                                                                                 O % 2 j >.c.f.=.x , O   .               .         % 5 j _ p.p.>.V ,                                                                                                               #                                   O O O % O O O   X X X   X   = 0 S 7.v.v.2.f 2 % +             ",
"% +   X     . O , f ) w.f.9.' n 8 = % % O O O #                                                                       .     #                                                                           .     % 5 j  .f.a.-.n ,   O O     .               X   % 7 n +.w.p.=.V 5 O   O                                                                                                                 O                     O                                                                                                       .     #       #                                                                                                                                                                                                                                                                                                   #   O   X O   #   O                                                                                 O       O       O   O O     # O                     #   X                                                                                           % 2 d -.c.c.=.x , O O .                 . O     % 2 d  .p.f.>.V ,                                                           X                                       #   . #           #                             O O % O O O       X   X X % 9 l ( r.v.d.` a 1 & O .           ",
"% +     .       = 0 V -.p.q.=.I p 5 , % % % # O O                                                       #   . # X                     #                                                                 .     % 2 j  .g.g.-.x , O O O   #                     % 7 m +.p.p.=.V 5 O   .                                                                                             .     #                     # # O O                 O                                                                                                           #                                                                                                                                                                                                                                                                                                   O   O   O #     O #                               .                                                 O   O       O   #       #   X O # #   X     #                                                                                                 O     % 2 d >.c.f.=.x 2   O .             . .       O % 5 f  .p.f.=.V 2         .                                                                                             X     .   .                           .   O O + O O O       X   @ O % 2 d I =.w.d.;.V 7 % O O O O         ",
"O           . . % 3 p ] w.p.q. .V y 2 % % + % O #                                                                     . #       o O                                                                   . O     % 2 j +.f.p.O.n ,   O   .                     X % 7 M +.w.g.=.V 5 O   .                                                                                     . # X               .   #       # O X           O                                                                                                       # #                                                                                                                                                                                                                                                                                                             O #                 O                                                                                                       #     O           #               .   X           #                                                                             % 2 l -.c.f.=.x ,   #   .               . .     % 2 l  .p.f.=.V ,                                                                                                   #         X       X                         . O O O O O   X       O = , 2 e C  .w.a.9.^ d , O # O O     X   . ",
"    X   . O . . + - 7 I >.p.f.7._ c 7 - % % O O     X                                                     X # # #   X                                                                                         % 2 j  .g.g.-.n ,   % . .                       % 7 M +.p.p.=.V 5 O   O                                                                                                 X #           #     O O         O                                                                                                           @   .       .       #                                                                                                                                                                                                                                                                                               O   O     O #           O                                                                               O O   O   O . O O O   O         #   #       X X                                                                                                 % , j >.c.f.>.x , O .     O           .       O % 2 j ..p.f.=.Z 2             X                                                     .                                   .           .                                               O ; 2 7 e c ` w.g.p.;.V w ;   . % %     X X   ",
"      X O % + . . O , v ' >.q.p.,.[ c u r 7 2 , 1 = = = = = = , , 2 2 , , , , , , , , = = = = = = = = ; = %             . . O       O                                                                 . .     % 2 j +.p.p.=.x 2   O O                   X     % 7 m +.w.p.=.V 5 O                                                         .                               #     X   O % = , , , , , , = % % O X   . .     O   O                                                                                                   X O % , 1 , , , = , = , = = = = = = , = = = , = = = , = = = , , = = = = = , = = = = = , = = = = = , = = = = = , = = = = = , = = = = , = = = , = = = , = = = , , = = = = = , = = = = = , = = = = = , = = = = = , = = = = , = = = = = , = = = , = = = , = = = , , = = = = = , = = = = = , = = = = = , = = = = , , , , = % % O .   O O   O O                                                                                     O O O O   O     O O O % = , , , , , , = % O             . .                                                                                   % 2 j =.v.f.=.x 2   O .               .         % 2 f _ g.f.;.V 2     #                                                       .                               #     O O % - , , 1 , = , = , = = = = = , = , = = = = = = = = ; % ; 1 2 0 p j C | 8.g.g.=.Y g , X   O + O           ",
"X       O % O . . X % 7 d J +.w.z.k.t.$./ V j d d p d d d d d d d j j j d d d d d j j d d p d p p p p p e , %     X X .     + O O O     O O O                                                         .   .   % 5 j +.p.g.=.n ,   O O                         % 7 n +.q.p.=.V 5 O . .                                                                             . .     # O       = 7 p j j d j x j y 0 2 %     X .   . + O   .   X                                                                                   .     . X   ; w p d j j d d d d p d d d d d p d d p d d d p d d d d d d d d d d d d d d d d d p d d d d p d d d p d p d d p d d d p d p d p p d d p p d d p p d d p p d d d d d d d p d d d d d d d d p d d d d d d d d d d p d d d d d d d d d d d d d d d d d d d d d d d d d d d d d d d p d d d d d d d d d d d p p p d d y 0 , O X     O O O O .                                                                             X   X O - - & O       O % = 5 r y p d j j d p 7 % X X   . . .       X                   #                                                           % 2 j >.c.g.=.x , O . .               .         % 5 j  .a.p.>.V ,     #                                                         #   O O O O             . . O O .   % = 5 y d d p p d d d p p d d d d d d d d d p d d d d d s p p d x V U o.-.8.k.k.-.D p 1 X       O             ",
"X     . O O O .       ; 5 d D +.w.g.g.g.8.-._ ` ( ' _ ] ` `  .X. . . ...` o. ... ... ...o.] ` ( ) ( ( / F p 7 2 ; %     . . + O O O   O     O                                                         .       % 2 j  .g.g.O.n , O O O   .               X     % 7 m +.p.p.=.V 5 O                                                                                 .   .   O % = 1 6 u m T ` ` ..X.@.o.T C d 0 2 O . . X . O O O                                                                                 X     . .   O = 1 6 t Z [ $.&.o. .] ] ] ] X.] ` ` ] ] ] ` ] ` ' ` ] ` ' ' ..'  .' ' ' ..' ..' ' ..' '  .` ' ' ` ' ' ` ` ' ..' ' ` ' ' ' ..' ' ` ' ]  .` ' ]  .' ' ]  .` ' ]  .' ' `  .'  ... .]  .' ` ..'  .]  .' ..' .. .' ` ..'  .]  .`  .' ' ' ]  ...' ..'  .' ]  ...' ..'  .' ' ' ..' ..' ' .. . .]  .' ` .. .' ` ..'  .o.` ` ` ` Y Z p 5 % O   O % O O                             #                                               X X X   . ; & O #   O % 2 7 y x T { ] o.o. .$.U n w 4 4 = O . . . + O X           X                                                                   % , j =.c.f.=.x , O O                   . O     % 2 l _ p.f.>.V ,                                                           #   X     O O         .     # + + % = 3 5 e l T ] o.] ' ] ] ' ` ] ] ` '  .`  .` ] ] ` ] ] ] ..] ] ] ] _  .@.7.w.g.g.a.-.K p 2 X X X     O O           ",
"  X   O O + O       X   = 7 p Z / :.q.h.h.j.p.p.s.s.p.p.p.q.q.p.p.p.p.q.q.q.p.a.a.p.a.a.w.q.q.7.q.w.a.w.>.^ S c y 2 % . X . O                                                                           .     % 2 j +.p.g.O.n 2   % O                         % 7 M #.w.a.=.V 5 O                                                                                   .   O = 3 0 j C U ..,.t.8.8.r.8.7.i.-.^ D f 7 =         O         O O                                                                       O O O O . % 2 e d M I  .,.t.u.w.q.p.p.p.p.p.p.p.p.p.p.p.p.p.p.p.p.p.p.p.p.p.p.p.p.p.p.a.p.p.p.p.p.f.p.p.p.p.p.p.p.p.p.p.p.p.p.p.p.p.p.p.p.p.p.p.p.p.p.p.p.p.p.p.p.p.p.p.p.p.p.p.p.p.p.p.p.p.p.p.p.p.p.p.p.p.p.p.p.p.p.p.p.p.p.p.p.p.p.p.p.f.p.p.p.p.p.p.p.p.p.p.p.p.p.p.p.p.p.p.p.p.p.a.p.p.p.p.p.p.p.p.p.p.p.p.p.p.p.p.p.p.p.g.a.a.w.8.-._ S j 9 = % O O O O                       .                                                   X   X       .       O 9 v J  .-.u.u.w.q.w.w.t.4. .I n l e 1 + O + & O O   .                 .                                                       O % 2 j =.n.c.=.x ,   O .               .       @ % 2 f ..g.f.=.V ,           .                                           # #       X #                 . O % % 2 0 l S ^ O.9.s.p.p.p.p.p.p.q.p.p.p.p.p.p.p.p.p.p.p.a.p.w.p.p.p.a.a.p.f.f.f.j.g.q. .S p 5 =   X X   O % O O         ",
"      O O % O     X X X   = 5 e j A X.<.e.h.h.c.c.f.p.p.p.s.p.p.f.f.f.f.p.p.p.f.f.g.f.f.f.f.f.f.g.v.v.c.g.w.2.` C y 2 % X         X                                                                   .       % 5 j  .g.g.O.c ,   O   .                       % 7 m #.a.f.=.S 5 O       X                                                                               % 2 p M / -.8.w.k.k.k.w.w.r.w.j.g.7.-.^ x 0 = O O       X   O % O                                             #   .                     O   O + % 2 e n ^ @.<.a.k.a.a.a.f.b.f.f.h.f.f.f.f.f.f.f.f.f.f.f.f.f.f.f.f.f.f.f.f.f.f.c.f.f.f.f.f.f.f.f.f.f.f.f.f.f.f.f.g.f.f.f.f.f.f.f.f.f.f.f.f.f.f.f.f.f.f.f.f.f.f.f.f.f.f.f.g.f.f.f.f.f.f.f.f.f.f.f.f.f.f.f.c.f.f.f.f.f.f.f.f.f.f.f.f.f.f.f.f.f.f.f.f.f.f.f.f.f.f.f.f.f.f.f.f.f.f.c.f.f.f.f.f.f.f.f.f.f.f.f.f.f.f.f.f.f.f.f.g.g.g.g.a.w.,.` v 0 , = % % % O                                                                                   . . X X % 9 l ] 8.a.v.g.g.g.g.a.w.u.a.w.<.@.( V y 2 % % + O O @                   X                                                         % , j >.c.f.=.x ,   #   . .             .       O 5 j _ p.f.=.V 2                                                             X .               O       O % 2 y n _ =.q.s.f.f.f.b.c.h.b.h.f.f.f.f.f.f.f.f.f.f.f.f.g.p.p.g.p.f.f.f.f.g.p.q.7.O.^ x y 2 = O     # O % % % O O       ",
"        O O O           X   % = 2 0 l V ~ X.=.0.>.=.1.O. .O.#.=.@.=.O.=.=.>.>.<.>.>.7.>.<.<.,.8.7.q.q.g.g.x.z.u.-.S p 2 %     X X                                                                             % 5 j +.p.g.O.n ,   O +   .                 X   % 7 m +.w.p.=.V 5 O   O                                                                             X   X ; y S  .0.d.a.k.a.w.,.-.+.+.<.q.f.f.a.0. .C y 2 % O O X X . O O O .                                                                   X X     % 3 r V  .q.p.h.j.a.8.=.=.<.0.<.1.>.1.=.>.;.>.=.=.=.=.>.=.;.>.=.>.>.>.=.=.=.>.=.>.,.=.=.>.>.=.>.=.>.=.1.-.=.=.>.=.=.>.=.=.>.=.=.>.=.>.=.=.=.=.>.=.>.=.=.>.=.=.>.=.>.=.=.>.=.=.>.=.=.>.=.>.=.=.>.=.,.=.=.=.=.>.=.=.=.>.=.=.,.=.=.>.=.=.>.=.=.>.=.=.>.>.=.=.=.>.=.=.>.=.>.=.=.>.=.>.,.=.=.>.>.=.=.>.=.>.=.=.>.>.=.=.-.=.>.<.>.=.1.7.g.v.v.8.` V r 2 = % % O                                                                           O O   X X X   = t n _ >.f.c.v.r.>.8.0.4.-.8.a.g.f.p.7. .V e 2 %     X                                                                           O   % 2 j >.c.f.=.x 2 O .                 .       O % 2 j ..g.p.>.V ,             X                                                         .     .   O O % % 2 s S X.8.p.c.f.r.1.>.>.>.=.=.-.;.=.=.=.-.=.=.=.=.>.1.=.+. .o.o. .-.-.=.,.=.#.Y V j y 5 % O @       O O O O O O         ",
"    O O O O O   .         X   X % = 2 w s x V V V n x x x x x n x x x x n n n n V n n V V V V S S S I ^ +.8.k.g.u.2.C y 2 % O     X                                                                   . .     % 2 j  .g.g.=.n 2 O O .                         % 7 n +.p.f.=.V 5 O   .     X                                               X                   #     % 1 e V  .w.a.a.,.-. .^ J n n n S O.>.9.q.a.w...S y 2 % O   X       O       .                                           #               .   X   & 5 p C ..q.h.q.q.=.X.I S V V n n n n n n n n n n n n n n n n n n n n n n n n n n n n n n n n n n n n n n n n n n n n n n n n n n n n n n n n n n n n n n n n n n n n n n n n n n n n n n n n n n n n n n n n n n n n n n n n n n n n n n n n n n n n n n n n n n n n n n n n n n n n n n n n n n n n n n n n n n n n n n n V V J ( ,.g.g.g.w. .V y 5 = %                                                                           O + . # o   O 4 i Z  .>.s.q.q.=.` J V n V S I ..=.7.p.f.7. .V u 2 O X X X #                                                                           % , j =.c.f.=.x ,   O   . .             .     O % 2 d _ p.f.=.V 2                     .                                               .   .     O O % ; 2 i A  .q.f.h.e.;.I S V V n V n n n n n n n n n n n n n n x j j j x n V V n n j p w 5 =             O     O .             ",
"    O     O .             X   O   O O % - , , , , , , , , 2 3 , , = = = ; , , , , 1 , , 1 , 1 2 5 7 0 i z Z _ 8.z.u.+.D y 2 % X     O O                                                             .   .     % 2 j +.p.a.O.x ,   O O   .                     % 7 c +.w.p.=.V 7 O                                                           .         .           O 2 s S O.a.g.q.@.J V l y 0 5 2 , 7 v V J X.7.g.a.-.K i 2 %         .                                               #                     X   . O 3 a K +.w.g.p.@.Y M d i w 2 = = , , , 3 , 3 , , 2 , , 3 , , , 3 , , 1 , , , , 2 , , , 2 , , , , , 2 , , , , , 2 2 , , , , 2 2 , , , 2 , , , , 2 , , , , 2 , , 2 , , , , , , , 2 , , , , , 2 2 , 2 , , , , 2 2 , , , , 2 , , , , , 2 , 2 , , , , 2 , , , , 2 , , , 2 , , , 1 , 2 , , , 2 , , 2 , , , , 2 , , , , 2 , , , , , , 5 0 s Z ( >.a.g.w. .Z s , O                         #                                                   + + + O   1 s J O.w.p.9.O.F x p 7 , ; , 7 e l Z L @.q.f.w.-.K s 2 O   X . #                                                                         % 2 j ,.c.c.=.x ,   O .               .   O     % 5 j  .g.f.>.V ,   .     #                                                 #         . .   .       O 1 t V  .w.j.p.<.( v t 5 5 3 5 3 , 2 , , , , , , , , , 2 2 2 2 2 2 2 2 2 2 2 2 3 = % O       X       O O . .               X ",
"              O . O O . O O O     X     . .     . .     . O O   .                                 O % = 2 e n O.w.g.w.#.Z e ; O     O % O                                                                     % 5 j  .g.p.-.n 2 O O .                   X     % 7 M +.p.p.=.V 5 O   .                                                                     X     O = 9 V O.a.j.p.@.I p 7 2 = = O @   % 9 e y V O.w.g.w.o.b w = @ X X   .                                                 .               .   #     ; e V &.a.g.a.@.Z y 7 2 = % @ X X             .           .                 .                                                                                           .                                                 .                                                                                 .                 X O = 2 0 p J O.a.g.w.+.m 9 O                         .                                                 . . + % % % 7 V 1.g.g.q.X.n e 2 1 % X X   % = 2 7 y V  .a.g.a.#.C e ;   # #                   #                                                     O % , j =.c.f.=.x , O O .                 .       % 2 l ` p.f.=.n 2 X                                                           X .       . . O       * 5 N o.w.g.q.@.L y 2 = + . O O + .   .         .                 O   O   O       .     .         O O O O       .             ",
"                  . O O % O O O O % - - O #       .     O O O O               .   .     .   .     . O % = 1 0 S =.g.g.8.I d 5 %   O + % O                                                                     % 5 j +.p.g.O.c ,   O O                         % 7 n +.a.p.=.V 5 O                                                                               O , y ) 8.g.g.1.V p 5 ; % O O O     O % 1 , 0 S -.a.k.,.K f 2 O   X                                                                   #   #   X   2 d I >.p.a.+.V 0 , % * % % O .     # .       .             O                         .       .     . .                 .     .     . .     . .     .     .       . .       . .             .       .       .   .     .       .             . .     .     .   .     .       .         .       .     . .         . .       .   . # O % - 2 y S 1.g.g.w.I p , O                                                                           . . O % , y ^ q.g.g.1.V 0 , @         O % % O % 4 0 V :.a.g.8.U a , O                                                                           O   % 2 j >.c.c.=.x , O . . .             . .     O % 2 l  .a.f.>.V ,         #                                                   .     O O O   O #   O 1 y / 8.z.g.=.S y = O O O O # . O #                                         .   . . .   + O .     % O O .     .       O O     ",
"O O         .     . O + O + O + % % = = O           O O O O               .   .     .     .   .     O + O @ 2 d ` 7.g.a.O.S e , O O O O O                                                             . .     % 5 j +.p.g.O.n , O O O   .                     % 7 n o.a.p.=.V 5 O   .                                                                       X   % w x +.a.g.8.` s 5 % O     .   . O   O   @ , f U t.k.w.+.C 0 = X   X O #                                                                     O % w V O.g.p.0.T p 2 %         . .                           .         # . .   . . . . . . . .   . . . .   . . . . . . . . . .   . . . . . . .   .     . . . . . . . .   . .   . . . . . . . . . . .   . . . . . . . .   . . . . . . . . . . . .   .   . . . . . . . .   . . . . . . . . . . .   . . . . . . .   .     .   . . .   . + +   % 5 d ` w.g.a.O.n 7 %                                                                             # @ = w v +.g.g.u.` s , O .   .             X % 2 d ) 1.g.d.+.V 8 %                                                                               % 2 j =.c.f.=.x , O     .                   .   % 2 j ` p.p.=.V 2       X             X                                                 O O O @ O ; 0 c -.g.z.u./ p 2     # O O O O .           .               X         .       . X     . + + O O O O O + .             O O O   ",
"O O                       O .     O       X X   X   O   O           O O   O .                       O O O O ; e n  .q.g.0.) s , O                                                                             % 2 j O.g.g.O.n 2 . O .                     X   % 0 m +.a.p.=.V 5 O     .                                                           #             , j / 8.g.a.+.C 9 % X   .   .     O O . o   % 7 c $.a.z.w.` d 2 @ X     O         X                                                         # % 2 s _ w.c.f.@.M w = O   .   . . .             X                 X             . .               .               .               .                       .                             X               . .                   .                             .                     .               .                       .       . + + + O O % 9 V =.p.g.0.U f 1                                                                         .     O , s Y 0.g.w.+.C 9 % + O . . . . .   X     O , 0 M =.g.g.u.| a , *                                                                             % 2 d 1.c.f.=.x , O #               . .       O % 5 l  .g.f.>.V ,                                                                 X   O   O + O O 2 f [ u.N.k...M 5 % O # O         X               X X     X                 .       X     O         O O O           O % % % O   ",
"O O                                       X       O O O     X       O   O     O O O                 X   O O % 5 p I 7.p.d.o.l 5 %                                                                     . .     % 5 j +.p.g.=.x ,   O O       O                 % 7 n +.w.p.=.S 5 O .                                                                       #     , V -.g.g.,.I p 1   X . #   . . . . O . . .   1 y U 8.v.N.1.M 5 O X     O                                                                     % 2 l  .j.c.q.^ y , = +     . . . . .   X                 X     X                             X           X                   X                       .                       .                                       X               X               .                     .                 X               X     .           # . . + + . O O 2 d ^ >.f.d.+.x ,                                                                                 2 n o.w.a.,.I p , . O . . O .       X     O % , y ^ q.c.v.*.f 2 % O                                                                         O % 2 j -.c.c.=.x ,   O                       O   % 5 d  .p.f.=.V 2         .                                                 # X         O   O O % 7 C *.k.g.8.I y = O + + O   O .     X   X                   @     X   X   X     O   O         X         O         O O = % % O   ",
"  O                               .           . O O O O O         O O           O   O               X   O O % , 0 V >.p.a.:.j 5 %                                                                     .       % 2 j  .g.p.-.n , O O O                     X   % 7 m #.a.p.>.V 5 O                                                           #                   2 V =.g.a. .j 7 % X     . . . + O . # . .     % 7 S 8.v.v.,.n 5 % X   .       .   #                                                         X % , d #.p.f.>.V 5 % % - +   . . . . . . O O   O O O   O O   O O   O   O   O     O     O   O   O       O   O   O O   O O   O   O     O O   O O O   O   O O   O O   O   O O O   O O     O   O   O O     O       O   O   O O     O       O   O   O O     O       O   O   O O   O O       O   O   O       O   O   O       O   O           . . . . O 1 e n -.a.a.+.n 3                                                                               O 5 n @.a.a. .n 0 =         .   # X       O % % % 5 S >.c.f...s 2 +                                                                             % 2 l 1.c.g.=.x , . O .               .   O   O % 2 f  .p.f.=.V ,                                                             #     O   O   .   = 0 C 3.a.a.O.n 0 =   & & & + O O O O O .   O   O   O O O O             . X   O O O O   X X   X X           O       O O % % O O   ",
"                            .             #   O O O O       O     O                                     . O % % 5 n =.g.g.-.l 5 =       X                   .                                         . .     % 2 j +.f.a.=.n ,   O +     .                   % 7 n o.w.p.>.V 5 O   O                                                                       .   2 S 1.s.8.` d 2 O O # + . . + # #   . # + .   O 5 n 1.v.g.-.n 5 O     O . .                                                               .   % , s #.f.f.;.n , . O + + O   X         O O   O   O O     O   O O O     O     O     O       O       O       O   O O   O   O O O   O   O   O   O   O O     O   O O O     O O O     O     O         O O       O O           O O       O O           O O       O O           O     O   O       O       O       O       O       O           # .     % 5 x o.a.g.,.V 2 O                                                                         .   ; 7 V =.g.a...x 0 ; O       .           O + + #   , n =.h.p. .f 2 %                                                                             % 2 d =.c.f.=.x , O O                   .       % 5 l  .g.f.>.V ,                     .                                                   X   O = 0 C +.a.w. .x 7 % O + # % O O O # O O   O   O     O O O O O O O                 O O O     X               O         O     O     ",
"            O             O   O           O O O     X                             O   O                 . . . . , n 8.v.g.1.j 5 = + #                                                                   .     % 2 j +.a.g.=.c , O O     .             O   X   % 7 n  .a.p.=.V 5 O   .                                                                           2 V =.r.0.( l 5 =   . + . . O   X X X O +     @ 2 v =.a.a. .g , * O O + +                                                                 O . % 2 j =.f.f.<.l ; X . . O O % O @   X                                                                                                                                                                                                                                                                                             . X O   . X X O 5 l o.d.g.,.S 5 O                                                                             O 7 S -.a.w. .x 8 ;       .   X   X   O O O . . . = n <.f.f.@.d 2 %                                                                           O % 2 j =.c.c.=.x ,   O .                         % 5 j ` p.f.=.Z 2     #       X                                                               X % 0 C +.q.q. .n 0 %   . . . X   #   .                         O O .             # O           X         O                         ",
"              O   O O O O   O         X O O O         X X     X   X   X   .       . O                 #     # O 2 n 8.M.v.1.x 3 % O   O                                                               .   O   % 2 d ..p.p.-.S 7 = % O       .                 = e C -.a.p.=.V 5 O                                                             X   .             2 S >.q.9.` l 5 =   O . O . .           O     O 2 n O.f.p.+.s , % O # & O                                                                     % 2 j #.f.c.8.n , . . . O O O O   X             X         X       X     X               X               X                                               .                       .           .           X           .         .               X           X       X       X             X               X             X       X     O   O .     ; 9 n +.a.a.,.S 5 O                                                                               5 V =.a.w. .x 0 %   X X   O     O O O O .   .   % v ;.f.h.:.l 2 %                                                                             O 2 j =.v.c.>.n 5 O #   .           . . . O O O = 7 n  .g.f.=.V 2         O                                                 #             . X   @ 7 n +.q.p.@.F y ; . . . . X X X   X X         X   X         .     . .   .       .       .               O   O     X             ",
"                        O         X     O O O O   X   X X X           X                       X     X       . , i Y e.c.f.;.x 5 +   .       O             X                                           O O O O % , i ( q.g.8._ x 0 , O O   + & * @     .     O 2 d ^ 8.f.a.+.m 2 O     O + O                                                                     2 V >.p.q._ g 5 % O .   . .             .     O 2 x >.f.f.;.d , % . O . .                                                                     % 2 l #.g.c.q.^ p 2 O . . O . . X   X X           X     X     X                                                     X   X X X X     O O O O         X         X O   O                         O             .   .               #                                                                                                 X   .   . . % 7 j I >.g.g.=.V 5 %                                                                             # 2 V =.s.p.X.x 5 %     X           .   O       X , x >.f.f.O.j 2 %                 #                                                           O 5 c -.v.m.q.I s 2 O   . . . O   . . + & & + % 5 l ^ 9.f.f.=.S 2     . O     O   O                                                   O O   X . O 3 x #.q.f.9.' g 1     .         X X X   X                                       X   X       O             O % O O   X       O O ",
"        O                 O   . .     .   O O     X         X     X       X         O         .             = w n X.s.b.s.X.d 2 . . .     O X               #                                           O O O % - r P >.f.g.-.J d , @ # O + % % O       o O = 0 V ;.s.f.>.( f ,   . . O O O                                                                   X 2 V >.f.a...j 2 %       .       X   O       O O 2 x >.f.f.;.d , %                                                                           @ O = s ' q.f.p.@.V e % . . . .         X                                     X     X                 .                   .   X     O O O O O   O . .   X       O O O   X                           O           .     #   .     X O           .                     .   X                                                       X       O . . + , e S -.p.p.8.^ j 2 O                     #                                                       O 2 V =.f.p.X.v 5 % .                   O       . , n >.f.f.O.f 2 %                                                                               2 f ` a.c.s.@.M w ; . . . O O + . + + + + O = t F ;.q.f.r.` x , O O   O   O O       O                                     .         % O O   X   , d ) 7.f.p.;.Z w ; O o O @ O                   X                   X     O O     X         O O +   .   X O O % O           O O ",
"      O O O           O % O O X X     .   . . . O O O .         O   O     .   .   .     . .       . O O % = 5 j ^ >.f.f.=.J t = #   . .     X                                                         O   O O % + 5 n @.q.p.,.U s = X     O O   .       . % 5 j _ d.n.p.O.m w =     .   O                                                             .         2 V >.g.a.` d 2 %     O .     .               O 2 x >.f.c.=.d 2 O                                                                 .       . # O O 5 m  .q.s.8.^ d =   # + O O O O         .         .     .   .   .       .               .   .   .       O . O   #   O O + + O .     . .   . - %         . O       X                               O O   O O   . O O   .   . .     .     .     O O     O         .           .   # .     #       #       #       .       .   O O O O .   O 2 p ` w.g.q.' x 7 O                       #                                                       . 2 V =.p.p.X.l 5 %                   .           , n >.f.f.@.j 2 %                                                                             O % 0 C  .p.f.9.( l 5 % O .     # . O + #     , s ( 8.p.w.o.x 9 =     O           O                                             X     O         O % 0 n =.p.c.r._ j 5 %   # . . O O . .                     . . . . .         O     .   .   . + + + O   . .     O X     X         ",
"    O % O           O O O O O O O O .   . . . . + + % O O .       O O .           .             O O - ; , 5 a J =.p.f.9.^ j 5 %                                                                           O O % % 2 d ^ 8.g.7._ N w % % O O O O   X   + % 5 d J =.p.p.1.) p 2 O   O O #                                                                   #     , V >.f.a...j 2 % O   .   .     .         . . O 2 n >.c.f.;.l , %                                                           #                 X O 3 p U 1.r.q.O.S w ; % % = & * O   . .   .     .                 .         .     . .                   # O O .     . . + % % + + . . . .     % % O .     O O O         O           O   O           O O + O O O O O . . . .   .   .           .           #         .   .                   .       .       .       #         O O O % O % 3 y S >.f.p.;.F y ,                                                                                   2 V =.f.p. .l 7 %                     O       X , n >.f.f.O.f 2 %                                                                               O 2 p J >.s.p.;.S y 5 = % X X   O O O % % , e M #.d.a.,.J t = O O     O O O   O                                               #     X           O , y Y 0.h.g.1.J p 2 % O O O O O + O . .   .       O   .   . .     .     . O   .   . . . . + & % + O .   .   X                 ",
"    O O O O       O O O O       # O + O .   O O O % O               O                         O + % = 3 0 d S -.a.g.w.#.n w = O     .                                                                     O O O O , e V ;.p.g.8.#.A y 0 5 , = O     % 4 0 d I =.p.f.9.) b 5 % O   O O   X X                                                     #               2 V >.f.g.` f 5 %     #                   . O O , x >.f.f.=.j 2 %   .                                                                     X   O & - 0 m ..w.f.q.@.V s 7 2 , ; = O   X                                                 O                   O O       .     . O . .             O O #     O % O               O       O O           O % % O O       O   #                       X                                                                                   O ; , 7 d I >.p.h.9.X.n w = O +                   #                                                         # 2 V ;.f.p.X.l 5 % .             . .   .         = n >.f.f.#.j 2 %                                                                       O   O O   % 7 l X.q.p.q.O.S j y 5 % X X O O = 2 0 d J O.p.v.k...v 5 % O O   O         O                                             #       X             % 5 b ` r.j.g.-.J p 7 = % O O O O   O O       .   O     O                 O % % + O   . . o . O O #   .       .               ",
"    O O O         O O O     X     % - , 1 2 2 5 5 5 2 3 , = = = , 2 2 2 2 2 2 2 , , , , , , 2 2 5 0 e p B U -.u.z.w.+.C e ; O                               X                                               O   O % 5 s S O.w.a.8.+.^ P x p 7 2 1 5 e f C ^ >.w.g.r.X.n e ;   #   O O X                                                                         , V =.f.a. .d 2 % O O   .             X     O . 2 n ,.c.f.=.d , O                                                                         #     + - 3 p Z +.e.c.p.@.Y M s 0 7 5 5 5 2 2 2 2 , 2 , 2 2 2 , 2 2 1 , 2 2 2 2 2 2 2 2 2 2 2 2 2 2 2 2 2 2 2 2 5 5 2 , - - , , , 5 2 2 , , = % % O +         O O O # X X     O O O     O O             O O % O X X   O % ; = , 2 2 2 2 2 2 , , , = = = = 1 , , 2 2 2 2 2 2 2 2 2 2 2 2 2 2 2 2 2 2 2 2 2 2 2 2 2 2 2 2 2 2 2 2 2 , , , 2 0 d V ^ >.f.f.e.X.Z y 2 + + +                                                                               2 V =.p.s.X.x 5 %                               , n >.f.f.O.j 2 O                                                                           O .   O , r A X.q.p.q.=.^ S l 0 2 2 2 7 e d Z ^ >.p.g.d.+.S u , + O   O   O O       O                                                     X @ O         ; t Z  .r.j.a.-.U M e 7 7 5 5 5 2 2 2 2 5 2 2 2 2 5 2 2 2 2 , , = , , 2 2 5 7 5 5 , % + O     O       .     #               ",
"    O O           O O           % , 7 e d n V S J S S S V V n V V V V V V V S V V V n V n V V V J J ^  .#.7.d.a.t.` n 0 =   O @ O O       O                                                                       % % 2 e V ` 7.a.a.w.7.O.^ S V n S / ..t.w.p.g.r.X.M t 1 % O O O     X X                                                                       2 V =.f.a.` d 2 % O     .   .             . . O 2 n =.f.c.=.l , %     .                                                   .                 . . . . % 2 y V @.p.v.g.w.-.` J n n V V V V V V V n V V V V V V V V V V V V V V S V V V V V V V V V V V V V V V V V V V V n V V S S V V x d i 7 1 %   X       O % O       X                             O     X     = 2 e p j x n V S S S S V V V V V S S S S V V V S V V V S V V V V V V V V V V V V V V V V V V S V V V V V V n n x n I  .8.w.g.g.9. .V e 2 % O + . .                                                                           # 2 V =.f.p.X.l 7 %     X             . O         , n >.f.f. .j 2 O #                 #                                                     O O .   O O 2 y V _ 8.p.a.w.>. .F n n V V U  .8.a.j.f.7. .S y 2 % O   O       O     O                                                   X   X   .   .   O % 2 i V  .8.g.a.w.-.^ J S S S S V V V V V V V V S V S V V V C V n n x x n V V S n j y 2 = O     . X     O + O O . O         ",
"        X         O     X   O , 7 y l F ~ #.1.8.8.r.8.<.1.,.<.<.1.=.1.<.=.=.<.<.<.<.<.<.<.=.<.9.7.q.q.a.d.a.w.,.` n 0 =   X X   O O         #               .                                                   @     @ , e M ` 4.x.g.v.g.8.,.1.4.4.w.z.g.g.g.,.^ n e 2 % O O O . #                                                                         #   2 V >.g.a. .l 2 %         .         O         O , c >.c.f.=.d 2 %                                                                               .     % 2 t V +.w.g.z.g.w.-.#.#.;.1.1.<.<.1.<.<.>.<.=.<.<.=.<.>.<.<.=.>.<.<.=.<.=.<.>.<.<.<.<.<.=.<.<.<.1.1.=.1.<.>.,.<.1.>.r.0.r.0.6.o.L n y 5 %   X     % O O   X       O             O           O   X X X ; 7 y n I ] #.:.<.8.7.9.9.<.9.=.<.8.7.q.7.<.>.<.<.<.>.=.<.>.<.=.<.<.>.<.<.<.<.=.<.>.<.<.<.<.=.<.=.=.<.<.<.<.<.1.#.#.-.,.a.z.v.g.8.X.V e 1 O .     .                                                                             O 2 V =.p.s.X.x 5 %                               , n >.f.f.+.k 2 % O                                                                         O O       = 2 y V ' >.w.g.g.a.0.1.1.=.-.1.w.a.g.g.r...S y 2 % O . O . O O       .                                               .                 . .   O % 2 y V ..8.a.g.g.q.8.9.8.<.9.0.0.<.=.<.>.<.<.<.<.<.<.9.9.8.8.<.=.#.@.#.;.1.,.1.o.L l 0 5 , O X X X O & % % O .     O     ",
"                      X   O 2 y C U _ ;.9.e.s.f.f.p.p.p.f.f.f.f.f.p.s.p.p.a.p.f.j.f.f.c.f.f.f.g.f.g.g.c.p.9.@.U j 0 = #   X   O % O                                                                               .   X   ; 7 f K +.u.g.g.g.g.g.f.v.v.g.g.u.-./ l 0 ; O O + + O   . .                                                     #                     2 V =.f.a.` j 2 % O     .   .   X           . O 2 n >.f.f.=.d , O                                                       #                   . X   . X O O ; 7 d K +.u.N.N.g.q.p.f.f.p.f.g.f.f.f.f.f.f.f.f.f.f.g.f.f.f.f.f.f.f.g.f.f.f.g.f.f.f.f.f.f.f.f.a.p.q.p.f.f.f.c.g.f.p.f.f.f.f.p.9.@.^ c e , %   X   O O .   X                                     * 2 r C ) -.q.d.w.p.p.p.f.g.f.f.j.c.f.c.c.v.c.g.f.f.a.f.g.p.f.g.f.f.f.f.f.f.f.f.f.a.f.f.f.f.g.f.f.f.f.f.f.f.g.f.f.f.p.p.p.f.g.a.t.-./ d 6 ; % O                             #                                                       . 2 V =.f.p.X.l 5 %           X   .     .         , n >.f.f.@.j , %                     .                                                       + O #   O ; 1 e n ^ :.r.q.g.g.g.g.g.g.a.w.7.1.#.Y x e 1 % O O . O         @ #         .                                     .       #   O X   .   O % % O O 1 0 x ( -.w.a.g.f.f.g.p.f.p.g.p.p.p.g.f.f.p.g.f.f.f.c.c.f.f.f.p.q.s.p.f.f.f.p.7.@.Y M u 2 O       O * + O   O   O O   ",
"                        ; 5 a K &.8.w.p.q.e.q.r.r.9.e.r.s.p.f.d.d.r.r.9.r.7.r.a.a.g.g.a.a.a.d.w.r.w.w.7.>.I V p 7 , O X . .   O O O O       .                                                                   .   . . . O = 5 y n I +.8.w.a.a.w.w.w.8.O./ S d 7 ;       % % % O         .                                                         X           2 V >.f.a. .d 2 % O         .   .   O     #   O , n ,.f.c.=.l , %   .                                                                 . X             X   X O 5 u C / 2.u.t.r.r.r.d.a.a.r.a.w.w.w.r.d.w.a.w.w.r.w.r.d.w.w.a.w.r.r.a.a.w.w.r.r.w.w.a.w.w.r.9.r.q.q.a.s.p.r.s.q.q.q.p.p.f.f.p.>.} H s 5 % O O X O O   O                 O O             O % 2 y Z ..t.a.v.g.g.w.w.r.7.r.r.w.a.g.a.a.a.w.r.r.w.a.w.w.w.d.a.r.a.w.w.w.w.w.w.w.a.d.r.w.a.w.r.r.w.w.w.r.a.a.w.w.r.w.d.s.r.q.1.+./ D k 5 O   X X     X                     #                                                         O 2 V >.p.p.X.x 5 %                 .   O         , n >.f.f.O.j 2 %                 #                                                           O   . X X   % , 0 d V ^  .0.w.a.k.d.u.0.-._ S n d 7 , O X .   .   O                                                                   O         . O % O     @ ; 0 d S ^  .r.w.r.a.w.r.r.w.w.r.w.r.w.w.d.r.r.r.r.e.e.r.s.s.e.r.9.r.w.p.g.n.c.a.9.o.K s 5 %   X O O O .   . O O O   ",
"                  X   O 5 d I 2.k.N.v.g.7. .( I J P P Y U ^ ^ I I U U I I U / ^ / _ ` / ^ / / Y U J J S n y 7 1 % @ .   # . O O O O O O                                                                       .   .   # % % % - 2 5 e v V J I I L F F M d y 7 2 O     X   + & + . .   .                                                                         , V >.g.a...d 2 %     O .             X     . O , n -.c.f.=.d 2 %       .                                               #                     O   @ O O   X   O , 5 p n K U L I Y ( I / ^ U I / / I U ^ ^ U ^ U I / U ^ ^ U / I / ^ U ^ ^ U / I ^ U U ^ ^ U I I U I ^ U U I Y L I _ O.7.j.v.v.a.4.U j 7 ; O   @ O O % O O O     O   O             O O = 9 d K +.u.N.B.z.w.-._ I Z D A J U ^ / / U U J K U I / ^ ^ U I / ^ U I / ^ U ^ / U ^ ^ U ^ U U ^ ^ U ^ / / ^ U ^ / I ^ ( ( Y L V j y 5 , % O       X   O                                                                               . 2 V =.p.p.X.x 5 % #                             , n >.f.f. .j 2 %                                                                           O O       X   X % % , 5 y x J K U / ^ U P b s e 5 2 % O       . O     O   O                                                               O   X     O % O     X   % 2 7 e l S U / I U U I I U I U U I U U I U I F F F L L U Y J U I ^ ( +.,.k.g.g.a.4.T d 5 % X           .   O     ",
"      . O O       X % 5 s J -.w.g.g.u.&.I n d e e e y p p p y p p p y y y y y p p d d d d p y y y e e e 7 , O X           O O     O                                                                                   . + % - O O O = 5 w e y e e 0 7 9 2 % O       X .   O & O .   .   .                                                           .     #   X 2 V >.f.a.` f 5 %     . .   .               . O 2 n >.f.f.=.l , %                                                                               O O         .     O , 0 e y y p y p p p y p p y p p p y p y p y p p y p p y p y y p p y y p p p y p p y y y y y y p p p p y y y y d n U +.8.k.v.z.4.J d 5 % @   O % % O O             O O O O     O = 7 d J -.k.g.a.8.2./ V j y 0 0 0 e y p p p y y 0 e y p p y p p p p y p p y y p p y p p y p p y p y p p y p y p p y p p p y p y e 7 5 = O   O   #       X   O                                                                               2 V =.f.p.X.l 5 %                 . .         X , n >.f.f.O.j 2 O                                                                           O O               X   O = 7 y y y p y y 0 9 , = = O     X       O             O                                                                     . O O   X X X     % = 2 0 y y y y y y y e e y y y y p p y e 0 0 e e y y y p p y p d n I ..4.u.g.a.-.J d 5 % X   . .   O         ",
"      . O O .     O 4 d K -.d.g.q. .C f e 5 - % % = = , , , , = = = - % % = = = , = ; , = = % % O % % O O             O O O       O                                                                 O               . .   + O O     . O % = = = % % % O           X .       O O                                                                 #               2 V >.f.g...d 5 %       .           O       O O 2 n =.c.f.;.d , O .                                                                             O         X       X   % = , , , , , = = ; = % = = % ; = % = ; = = % ; = % = ; = = = % = = = % = ; = % = % = = - = = , , , , = = ; , 5 e h C ` a.v.a.-.K s 5 * O @ O % O                   O O     % 5 d U -.a.g.7. .S k y 7 , O       % % , , , 1 = % % % = % = = = % = ; = % = = = % = = = % = = % = = % = = ; = = = ; = = % = = = % % O O O O     #                                                                                     X   # 2 V >.p.s.X.x 5 %                 .   O         , n =.f.f.+.j 2 %                     #                                                 .   O         X         X X   % , , , ; = % % O % O O     X   X                                                                                         O                   X   O = % = % % % % % % = % = % = % = = % = = = = , , 2 , = = 1 5 e k D ` 8.p.p.=.J d 2 @ X     .   O       ",
".   .   O O O   O = e Z O.w.g.9.X.n 7 , % %             O O                                                 .       O O O O           O                                                                                     O O                 .       X   .   .   .                                                                                           , V =.f.a...g 2 % O O   .                 . . O 2 x >.f.c.=.l 2 % .                                                                                                   X O O O                                                                                     O     O       X   O = , 7 x  .p.g.w.o.Z 0 - O   O O     .               O O O O ; w C 2.a.v.a._ n e 2 ; O     X           O                                                                                               O O                                                                                               O 2 V =.s.p.X.l 7 %                       O       , n >.f.f.+.j , %                                                                           O           O .       . .   O O         X     O O O   .                                                                                   O           O               .   X                                       O     O   + O O       O ; 2 e x _ q.p.w.+.A e %     . O O       X ",
"  .   . . . .   % 2 f ..w.v.s.' l 5 = O O O % O O X .         .   .                                   O O O # .                         O                                                                 O                                   O O O O       O   . .                                                                                             2 V >.p.a.` d 2 %     #   .     #           . O , n >.f.f.=.l , O   .                                                                               O + O       X X   O O + . . .                                                     X                     .         X   X   X O O % O % = 9 V O.q.a.1.^ d 2 % O   .       O O   X       O O   O 2 p K u.v.f.=.l 6 % O O O O O O       O                     X                       X           X                           . . .       O     . X     % % %                                                                                 . 2 V =.f.p.X.l 5 % .                   O         , n >.f.f.@.j 3 %                                                                     . O O             + O . .   . . O O O   .   X         + O           O O                                                                     O     O             O   . # O O O   O       X       X               O           .     . O O       O O O = 7 n  .q.p.8._ j 2 O . + O # O       ",
"  . X     X   O , u S ,.g.g.;.Q w % X . O O % +     .                       O               X         O O + + O O   X             .     O O O                                                         O         O       X       . O .   .     . O O O O + % O O O O                 .                                                                       #   2 V >.f.g.` l 2 % O     .   .               . O 2 n >.f.c.=.d 2 %         .                                                                       . O + O O       X X   O   . . . .                                                                                           . O O O O   # = e L 1.w.w.#.A e ;   X   X     O             O O   = 7 n o.g.g.7.( w @ X X X   O O O O % O                                                                                         . . .                   % % %                         #                                                       # 2 V >.p.s.X.x 5 %                 . .         X , n >.f.f.#.j 2 %                       .                                             O             O . O . .   .     .   .           . O # + + O # O     O   O                                                                       O                 O . O O % O + O                                   O   .       .     . O       X   O = t L =.g.g.,.J e = O O O O         ",
"  O #       . O 5 C +.a.j.0.Y s 2 O   X O # O O #                                                     O                                                                                                                                                       O                                                                                     X #     #   2 V >.f.a...d 2 % O     #   .               O . 2 n =.f.c.=.d 2 O     .                                                                                                                                                                                                     X   #   O       % 3 y ( w.p.w.` g 2 O                         O     = d ] q.f.w.U p 6 @   X # #                                                                                                                               O                                                                                   O 2 V >.p.p.X.x 5 %     X             .         X 1 n >.f.f. .j 2 %                                                                                                                                                                                                                                               O                                         O         .         O O #   O   @ % 4 s U a.v.g.:.a , + O           O ",
"O O     X     O 7 J 8.f.f.@.V e , + O                                                                                                                                                                                                                                                                                                                           2 V =.f.a.` j 2 %         .               . O O 2 c ,.c.f.=.d , % .                                                                                                                                                                                                                       # O % 7 J >.f.p. .v 5 O     O   X                     = n ;.f.g.-.m 8 1 % O O                                                                                                                                                                                                                       O 2 V =.s.p.X.l 5 %                 . .           , n >.f.f.O.j 2 %                                                                                                                                                                                                                                                                                                 .   O O                 # O = 7 S 7.M.M.8.x 2 *               ",
"O O O         O 7 S 8.f.s.@.n 0 =   #                                                                                                                                                                                                                                                                                                                           , V >.f.g.` d 2 %     O . .     .   X       . O 2 n >.f.f.=.l , %         .                                                                                                                                                                                           X                       % 7 S ,.p.a. .v 5 O   O   O     O         O   .   , x =.f.f.-.m 7 , O .     #                                                                                                                                                                                                                   . 2 V >.f.p.X.l 7 %                     O         , n >.f.f.+.j 2 %                                                                                                                                                                                                                                                                                                   O   #       O   X       O % 7 V 8.c.M.1.l 2 %     X         ",
"O O O         O 7 S ,.f.p.@.n 0 = O .     . X # #                                                                                                                                                                                                                                                                                                               2 V >.f.a...j 2 % O .               O       . O 2 x >.f.c.=.d 2 O .                                                                                                                                                                                                       X .         #     O % 5 S ,.f.a. .l 5 O . O O     X         O         = x =.f.g.>.x 5 = O                                                                                                                                                                                                                             2 V ;.p.p.X.x 5 % .   X             .         . , n >.f.f.+.j 2 %                                                                                                                                                                                                                                                                                                           O               O % 5 V 8.M.M.,.j 2 % .         O   ",
". O O         O 5 S 1.h.h.@.n w - O .       # X                                                                                                                                                                                                                                                                                                     . X         2 V =.g.a. .d 2 %       .     .           O   O 2 c >.f.f.=.d , %                                                                                                                                                                                                               .     X #     O 5 V >.p.p. .l 5 O   O . O               O O     = x =.f.g.-.x 5 = #                                                                                                                                                                                                                           # 2 V >.p.p.X.l 5 %                 . . O       X , n >.f.f.O.j 2 %                                                                                                                                                                                                                         .                                                                                         O O X   O % 5 V 8.v.v.1.j 2 %           O   ",
"O             O 7 S ,.f.s.X.x 7 % O #         .                                                                                                                                                                                                                                                                                                                 2 V >.f.a.` f 2 %   O     .     X     X   . . O 2 n >.f.c.=.d 2 % .                                                                                                                                                                                                         .               . O 2 V =.f.f.X.j 5 O #   O O O           O         = j ;.f.g.-.j 5 % O                                                                                                                                                                                                                             2 V =.f.p.X.x 5 %                               , n >.f.p.@.j 2 %                                                                                                                                                                                                                                                                                                   O     O       O       O   % 5 n >.v.c.,.j , %         O     ",
". O   O       O 7 S ,.f.s.X.n 7 % . #                                                                                                                                                                                                                                                                                                                     #     2 V >.f.g...j 2 % O     .                 #   O 2 x =.c.f.=.d 2 +                                                                                                                                                                                                                             O 2 V 1.d.s. .l 5 O   O O                         = x =.f.f.O.k 2 %                                                                                                                                                                                                                             # 2 V =.f.p.X.x 5 % #                 .           , n >.f.f.+.j 2 %                                                                                                                                                                                                                                                                                                 O O     O O         O O   O O 2 x >.f.v.,.d 2 % . X       O   ",
"O             O 7 S <.p.s.' x 7 O                                                                                                                                                                                                                                                                                                                               , V >.p.a...d 2 %   O . .   .   .           . O 2 n >.c.f.=.l 1 %     .                                                                                                                                                                                                                         2 n =.a.p. .j 2 O       O   O           O   .   = x O.p.g.O.j 2 %                                                                                 X   .                                                                                                                                       O 2 V =.s.p.X.l 5 %                 .   . O       , n >.f.f.O.f 2 %                                                                                                                                                                                                                                                                                                                             O 2 n ,.f.n.1.d 2 %         O     ",
"  O O         O 5 S ,.f.q.X.x 5 %                                                                                                                         #                                                 #                                                                                                                                                   2 V =.f.a.` d 2 % O     .           O       . . , n =.f.c.=.d 2 %                                                                                                                                                                                                                               2 n =.p.p. .l 5 O     O O               O       = x ;.f.g.O.k 2 % X             X                         #       X .                             #     # #                                               X #                                                                                 . 2 V =.f.s.X.l 5 % .                 .         X , n >.f.f.O.j 2 %                                                                             #               #       #         #                                                                                               X   #                                                                                                     O   O 2 c >.g.f.,.j , %         O     ",
"#       X     O 7 S ,.f.e.X.x 7 +                                                                                                                             X                                                                                                                                                                         .             X       # 2 V >.f.a...j 2 %       .       #           O O 2 n ,.f.f.=.l , %                                                                                                                                                                         #             # # #       #                           , V O.p.q. .j 5 O     O               O   O .   , x ;.f.g.O.k , %               #     # #                                                             #         #                           .   # #   # .                           #                                                         # 2 V =.p.s.X.l 7 %                 .   O       . , n >.f.f.@.j 2 % X                                                                     #                                                 .                                       X                                         .                                         #                                               # O     O       O     @ O 2 x >.v.f.,.d 2 O           O   ",
"      X       O 7 S 8.p.e.' n 5 %     .   .                                                                                                                                                         .                                                                                                                                             .             2 V >.f.a.` d 5 %   O .   . .             . . O , x >.c.c.=.d , O                                                                                                                                                                                                                             O , V =.p.p. .v 5 O   O                           , x =.p.f.O.k 2 %               #                                                                                                                                                                                                             O 2 V =.f.p.X.x 5 %     X                         , n =.f.f.O.f 2 %                                                                                                                                                           #                                             X                                                                                           #           O       O O O , x -.v.f.1.l 2 %               ",
"            X O 5 S 8.f.p.X.n 7 %                                                                                                                                                                                                                                                                                                                               2 V =.f.g...g 2 % O       .                 O O 2 n >.f.f.=.d 2 % .                                                                                                                                                                                                       #                     2 n -.p.p...x 5 %   O O                 O   .   , x =.f.g.-.j 2 O             X         .                                                                                                                                                                                                       2 V >.p.s.X.x 5 %                 .   O       X , n >.f.f.+.j 2 %                                                                         #                                   .   #       X                                     .                                                                                     .                                                   O                 X O 2 x ,.v.c.-.j 2 %               ",
".       .     O 7 S 8.g.s.X.n 7 %                                                                                                                               #                                     X                                                                                                                                                 #     # 2 V >.f.a.` d 2 % O   #   .       .         +   2 n >.f.c.=.d 2 O                                                                                                                                                                                                       #                       2 V -.p.p. .j 5 O     O               X   O .   = x =.f.f.=.j 2 %                                                                                                                                                                                                                             # 2 V =.s.p.' l 7 %                     .         , n >.f.f.O.j 2 %                                                                                                                         #                                                                             #     #                                                                                         #                   O O 2 x ,.c.v.>.j 2 %           O   ",
"              O 7 J 8.c.p.@.n 7 =                                                                                                                             . >                                   . #                                                                                                                                               X         , V =.f.a...j 2 %     O .                 . O O 2 c >.c.f.=.d , %     .                                                                                                                                                                                               # #                       2 n =.f.p. .v 7 %   O                           , x =.f.f.=.j 2 %             .   .   #                                                                                                                                                                                                       O 2 V =.f.p.X.x 5 % .               . .           , n >.f.p.@.j 2 %                                                                                                               # X   #                                                                                                                                                                                 O   O       O     O   % 2 x ,.v.c.,.j 2 %               ",
"  .           O 7 J 7.f.p.@.n 7 % .                                                                                                                           # >                                           #                                                                                                                           .       X               2 V >.f.a._ f 2 % O                   X     . O , n >.f.f.;.l , %                                                                                                                                                                                                                             O 2 V =.p.p. .x 5 % .   O O               O O     , x =.c.g.=.x 5 % X                     #                                                                                                                                                                                                     . 5 V >.p.p.X.l 5 %                     O         , n >.f.f.+.j 2 %                                                                                                             # .                                                                                           #   .                                                                                                           O O 5 n ,.v.c.>.x 2 %               ",
"              O 7 J 7.c.p.X.n 7 -                                                                                                                               :                                                                                                                                                                           O                   2 V >.f.a...j 2 %       O . . O             .   2 n >.c.f.;.d 2 +                                                                                                                                                                                                                               2 V =.p.p. .x 5 %     O               X     .   , x =.f.f.-.k 2 %               X #                                                                                                                                                                                                             2 V =.p.p.X.x 5 %         .                     2 n >.f.f.O.f 2 % O               .                                                     #                                           #     #                                 .   #                                           #       #                                                                                     #     O         O   % 2 x >.c.v.8.j 2 % O             ",
"  X     .     O 5 S 8.f.p. .n 7 % O                                                                                                                             #                                           X                                                                                                                             O % O           X     2 V >.f.a...j 5 %       + + % % O     O O   . O 2 n >.f.f.O.d , %       .             O                                                                                                                                                                                                       O 2 V =.f.p...x 5 %   O                     O     , x =.f.f.-.j 2 %                     .                                                                                                                                                                                                 .     X 2 n ;.p.a. .c 5 O     . O % O           X   X O 5 S >.c.p.O.d 2 % O O                   X                                                                                                                                       .   X                                     .         #                                                                                                         O 2 n >.c.c.,.j 5 %               ",
"        . .   O 7 S 8.f.a. .n 7 %       .                                                                                                                       #                                   X #   . #                                                                                                                             O % O #   . X     O   5 S >.g.a...j 2 % O     O % % % O X   O O   .   2 n 7.v.f.O.d , O           O                                                                                                                                                                                                                   2 n =.p.p. .v 5 %     O                     .   , x =.f.f.-.k 2 %                                                                                                                                                                                                                       . O   O 2 V +.g.a. .v 5 O   .   + % +             X   O 5 V >.g.p.@.j 5 % O . O O                                                                 # #                                                                                                                                                                                                                           #                   O + 2 n =.c.c.<.j 2 % O       .     ",
"        . .   + 7 S 8.p.a. .n 7 %                                                                                                                                                                                                                                                                                                         O % O               O 5 V >.g.a.` f 5 % O       + + O   X   % O   X   1 n >.c.c.@.g , O       O O .     O                                                                                                                                                                                                           O 2 V -.p.p. .x 5 %   O                   O   .   = x =.f.g.=.k 2 O                                                                                                                                                                                     #       # #                         .     2 n >.g.a. .c 5 %     X . O O O .       X     O 2 C ,.p.q.@.x 7 %                 X                                                                                                                                                                                                                                                                                                         O O 2 x >.c.c.>.j 3 %         . .   ",
"  O   #       O 7 S 8.g.a. .c 7 = O                                                                                                                                                                                                                                                                                                       O O O           O O O 2 V ,.a.w.` j 5 =       .     .       O   . .   , x 7.c.c.=.l 2 % .                                                                                                                                                                                                                             2 V =.p.p. .v 5 O .   O O         X     O       , x =.f.g.O.j 2 %                                                                                                                                                                                         .         #                     .   O 5 V -.g.a. .n 7 %     .     O             X     2 n O.q.q.O.c 7 -                         X                         #                                                                                                                                                             X                                                                                                           O 2 x =.c.c.>.j 2 % O             ",
".       . .   O 7 S ,.f.a. .n 7 %                                                                                                                                                                   .     # .                                                                                                             #               O O O     . O O O O   2 V =.p.w.` k 5 % O     .             O O     X = j >.c.f.=.l 5 =       .                                                                                                                                                                                                 #                   O 2 n =.p.p. .v 5 %     O                     .   = x =.f.f.-.j 2 %                                                                                                                                                                                       # #     # X                       .   O 2 V =.g.w...x 5 %               .             O 2 c  .q.r.@.n 7 % .                               X                                                                                                                                                                                                                                                                                         O O 2 x >.c.c.1.j 2 %         .     ",
"      . .     O 7 S <.f.a. .n 7 =                                                                                                                               .   #         # .                                                                                                       .                         #                         O . O     O O % O   2 V =.g.k...j 5 =         .   . O           . . = x >.c.c.=.x 2 % O #       O     O         O     #                                                                                                                                                                                             2 V =.p.p. .x 5 O     O     X         X O       , x =.f.g.O.k 2 %                                                                                                                                                                               X # #                                   + # O O 2 V -.g.w...v 5 ; O   .       O O       X       2 x  .9.9.@.n 7 %                   O                                                                                                                                                                   .   X                                                         #                                                                     # O 2 x =.c.c.>.j 2 %           .   ",
"        .     O 7 S ,.g.a. .n 7 %       #                                                                                       .   #                               X #                                                                                         #                   #                         #         #                   .     . O O O O O   , n =.p.a...v 5 ;   X   .                   .   , x >.f.c.=.l 5 = O         O         O               O O                                                 #                                                                                                           #                       O 2 n -.p.p. .x 5 O   O O                 O       , x =.f.f.-.j 2 % X                                                                                                                                                                                   . #   #         .                 + % O X 2 n :.g.a.` l 5 =     O                       O , m O.e.q.@.x 7 %             O   O O   O                         #                                                                                       #                                           #     .   .                                                                                                       #                   O O 2 x <.c.c.>.x 2 %         .     ",
"  O   .   . . O 7 S 8.g.d. .n 7 %   O                                                                                                                                                                       #                                                                                                     #         O                     O       O   X , V =.g.a...x 7 =     .     . O   X   X X . O O 2 n >.f.f.>.l 5 = O X X     X   O       O   O                                                                 #                             .                 .                                                         #                       2 V =.f.p. .v 5 %   O                           = x =.f.f.-.k 2 %                                                                                                                                                                                                                       O % O O , n +.a.w.` j 7 = O O O           #           . 2 n -.p.q.X.l 5 %                 O   O             .                                   #                                                         .                                                         X                                                                                                                                 O 2 x <.c.c.,.j 2 % O       .     ",
"      . .     O 9 S ,.f.a. .x 7 %     X                                                                                                                                                                                                                                                                                                                 X   X   2 n >.g.a.+.c 7 ;       .   O O           O + % 2 x =.c.f.=.j 2 %   #       O         O     O                                                                                                                                                                                                 O 2 V -.p.p. .x 5 %                 X             = x =.f.f.=.j 3 %                                                                                                                                                                                                                         + O X , n :.q.p...c 0 = O         X       O         O 2 V >.p.s.X.l 2 % #                 O O                                                                                                                                                                                                                                                                                                     O + 2 x ;.c.c.=.x 2 %           .   ",
"  O         . O 7 S ,.f.g. .x 7 = O                                                                                                                                                                                                                                                                                                             .     X # X X O 5 V >.p.g.+.x 5 ;         . % O O         . O O 2 x =.f.c.=.l 5 O # #   O       O               O                                                                                                                                                                                               2 V =.f.p. .x 5 O . O O                 O   #   , x =.f.g.=.k 2 %                                                                                                                                                                                                                         # O @ 2 V 5.g.a.+.n 0 ;               .     O       O 2 V >.f.s.@.v 5 ; O               O O   O       X                                                                                                                                                                                                                                                                                             O 2 x <.c.c.>.j 2 % O       .     ",
"      . . .   O 7 S ,.f.a. .n 7 %       .                                                                                                                                                                                                                                                                                       O               #         X O % 0 J >.f.a.&.k 5 %         O % % O         . . O 2 x =.f.f.>.x 5 %   O O O .               O           O                                                                                                                                                                                       O 2 n =.p.p. .x 5 O     O O             X O       = x =.f.f.O.k 2 %                                                                                                                                                                                                                             O 7 J ,.f.g...n 0 = O                 O         O 2 n =.p.p.@.M 7 , O O             O O O O   .                                                                                                                                                                                                                                                                                               . O 2 x >.c.c.,.j 2 %           .   ",
"@         . . O 7 S ,.f.a. .n 7 =                                                                                                                                                                                                                                                                                                 O O         # O X   X X   % 2 d ^ 7.f.a.` g , O X     . O O O       O .       , j  .q.f.7.V e = O O % O O   O O                                                                                                                                                                                                               2 V =.p.p.X.x 5 %   O                           , x =.f.f.-.j 2 O                                                                                                                                                                                                                           O , p _ w.g.a...c 7 =         X     .     O O     . , x O.s.p.>.I p 2 = O O   X           O   O                                                                                                                                                                                                                                                                                                   % 2 x >.c.c.1.x 2 % O       .     ",
"      .   .   O 7 S ,.f.a. .c 7 %                                                                                         .                                                                                                   .         .               .                                                                                     O % O X X X O , e C +.w.g.8.U i = O     O O               . .   . , s I 9.f.p.] b 5 = % % %         O     O       O         O             .                                                                                                                                                                     O 2 V =.f.p. .v 5 O   O O                     .   = x =.f.g.=.j 2 %                                                                                                                                                             .         .                                                   % 0 n =.g.g.0.) d 5 %                               - a ( 8.s.e. .C 0 = % O O           O   O                               .                                                                     .         .               .               .               .                                                                                                                                     + 2 x ;.c.c.<.j 2 %               ",
"O         .   O 7 S 8.p.g. .n 7 %   O   .                                                                             .                     X                               X                       X                                                                                                                                       O % % % O X X O 5 f U ,.g.a.-.C 7 % O O O O .   #                   = e V O.p.f.5.K u 3 % O O # O                 O     O         .                                                                                             X                                                                                   2 n -.p.p. .v 5 %     O                 O       , x =.f.f.-.k 2 %                                                                                                                                   X                                                     . X                             O , p Y w.f.w. .V e , %             O .   .   O O .   % e V ;.s.f.8.[ y , % O O             O O O                                                 X                       X                                                                                                   #       X                       #                                                                                   O O 2 n >.c.f.<.j 2 %         .     ",
"        . .   + 7 S 8.f.w. .n 7 % O                                                                                               #                           .   .         .             .         .             .                                                       .                 #             .             .                   + % % %       = 0 m $.w.g.d. .j 2 O O O % + O   .         # . . . O % 7 j ( q.g.k.+.c 8 ;   .   #     . O           O                                 .                                 #                                                                                                                         O 2 V ;.p.p. .x 5 %     O                         = x =.f.f.O.j 3 O                                                                     .                                     #                       .             .                                                         X           O = 7 n ..a.p.,.I s 2 O X #   . O O % O .       O O   # O 5 n ' e.c.z.2.f 3 - %         .     O O . O                                     .         .             .         .             .                                                                               .                             . # #                                                                                       O O 2 x >.c.c.<.j 2 % O       . .   ",
"      # .     O 5 S 8.f.a. .n 7 %                                                                                       .   X #   O   O # O O O   O O . O   O O O   O     O   O   O O   O   O     O   O   O O   O   O   O   O     O   O O   O     O   O O   O     O O   O   O   . O   O   O   O   O O   O   O   O   O   O O O   O O       O O = = , = = , 0 k } 2.w.a.1.I y ; X   O % + .     X       . . . O O % 2 t Z ;.a.z.t./ j e 2 ; % @ O O O O O O O O   O O O   O O O O   O   O O   O   O   O     O   O   # @ O   O O     O     @ O   @ O   O   O   .       .   . X X . .                                                                               2 n -.f.p. .j 5 O   O O           X     O O .   , x =.f.g.-.j 5 %                                                                         X   X     #   O .   # .   # O   O O X O O   O . O O     O   O   O O   O   O   O   O     O   O O   O     O   O   O O   O   O   O   O O O % % = 2 w x ^ y.v.a.#.A 9 %   X       O % O           O O   .   = y F =.a.g.t.D f 0 5 , O   X     @ O O % O O #     O . O   O   O   O O   O   O   O     O   O   O O   O   O     O   O   O O   O   O   O   O     O   O O   O     O   O O   O     O   O O   O     O   O O   O   O   O     O   O   O O   .         .   #   O O                                                                                 O 2 x >.c.c.,.j 2 %         .     ",
".       . .   O 7 S ,.g.a. .n 7 %                                                                   X     X X X .   . . . . . O * O O O % % = % % + % % % O % O O % O O O O O O % % % O % % % O % O % % % O % % O % % % % % % % O % % % O % % % O % % % % % % % % % % % % O % % % O % % % O % % % O % % % O % % O % % % % % O O O O O % O O % = = 2 7 y n I +.w.a.i.2.K d 5 @ X     O O #       X     .   O % & ; ; 4 i G #.w.f.w.>.( n t 2 % % % % % % % % % % % % % % % % % % O % % % % % % % % % O % % % O % O % O % O O % O O O % O O % O % O % O O O O O . . . + X   X X X   O O .                                                                       O 2 V =.p.p. .l 5 O     O                 O   .   , x =.f.g.O.j 2 %                                                                         X X       O O + + + .   X O @ % % % % % % O % O % O % O % O O % O O O O % % O % % % % % % O % O % % % % O % O % % % % % % % % @ % % % , 2 9 u l J  .q.v.B.8.I p ,   X     O                   O + O     O 1 y J -.z.z.8...U c i 2 ; O X O % = = , = % % O % O O % % % O % % % % % % % % % O % % % % % % O % % O % % % % O % % % O % % O % % % % % % % O % % % O % % % O % % % % % % % O % % % O % % % O % O O % O O O O % O O O % O O % % % % O . . o $ o . . O % % %                                                                               O 2 x >.c.c.=.x 3 %         . .   ",
"      .   .   O 7 S <.f.a. .n 7 ;                                                                         X   O   . . . .     O % = 2 7 e u y e e e e e e e e e e e e e e e e e e e e e e e e e y e e e e e e e e e e e e e e e e e e e e e e e e e e e e e e e t e e e e e e e e e e e e e e e y e e e e e e e e e e e e e e y r y e e e e e y s d x J _ >.d.g.a.-.U j 7 ; X X X   O O       X X   @     % O O O O % 2 s P 5.a.n.f.9.@.F p e y e e e e e y y e e e e e e e e e e e e e e e e e e e e e e e e e e e 0 e e e e e e e e e e e e e e e w w 7 2 - + . . O O X X   X     O O                                                                         2 V =.p.q. .j 5 +   O                   O   O   , x =.f.f.-.k 2 %               X                                           X #                       # + & + O O O , 5 0 e y y e e e e e e e e 0 e e e e e e e e e e e e e e e e e e e e e e e e e e 0 e e y e y e e e w e t y p d c G ' ;.q.g.a.8.^ j 9 % X       O                   O O O       @ 5 p I ,.k.N.g.8. .P x y 0 w w e e y y y e e e e e e e e e e e e e e e e e e e e e e e e e e e e e e e e e y e e e e e e e e e e e e e e e e e e e e e e e e e e e e e e e e e e e e e e e e e e e e e e e e e e e 0 e e e e e t e 6 % O + + + + . O % %   X   O O                                                                     O + 2 x >.c.c.<.j 2 %               ",
"      .   . . O 7 S 8.f.a. .n 7 % O O                                                                     @ O   O     .   O % , 2 0 d S / `  . .O.O.#. .O.O.@.O.@.@.O.@.@.@.O.O.O.@.O.@.@.@.@.;.@.@.O.@.;.@.@.@.O.@.@.@.@.@.@.@.@.;.@.@.@.;.@.O.@.;.@.@.@.@.@.@.O.@.@.@.@.=.@.@.;.@.@.@.O.@.@.@.@.@.O.@.;.@.@.@.O.@.@.@.@.O.@.=.-.-.O.+. .o.+.+.=.=.>.7.r.d.d.d.;.S d 0 , O         O O O . .   O O O               X % 3 p J -.w.f.f.h.q.=.@.@.@.;.@.;.@.@.@.@.@.@.O.@.@.;.@.O.@.;.@.@.@.@.@.@.@.@.@.;.@.@.@.O. .+.+.+.+.O.O.O.O.+. . . . .O.+. . . .I C d 0 2 - O O O O                                                             .                       O 2 V -.p.p. .j 5 O   O O                     O   , x >.f.g.=.j 2 =               #     #                                     .   X         O O O . X . . O % % = 1 3 e V / ..=.@.;.@.@.@.@.@.@.@.@.O.O.@.@.@.O.@.O.O.@.;.@.@.@.@.@.@.O.@.@.;.@.@.@.@.@.O. .O.=.=.=.O. . .X. .X.O.=.>.7.w.d.a.d.1...S d 5 % X X     O O O O           #   O + O O   X X ; 7 d J -.a.g.f.d.q.<.=.O. .O. .+. .+.+.+.O.O.O.O.@.;.@.O.@.;.@.@.@.@.@.@.@.@.@.;.@.@.O.@.@.@.;.@.O.@.@.@.@.@.O.@.;.@.@.@.O.@.@.@.@.@.@.@.@.;.@.@.@.;.@.O.@.;.@.@.@.@.@.@.@.;.@.@.@.;.@.@.@.@.@.@.O.O.@.O.@.@.@.@.@.@.@.O.O.@.@.( n i 5 2 = % O O     X X     . O                                                                       O 2 x <.c.c.1.j 2 %         .     ",
"  O     .     O 7 S ,.g.a. .n 7 %                                                                           O + + O   .   % 2 t g n ^ -.w.x.g.f.c.c.b.b.c.c.c.c.c.f.c.c.c.f.c.c.c.c.c.c.c.c.c.c.c.c.c.c.c.c.c.c.c.c.c.c.c.c.c.c.c.c.c.c.c.c.c.c.c.c.c.c.c.c.c.c.c.c.c.c.c.c.c.c.c.c.c.c.c.c.c.c.c.c.c.c.c.c.c.c.c.c.c.c.c.c.c.m.M.v.c.v.f.g.c.c.c.c.M.c.j.r.1.X.I p 7 1 %       O   O .         O O O O   X     X       = 5 y Z o.0.p.f.c.c.c.c.c.c.c.b.c.c.c.c.c.c.c.c.c.c.c.c.c.c.c.c.c.c.c.c.c.c.c.c.c.c.c.c.c.c.c.v.c.g.c.v.f.c.c.c.c.f.v.c.c.f.g.w.=.^ V d 7 , % * O O   O   .                                                       #                     2 n =.f.p. .l 5 O   O                 O O       , x =.f.f.-.c 2 % X               .                                             #         O % +   . X   O % , 9 y l S :.k.g.v.v.c.b.c.c.c.f.c.c.b.f.c.c.c.c.f.c.f.c.c.c.c.c.c.c.c.c.c.c.c.c.c.c.c.c.c.f.v.c.c.c.v.c.c.f.g.p.g.f.c.M.M.c.v.a.1./ M e 2 %     X .       O     O % O       . O %         O = 7 p V :.q.p.c.c.c.m.c.M.c.j.f.f.a.f.g.v.c.c.c.c.c.c.c.c.c.c.c.c.c.c.c.c.c.c.c.c.c.c.c.c.c.c.c.c.c.c.c.c.c.c.c.c.c.c.c.c.c.c.c.c.c.c.c.c.c.c.c.c.c.c.c.c.c.c.c.c.c.c.c.c.c.c.c.c.c.c.c.c.c.f.b.c.f.c.c.f.c.c.c.c.c.f.c.f.f.f.q. .J m k y 2 % O   X                                                                                 O O 2 x <.c.c.>.j 2 % O       .     ",
"      . .     + 5 S 8.f.a. .n 7 %                                                                           . % - +     O , e n ' <.q.p.n.v.M.m.v.m.m.m.m.m.m.m.c.m.c.m.c.m.m.c.c.m.c.m.m.c.m.c.m.c.m.c.c.m.c.m.m.m.c.m.m.c.c.m.c.c.m.m.c.c.m.c.c.m.c.m.c.m.m.c.m.m.c.m.c.m.m.c.m.c.m.c.m.c.m.c.m.c.m.c.c.m.c.m.m.m.c.m.m.c.m.m.m.m.c.f.f.c.c.M.M.M.v.g.9. .J n p 2 %         O + O O .       O O O O O   X .       X X * % 2 t v U  .7.f.c.c.m.v.m.m.m.m.m.c.m.m.m.c.m.c.m.c.c.c.m.c.m.c.m.m.c.c.m.c.m.c.m.c.m.c.m.c.m.c.m.c.m.m.c.m.m.c.m.c.M.M.c.c.c.f.q.>.( n 0 2 % O     O O                                                                             O 2 V -.p.p. .j 5 O     O O               O   .   , x =.f.f.=.j 2 %   X             #                                                       O O O O X X   O , e n ^ -.7.a.v.v.M.M.m.m.m.c.m.c.m.m.c.m.c.m.m.c.m.m.c.m.c.m.m.c.c.m.m.m.c.m.c.c.m.m.c.m.m.c.c.m.m.m.m.m.m.c.n.c.f.f.c.m.M.c.q. .S f 0 ; % O   X O             O O % O         + + O O X X     * 2 e M I O.>.p.c.m.M.M.m.c.c.f.f.f.c.c.c.M.c.c.c.m.c.c.m.c.m.c.m.m.c.c.m.c.m.c.m.c.m.m.c.m.c.m.c.m.c.m.c.m.c.c.m.c.m.m.m.c.m.m.c.c.m.c.c.m.m.c.c.m.c.c.m.c.m.c.m.m.c.c.m.c.m.c.m.m.c.c.c.c.m.c.m.m.c.c.m.m.c.m.c.c.m.c.m.m.v.p.7.-.o.V e , X X       O .                                                                         # O 2 x >.c.c.<.x 2 %           .   ",
"  O     .     O 7 S ,.f.a. .c 7 % O                                                                       . . % = O   O 1 w n X.q.f.c.f.p.9.>.>.<.<.<.<.,.1.<.>.>.<.<.8.>.<.,.1.<.>.<.1.<.>.>.<.1.>.<.>.<.>.<.1.>.<.1.<.>.<.,.<.<.>.>.<.<.,.<.<.<.>.>.<.<.,.<.>.>.<.,.>.<.<.1.>.<.>.<.>.<.<.>.<.1.>.<.>.<.>.<.1.>.<.1.<.>.<.<.>.<.;.;.@.;.;.<.8.8.,.:.#.U x p 7 1 X X     O O + O O .         . O O O O O   X         O   O O 1 7 y n U o.=.>.<.,.1.<.=.>.>.<.,.<.>.>.<.<.,.<.<.<.>.>.<.<.,.<.>.>.<.,.<.>.<.,.<.<.>.9.<.<.<.9.>.<.<.<.<.>.9.>.<.>.<.>.q.f.f.h.r.' M e 2 % O O . O . X                                                 #                         2 V =.f.q. .l 5 O   O                       O   , x =.f.f.=.x 2 %                     o #                                                 O O O O     X ; 0 n o.i.g.g.g.w.7.<.=.<.<.8.<.<.<.<.<.<.8.8.>.<.<.<.,.<.<.,.<.<.<.,.>.<.>.>.<.<.1.<.>.<.>.<.>.>.>.8.7.8.8.<.>.1.=.1.;.-.=.1.1.( x y 7 = O X   # * O # . X         O O             + & O . . X X X   ; 5 y n L o.1.7.r.8.8.<.=.;.O.+.=.=.>.>.<.<.,.<.<.<.>.>.<.<.,.<.>.>.<.,.<.>.<.1.<.<.>.<.>.<.<.>.<.1.>.<.>.<.>.<.1.>.<.1.<.>.<.,.<.<.>.>.<.<.,.<.<.<.>.>.<.<.,.<.>.<.>.>.<.,.<.<.>.<.<.>.<.,.,.<.<.<.<.<.,.>.8.<.8.8.8.q.p.j.f.p.e.O.n e ; X   . . +                                                                             O 2 x >.c.c.,.j 2 % O             ",
"      . . .   O 7 S ,.f.a. .n 7 %                                                                       .   . O % O O 1 t n O.a.p.p.p.9.X.Z j d d f d d d d d d d d d d d d d d d d d d p d d d d d d p d d d d d d p d d d d p d p d d p d d d d p d d d p d d d p d d d p d d d p d d p d d d d d d p d d d d d d p d d d p s i i i s g d l j j j d u r 5 = O   X X   O O % % % O   .           X   O %       O O O O O O X   % = 5 r u d d d d d d p p d d p d d d d d p d d d p d d d p d d d d p d d d p d d d d d d d d d d d d d d d g d d l V Y ;.e.s.p.q.+.V t , - O                                                             #                   O 2 n =.p.p. .l 2 O   O O                 O   O   , x =.f.g.=.j 2 %                 #                                                       . . . O % X ; e M  .w.g.g.w.8._ V g d d d f d d d d d f d d d d d d d d d d p d p d d d p d d d d d p d d p p s d d d d d d d p p s y p s p s e 5 , % O O O O + % + #   X   X X   O               O + O O o X   X     X * 1 9 t p d j d j d d s p p s p p p d p d d d d p d d d p d d d d p d d d p d d p d d p d d d d d d p d d d d d d p d d d d p d p d d p d d d d p d d d p d d d p d d d p d d d d d d d d d d d d d d d d d d d j S X.>.q.p.p.r.@.F 0 ; % & O O                                                                           O O 2 x >.c.f.<.j 2 % O       .     ",
"@       .     O 7 S ,.f.a. .n 7 % O                                                                         .   O O , t A X.a.g.q.=. .I x 0 , , = = , = , = , ; , = = = , = = , = = = = = = = = = = = = = = = = = = = = = = = = = = = = = = = = = = = = = = = = = = = = = = = = = = = = = = = = = = = = = = = = = = = = = = = % % % = = , 2 2 5 2 , = = O     . . X       % % % O . .                 O % @       + O O O X   X X @ O = = = = , , , , , = = , = = = = = = = = = = = = = = = = = = = = = = = = = = = = = , = = = = = , = , , , = , 2 9 g F ( ;.q.f.a.+.n u 8 * .   X X                                                                           2 V =.p.p. .j 5 O     O                 O       = x >.f.f.-.j 3 %                                                                     #     . O % % , w n  .w.g.a.>...T j 7 = = = = = = , = = = = = = , = = = = = = = = = = = = = = = = = = = = = = = = = , , , , 2 , , , , = = = = = = % O O       . O O + O O     X               X     . O + + # . X X         X     O = = , 2 , , , , = = = = = = = = = = = = = = = = = = = = = = = = = = = = = = = = = = = = = = = = = = = = = = = = = = = = = = = = = = = = = = = = = = = = = = = = = - = = = = , , = = = = = , = , = = = , 2 e n U _ ;.e.h.a.O.x 0 , % O   O O O                                                                     . O 2 x =.c.c.>.j 3 %       .       ",
"      .       O 7 S 8.f.a. .n 7 %                                                                       . . . X   % w m :.a.v.a.O.J d 7 , % % O + O O % O O O O O O O O O O O O O O O . O O O   O . O O O   O . O O . O O O   O O O O . O O O   O   O O O O O . O O . O O O   O O O O . O O O   O . O O O   O . O O . O O O O O O O % = = = - % % % O . . O . + . .   # O % % + #     .           X   O O @       X .   . .       .   O % O O % O O % O + O O O O O O O O O O   O . O O O   O . O O . O O O   O O O O O O O O O O O O O O + O O % % = , 2 y V @.r.j.k.4.D q %       X                                                                         O 2 V =.f.p. .l 2 %     O                   O .   , x =.f.f.-.x 2 % X                                                             .       # #   + O , w M o.r.p.w.-.S p 7 1 % O O O O + O O O O O O O O O O O O O O O . O O O   O O O O . O O O   O   O     O O O % % % % % % O O O O O O O O .   .   X . .     #         X         X         O O O . . .   . . O O . . O O + + % O % O % O % O O O O O O O O   O O . O O O   O . O O . O O O   O O O O . O O O   O . O O O   O . O O . O O O   O O O O . O O O   O   O O O O O . O O O . O O O   O O O O O O O O O O O O O O O O O % , 5 0 p F =.a.g.d.2.D q % O O O O O                                                                       O 2 x >.c.c.<.x 2 % O             ",
"        . .   + 5 S ,.f.a. .n 7 = O                                                                       .     O 1 p ^ a.M.g.-.S y 1 O                                                                                                                                                                                           O O O & % + O . . .     . . + O .     O + + O   .       O O O X             X       .   . .                                                                                         . . . .   . .   . .   .     .   .   ; y J =.g.B.z.$.a , . X                                                                               2 n =.p.p. .j 5 O   O                 O O   O   , x >.f.f.-.j 2 %                   #                                                 #     .   % 5 j ^ 7.j.g.,.J y ,       O                                                                                   O   O O   O O O O     O . O .       .           O   O                         O .       . O O % + O + . .       .           O                                                                                                                                                                                         O % 2 p J =.a.g.w.` d 2 %                                                                             O + 2 x >.c.c.>.j 2 %         .     ",
"O       .     O 7 S 8.p.a. .n 7 %       .                                                                     O = e V  .g.f.w.` y =             .                                                                                                                                                                               . . O . .                                 O             O % % O O                                   . O                                                                           .   . .     .       .   .   .   .       O 2 s I w.v.z.-.m 0 %   % % O                                                                       O 2 V :.p.p. .v 5 O   O O O           X       O   , x =.f.f.O.j 3 % O                                                               X         .   , e V O.p.g.8.` j ,   X .   + O     .                                                                                   O     O O O   O O O O . .   .   .   .   X       O O O                             O O % + O   O . .                                                                                                                                                                                                         . . . % 5 d I w.g.w.+.C e , O     X                                                                       O 2 x <.c.c.1.j 2 %         . .   ",
"      # .   . O 7 S 8.f.a. .c 7 ;       X                                                               . # O * 2 p ( 8.g.g.-.V 7 O     # .   .     .   .   .               .           .                                               .           .                                   .                                     . O   .         X                                         O % % % O   X                               .   .         .     .             . .                                                                         . # . .   % 9 C -.a.z.t.W s =   % = O O                                                                       2 V -.p.p. .j 2 O .   O                 O   #   , n =.f.g.-.x 2 % X X     .                                                             X . X O 2 s ( 8.g.g.-.S e %   . . O + + O                             .                         .                             O   O O O   O O O O O O             .     .       O O O O   O O O O                 O + O O                                                                                       .                                               .           .                   .                     .               .     . . . O , 0 n -.a.a.t./ f 2 O X                                                                         O O 2 x ;.c.c.>.j 2 % O       .     ",
"      .       O 7 S ,.g.g. .n 7 % O                                                                 X     O % % 2 j +.g.v.8.Z y 2 % O         .       .       . . .         .   .     .     .     .   # .     .     .     .   # .     .     .     .           .     .     .   # .     .     .     .   # .     .     .     .               X                 X   X                       O O % O O             O O O O O                   .   . .     .   .   . .     .     .     .   # .     .     .     .   #                                     . .   O O 3 d I >.g.t.` l 2 % % % +                                                                       O 2 n =.p.p. .l 5 O   O                 O O   .   , x >.f.f.-.j 2 %   X     X   #                                                             .   , h o.g.c.q.^ p 2 % .   . O O O . . .   .     .   .   . .     .     .     .   # .     .     .   #                       O O O   O                     O O O O     .     O O O O O O O O O                                               X   O         . .     .   .   # .     .     .     .   # .     .     .     .   # .     .     .     .   # .     .     .     .           . .     .     .     .   . .     . . .   .   .       . .     # O 2 p ^ 7.g.w.] l 5 O X .                                                                       # O 2 x >.c.c.<.x 2 % O       .     ",
"        . .   + 7 S <.f.a. .n 7 %       .                                                                 O O O 3 n ,.v.g.,.j 5 , % O                                             .       .     .         .       . .   .         .       .       .   .   #       . .   .         .       .     .         .       . .   .     O                     O     O               X       X       O O O                 O O O O O       .       O . . O . . . O O   O   . O       . .   .         .       . .   .                                                 O O ; e S  .q.w.o.x 2 O . O                                                                           2 V -.f.p.o.v 5 %     O O           X   O . O O , x =.f.p.-.j 2 %     O                                                               . .     O , g :.f.c.>.S 9 = O O .       O .         .     .         .       . .   .         .       .                                 O                       O O % O               O O                                 X   X                   O O                 .     .         .       . .   .         .       .     .         .       . .   .         .       .       .   .   #       .       .     .         .               . .       . #     O % 0 S ,.p.a.X.x 5 %   .                                                                         O 2 x >.c.c.,.j 2 O           .   ",
"  O   .       O 7 S ,.g.a...x 7 %                                                                           X O 2 n 8.M.f.1.d 2 % % O O           X     .       X                                                                                                                                                               O               O   O O O                     O                                       O O O           O O                                                                                                                 X X % 7 n  .q.s.@.n 5 O . . .                                                                       O 2 V 1.p.a.X.v 5 O     O O           X O   O .   , x =.f.g.-.v 2 %   X # .                                                         X       # O % 2 l -.c.f.=.n 5 O         @ @ O                                                                       O                                 X             O O O                                                             X   X                                                                                                                                                                                                       O   O O O % 7 V 1.p.s.X.l 7 %   + .                                                                     O O 2 x >.c.f.<.j 2 % O       .     ",
"        . . . O 7 S <.f.a. .n 0 % O                                                                         X O 5 n 8.v.f.5.l 5 %   X               X   X   X         . X   X   X         .           X                       X           .                                   X           .           X                         O O                   . O   #                 O                       . .             O             O O                                               X                                                             .       X O 5 x X.p.s.=.n 2     .                                                                           2 V -.g.a. .v 5 % . #     X   @ X             O 2 n >.f.g.O.j 2 % O                                                                     # O & < 5 j O.g.g.=.n 5 @ X   X   X X   X   X     .           X                       X           .                                         X                   O                                       O O   O                             O O   O               .           X                       X           .           X                       X           .                               .           X           .                         O ; 0 V ;.p.s.X.n 9 % O + +                                                                     . O 2 x >.c.c.>.j 2 %           .   ",
"      . .     O 9 S 8.f.a. .c 7 %                                                                           O % 5 n 1.z.g.-.x 5 ;       . .                                                                                                                                                                                                                                                                                                                                                                                             .           . . .     % 9 l _ a.g.+.n 2     . .                                                                         2 J t.g.a...n 0 ,       .   O @ @ X     . X   % 7 C =.g.g.+.d , % & O .                                                     O   #   O # O + & - 2 z @.h.p.>.V 5 % .     . X X                                                                                                                                                                                                                                                                                                                                                                                                       .   .   X ; e J >.f.g.X.n 7 O     O .                                                                   O + 2 n ;.c.c.1.j 2 %           .   ",
"@           . O 7 S 8.p.a. .n 7 % O     O                                                                 O O % 5 l +.k.v.8.F y , O     . . .                                                                                                                                                                                                                                                                                                                                                                                                     # . .     O 4 i F O.a.w.+.n 2 X                                                                             . 2 C -.g.g.-.I p 2 O . . .   O O O     X .     2 f ^ 8.g.a.` u , % - # O   O                                                               + + % , s ] r.f.8./ p 2 O .   X   X                                                                                                                                                                                                                                                                                                                                                                                                       . . . X O 2 d _ 8.g.r.] x 5 O                                                                             O 2 n <.c.c.>.j 2 % O             ",
"O     . . .   O 7 S 8.f.a. .n 7 %       #                                                                       1 p / 8.g.g.=.S 0 = O + .               X                     X                                       X O                     X                     X                         X                       X   O                   X                       X O                     X                                                                       O X                     X                       X O                 X           . O % ; w V O.w.a.8...x 2 O                                                                               , x ` 7.p.a.-.Z 0 ; %               # O # O = p J 1.g.p.;.L t = % % + O # O                                                             . O & - , e F ;.p.p.-.D y = O O       X X         O                           X O                     X                   X                   X O                     X                                       @                       X                       X               X O                     X                                       X O                     X                                       X O                     X       . .   = e V ,.g.w.#.P s , O     .                                                                     . O 2 x =.c.c.>.j 5 % O             ",
"          . . O 5 S 8.f.a. .n 7 % O                                                                       . X X % 0 C O.g.g.w._ d 5 = = O                                       O                                                               O                                               O                                             O                                                                                 O                                                               O                               O                 O O O O % 2 d ( q.g.a.-.S p ,   . X                                                                           % r C =.p.n.a. .d 5 = O     . X X   # O % % 5 x  .q.f.q.X.M 9 - - % + O                                                         O     O   + % % % 9 v ' e.p.7.` x 5 = % O .       O                                                             O                                                               O                                                               O               O                                               O                                                               O                   X                                                   O % 5 j ^ w.g.7._ n 9 = X                                                                             % 2 x <.c.c.,.j 2 %         .     ",
"        . .   O 7 S ,.f.a. .n 7 % O                                                                       X   X O 5 d I w.v.d.+.F d 7 , %                                                         X                                                                           .                                               .                                                                       X               X               X               X                                                                                           O O O @ = e V -.g.B.g. .p 2 = % X                                                   # .                       O 2 p _ p.c.h.;.J y =   O O O   . + O O = 2 y I 6.s.s.9.( g 2 O + & +                 #                                       O       O   O + O O , d Y 9.p.q.;.J y 5 % O + +     #               X                                                                                                                               X                           .                                                                                                   X                                                                                                                 O % % 2 y J =.g.z.,.U p , O O                                                                             O 2 x ;.c.c.<.j 2 %       . . .   ",
"O     .   .   O 7 S 8.g.a. .c 7 %                                                                         .   .   = 9 n +.w.r.r. .J j e 2 = O O O O O O O O O O O O O O O O O O O O O O O O O O O O O O   O O O O   O O O O   O O O O O O O O O O O O O O O O O O   O O O O O O O O O O O O O O O O O O O O O O O O O O O O O   O O O O O O O O O O O O . O O O O   O O O O   O   O O O O O O O O O O O O O O O O O O O O O O O O O   O O O O O O O O O O O O O O   O O O O O O O O O O O O O O O O O O O O O O O   O O O O   O O O O   O   O O O % ; 4 2 w m  .k.B.z.4.D 7 % O O                                                                                 % 7 Z X.q.p.e.O.S e 5 , , % O % = , 5 0 p C  .s.s.9.X.M t ;   + + O . O   O         X #                                       # O   # O # # O O , t Z X.q.q.9.X.V s 7 2 , = + O O O O O O O   O O O O   O O O O   O O O O   O O O O O O O O O O O O O O O O O O O O O   O O O O   O O O O   O O O O O O O O O O O O O O O O O O O O O   O O O O   O O O O O O O O O O O O O O O O O O O O O O O O O O . O O O O   O O O O   O O O O O O O O O O O O O O O O O O O O O   O O O O   O O O O   O O O O O O   O O O O O O . O O O O O O O . O O O O   O O O O   O O O O O O O O O O % , 5 w d S -.w.z.u.%.C 0 =                                                                               O + 2 x <.c.c.>.j 3 % O             ",
"  O     . .   + 7 S ,.f.g. .n 7 % O     X           #                                                         O O O ; w m X.w.g.g.>. .J l 9 2 , , , , , , , , , , , , , , , , , 1 , , , , , , , , , , , , , , , , , , , , , 1 , , , , , , , , , 1 , , , , , , , , , , , , , 1 , , , , , , , , , 1 , , , , , , , , , , , , , 1 , , , , , , , , , 1 , , , , , , , , , , , , , 1 , , , , , , , , , , , , , , , , , , , , , , , , , , , , , , , , , , , , , , , , , , , , , , , , , , , , , , , , , 1 , , , , , , , , , , , , , 1 , , , , , , , , , 2 2 9 s Z ( =.a.N.a.-.C t 1   O O                                                                             . . O ; w v _ 9.f.a.>.` S d e 5 2 2 5 e x S / +.w.h.e.X.Z t 4 % O   . . X                                                                 .   X   O % 2 t V @.q.p.q.@._ Z x e 3 2 , , , , , , , , , , , , , , , , , , , , , , 1 , , , , , , , , , 1 , , , , , , , 1 , , , , , , , , , , , , , 1 , , , , , , , , , 1 , , , , , , , , , , , , , , , , , , , , , 1 , , , , , , , , , 1 , , , , , , , 1 , , , , , , , , , , , , , 1 , , , , , , , , , 1 , , , , , , , , , , , , , , , , , , , , , 1 , , , , , , , , , 1 , , , , , , , 1 , , , , , , , , , , , , , 1 , , , , , , , , , 1 2 e l J  .,.k.z.t.$.n r 5 = % O                                                                           O O 2 x >.c.c.>.j 2 %               ",
"X       .     O 5 S 8.p.a. .n 7 %       #                                                               . O O O     O 1 t n  .w.g.g.g.,.' n d d f d d d d j d d d d d d d d d d d d d d d d d d d j d d j d d d d f j d d d d j d d d d d d d d d d d d d d d d d d d j d d d d d d d d d d d d d d d d d d d d d d d d d j d d d d d d d d d d d j d d d j d d d f j d d d d j j d d d d d d d d d d d d d d d j d d d d d d d d d j d d d d j d d d d d d d d d f d j d d d d d d d d d d d d d d d d d d d d d f j d d d d j d j f j f j j d d l M ! 6.r.g.g.w.2.C 0 , O       O % O                                                                         O     ; 9 n  .w.N.M.z.8./ n j l d l V ..4.t.w.g.q.X.V i 4 % O   .   .   O     .     . X                                               O       X O % O , y S ;.s.p.s.r.,.` V k g d d d d d d d d d j d d j d d d d f j d d d d j d d d d d d d d d d d d d d d d d j d d j d d d d f j d d d d j d d d d d d d d d d d d d d d d d j d d j d d d d d j d d d d d d d d d d d d d d d d d d d d d d d d d d j d d d f j d d d d j d d d d d d d d d d d d d d d d d j d d j d d d d f j d d d d j d d d j d d d d d d d d d j d d d j d d d j d d d f j d d d d j d d d d d d d d j j V ( 1.a.g.a.t.} m 0 2 = % O O O O                                                                         O 2 x >.c.c.>.j 2 % O       .     ",
".       . .   O 7 S ,.f.a. .n 7 % O                                                                     .   O     O % ; , 7 v ' w.g.v.g.a.w.>.>.<.>.9.<.<.<.<.<.<.9.<.<.<.9.9.<.<.<.<.9.<.9.<.<.<.<.<.9.<.9.<.9.8.9.9.<.<.<.9.<.<.9.<.<.<.9.9.<.<.<.<.9.<.9.<.<.8.9.<.<.<.9.<.9.<.9.<.<.<.<.9.9.<.<.<.9.<.9.<.9.<.<.9.<.<.<.9.<.9.<.<.>.9.8.9.<.<.9.9.<.9.<.<.9.8.9.<.<.9.<.<.9.<.<.<.9.<.9.<.<.8.9.9.<.<.9.<.<.<.<.9.9.<.<.<.9.8.<.<.<.9.9.<.<.<.9.<.<.<.9.9.<.8.9.<.<.<.<.9.9.<.9.<.<.<.<.9.9.<.<.<.9.<.9.<.9.8.9.9.<.<.<.9.<.9.>.8.9.>.9.9.<.8.9.>.q.g.v.B.k...n 0 , @ O     O O O O                                                                       O O o     % 0 m $.k.B.B.g.w.>.<.<.9.;.9.p.g.g.k.t.o.V e 2 % @     .             X #                                           O #           X X     # . & 2 e V  .q.h.c.p.p.8.1.,.<.9.9.>.9.>.>.9.<.<.<.9.<.9.<.9.8.9.9.<.<.<.9.<.<.9.<.<.<.9.9.<.<.<.<.9.<.9.<.<.<.<.<.9.<.9.<.9.8.9.9.<.<.<.9.<.<.9.<.<.<.9.9.<.<.<.<.9.<.9.<.<.<.9.9.<.<.9.<.9.8.9.9.<.<.9.<.<.<.9.<.<.<.9.9.<.<.<.<.9.<.9.<.<.<.<.<.9.<.9.<.9.8.9.9.<.<.<.9.<.<.9.<.<.<.9.9.<.<.<.<.9.<.9.<.<.<.<.<.9.<.9.<.9.8.9.9.<.<.<.9.<.<.<.9.9.<.<.<.9.<.9.9.<.<.9.<.<.<.<.<.9.<.9.<.9.8.9.9.<.<.<.9.<.9.<.<.9.<.<.9.<.9.7.7.q.g.v.g.8.` d 5 ; O O                               .                                                 O O 2 x >.c.c.<.j 5 %               ",
"      .   .   O 7 S 8.p.p...n 7 %                   #                                                     O     O O % % O ; 9 v ` ,.w.g.z.M.M.M.m.m.c.m.c.m.m.c.m.c.c.m.c.c.m.c.m.m.c.c.c.c.m.c.m.m.c.c.c.m.c.c.c.c.m.c.c.m.c.c.m.c.c.m.c.c.m.c.m.m.c.c.c.c.m.c.m.c.c.m.m.c.c.c.c.m.m.c.m.c.c.c.m.m.c.c.c.m.c.c.c.m.m.c.c.m.c.c.c.c.c.m.m.c.c.c.c.c.c.c.c.m.c.c.m.c.m.c.c.c.c.m.c.m.c.c.c.c.c.m.m.c.c.c.c.m.m.c.m.c.c.c.m.c.m.c.m.c.m.c.c.c.c.m.m.c.c.m.c.c.m.c.m.c.m.c.m.c.c.c.c.m.m.c.m.c.c.c.m.m.c.c.c.m.c.c.c.c.m.c.c.m.c.c.c.c.c.c.c.c.m.c.c.c.M.v.g.w.8._ x 8 = O     O O O                                                                             O O   X     , e m $.t.u.w.q.p.f.f.b.h.f.f.g.w.4.} m e , O   X       .                   #                                         O   O         X .   . . + 3 e x ( ;.q.f.c.n.g.c.c.m.c.c.c.c.m.c.m.m.c.c.c.m.c.c.c.c.m.c.c.m.c.c.m.c.c.m.c.c.m.c.m.m.c.c.c.c.m.c.m.m.c.c.c.m.c.c.c.c.m.c.c.m.c.c.m.c.c.m.c.c.m.c.m.m.c.c.c.c.m.c.c.c.c.c.c.m.c.c.c.c.c.m.c.m.m.c.m.c.c.m.c.c.m.c.m.m.c.c.c.c.m.c.m.m.c.c.c.m.c.c.c.c.m.c.c.m.c.c.m.c.c.m.c.c.m.c.m.m.c.c.c.c.m.c.m.m.c.c.c.m.c.c.c.c.m.c.c.m.c.c.m.c.c.c.m.c.m.c.c.c.c.c.c.m.c.c.m.m.c.c.c.m.c.c.c.c.m.c.c.m.c.c.c.c.c.m.m.c.m.c.c.c.f.f.g.a.8...m 5 % O X X   X                                                                             # O 2 x <.c.c.,.j 2 %         . .   ",
"      .   . . O 7 S ,.f.a. .n 7 % O                                                                           O % % % O O @ * 4 i Z U  .8.z.M.c.c.c.c.c.c.c.c.c.c.c.c.c.c.c.c.c.c.c.c.c.c.c.c.c.c.c.c.c.c.c.c.c.c.c.c.c.c.c.c.c.c.c.c.c.c.c.c.c.c.c.c.c.c.c.c.c.c.c.c.c.c.c.c.c.c.c.c.c.c.c.c.c.c.c.c.c.c.c.c.c.c.c.c.c.c.c.c.c.c.c.c.c.c.c.c.c.c.c.c.c.c.c.c.c.c.c.c.c.c.c.c.c.c.c.c.c.c.c.c.c.c.c.c.c.c.c.c.c.c.c.c.c.c.c.c.c.c.c.c.c.c.c.c.c.c.c.c.c.c.c.c.c.c.c.c.c.c.c.c.c.c.c.c.c.c.c.c.c.c.c.c.c.c.c.c.c.c.c.c.c.c.c.c.c.c.f.c.f.c.c.c.f.c.c.v.w. .K V p 7 ;       % O O                                                                                         O % , q f m D / @.0.p.c.b.h.s.9. .P v p 8 = O     . #                 O                                             O         @     X O O +   . . & , 5 s x L @.9.s.f.f.c.b.c.c.c.c.c.c.c.c.c.c.c.c.c.c.c.c.c.c.c.c.c.c.c.c.c.c.c.c.c.c.c.c.c.c.c.c.c.c.c.c.c.c.c.c.c.c.c.c.c.c.c.c.c.c.c.c.c.c.c.c.c.c.c.c.c.c.c.c.c.c.c.c.c.c.c.c.c.c.c.c.f.c.c.c.c.c.c.c.c.c.c.c.c.c.c.c.c.c.c.c.c.c.c.c.c.c.c.c.c.c.c.c.c.c.c.c.c.c.c.c.c.c.c.c.c.c.c.c.c.c.c.c.c.c.c.c.c.c.c.c.c.c.c.c.c.c.c.c.c.c.c.c.c.c.c.c.c.c.c.c.c.c.c.c.c.c.c.c.c.c.c.c.c.c.c.c.c.c.c.c.c.c.c.c.c.c.c.c.b.c.c.j.r.8. .^ V d w , % X X   .                                                                               O O 2 x >.c.c.>.j 2 %               ",
"  O     .     O 7 S 8.f.a. .n 7 % O                                                                       . .   O O O O O     O , 7 p c U `  . . . . . . . . . . . . . . . . . . . . . . . . . . . . . . . . . . . . . . . . . . . . . . . . . . . . . . . . . . . . . . . . . . . . . . . . . . . . . . . . . . . . . . . . . . . .X.O. . . . . . . . . . . . . . . . . . . . . . . . . . . . . . . . . . . . . . . . . . . . . . . . . . . . . . . . . . . . . . . . . . . . . . . . . . . . . . . . . . . . . . . . . . . . . . . . . . . . . . ...U x p 0 5 = O X     O % .   X                                                   .                               O + + - , 3 7 e l Z ( X.;.@.@.X.Y n e 5 , = O   .     .     X   O O       .     #                                         #       O       O . . . . . O = 1 6 t M Y '  . . . . . . . . . . . . . . . . . . . . . . . . . . . . . . . . . . . . . . . . . . . . . . . . . . . . . . . . . . . . . . . . . . . . . . . . . . . . . . . . . . .O. . . . . . . . . . . . . . . . . . . . . . . . . . . . . . . . . . . . . . . . . . . . . . . . . . . . . . . . . . . . . . . . . . . . . . . . . . . . . . . . . . . . . . . . . . . . . . . . . . . . . . . . . . . . . . . .X./ I V d 0 2 = % @   X                                                                                     O 2 x =.c.c.1.j 2 % O       .     ",
"      . .     + 7 S 8.p.a. .n 7 %                                                                       # X           O   O % = % ; , 2 9 9 0 7 0 7 0 0 7 7 0 0 0 0 0 0 0 0 0 0 0 0 0 0 0 0 7 0 0 0 0 0 0 0 0 0 0 0 0 0 0 7 0 0 0 0 0 0 0 0 0 0 0 0 0 0 0 0 7 0 0 0 0 0 0 7 0 7 0 7 0 0 7 0 0 0 0 0 0 0 0 0 0 0 0 0 0 0 0 7 0 0 0 0 0 0 0 0 0 0 0 7 0 0 0 0 0 0 0 7 0 0 7 0 7 0 0 0 0 0 0 0 0 0 0 0 0 0 0 0 0 0 0 0 0 7 0 0 0 0 7 0 0 0 0 0 0 0 0 7 0 7 0 0 7 0 0 7 0 7 0 0 0 0 7 0 0 7 0 0 0 0 0 0 0 0 0 0 0 0 0 0 0 0 0 7 0 0 0 0 7 0 0 0 0 0 7 0 7 7 2 1 , = O     X   . + O                                                           X                     . X . # O + * - % = , 5 9 0 e e e e t w 5 ; % % & O   . .                                                                   O     O     O     X     .   . . O O % = = 2 7 w t e 0 0 0 7 7 0 0 0 0 0 0 0 0 0 0 0 0 0 0 0 0 7 0 0 0 0 0 0 0 0 0 0 0 0 0 0 0 0 7 0 0 0 0 0 0 0 0 0 0 0 0 0 0 7 0 0 0 0 0 0 0 0 0 0 0 0 0 0 0 0 7 0 0 7 0 0 0 0 0 0 0 0 0 0 0 0 0 0 0 0 0 0 0 0 0 0 0 0 0 0 0 0 7 0 0 0 0 0 0 0 0 0 0 0 0 0 0 7 0 0 0 0 0 0 0 0 0 0 0 0 0 0 0 0 7 0 0 0 0 0 0 0 0 0 0 0 0 0 0 7 0 0 0 0 0 7 0 0 0 0 0 7 0 0 0 0 7 0 0 0 0 0 0 0 0 0 0 0 0 0 0 7 0 0 0 0 7 0 0 0 0 0 0 7 0 7 5 4 ; ; % O   @ O O O O O                                                                           O + 2 x >.c.c.>.j 3 %       . .     ",
"  O     .     O 7 S 8.f.a. .n 7 =                                                                         O       X       O % % O O O @ O O O O O O O O O O   O O   O   O   O O   O   O O O O O   O   O O   O   O O   O O O   O O   O   O   O O   O   O O O O O O   O O O O O O O O O O O O   O   O   O O   O   O O   O O O   O O   O   O   O O O O   O O O   O O O O O O O O O O   O O O   O O O O   O   O O     O O O O   O O O O O   O   O O O O O O   O O O O O O O O O   O O O O O O O   O   O   O O   O   O O   O O O   O O   O O O O   O O O O O O O O O O O .   . X O * O #                                                                               o . #   O O O X     O % % % % % % % O O @ % @ X       O O   X           O             .                                                       X     O O . X   X O O O O % % O O O O O O O   O   O   O O   O   O O   O O O   O O   O   O   O O   O   O O O O O   O   O O   O   O O   O O O   O O   O   O   O O   O   O O O O O O O O O O     O O O   O   O   O O   O   O   O O   O   O O O O O   O   O O   O   O O   O O O   O O   O   O   O O   O   O O O O O   O   O O   O   O O   O O O   O   O O O O   O O O O O O O O O O   O   O O   O   O O   O O O   O O O O O O O   O O O % % O @   O X   X O O O O % O                                                                             O 2 x >.c.c.>.j 2 % O             ",
"      . . .   O 7 S ,.f.g. .c 7 %                                                                         O O O   # .   O %   . . X X O O O O O O O + O O O O O O O O O O   O O O O O O O O O O O O O O O O O O O   O O O O O O O O O O O   O O O O O O O O O O O O O O O O O O O + O O   O O O O O O O O O O O O   O O O O O O O O O O O O O . O O O O O   O O O + O O   O O O O O O O O O O O O   O O O O O O O O O O O O O O O O O # . O   O O O O O O O O O O O . O   O O O O + O O   O O O O O O O O O O O O   O O O O O O O O O O   O O O O + O O O   X . #   O O   O O & + .                                                   .                       O   # #             X X X   . + + + + + O O   X X   X X O O O   X O O O O O   #                                                       O     O O O     O % O   X X . . O + .   . O + O O O O O O O O O O O O O O O O   O O O O O O O O O O O   O O O O O O O O O O O O O O O O O O O   O O O O O O O O O O O   O O O O O O O O O O . O   O O O   O O   O O O O O O O O O O O   O O O O O O O O O O O O O O O O O O O   O O O O O O O O O O O   O O O O O O O O O O O O O O O O O O O   O O O O O O O O O O O O O O . O   O O O O O O O O O O O O O O   O O O O O O O O O O O   O O O O O +         X o # X @ O   O                           #                                                 . O 2 x <.c.c.<.j 2 %           .   ",
"@       .     O 5 S ,.g.a. .n 7 =                   #                                                   O O O O O X     O O #       # O * O O   .     O   . O   O .   O . O . O   . O     . O     . O   O .   O . O . O   . O   O .   O . O . O   . O     . O     O .     .   O     O   O .   O   . O   O .   O . O . O   . O   O .   O .   O O   . O   O . O       O   O .   O   O .     O .   . O . O   . O   O .   O .     . O   O O   O O   . O   . O   O     O O   O .   O       O O .   O   . O   O .   O . O . O   . O   O     . O     O     O . .   . . .   O + O # O & %                                                                             O O O   O     X X X X X       . . $ . . + .       X X   O O O     O O   #               X                                       O   O       O O O     O O @ @         . . . . . O . O     . O       . O   O .   O . O . O   . O   O .   O . O . O   . O     . O     . O   O .   O . O . O   . O   O .   O . O . O   . O     . O   O O O   O . O O . O . O   . O   O .   O . O . O   . O     . O     . O   O .   O . O . O   . O   O .   O . O . O   . O     . O     . O   O .   O . O . O   . O   O .   O .     . O O O     O .     . O   O .   O . O . O   . O     O   . O   . O     O   .   .                                                                                                 % 2 x ;.c.c.,.j 2 % O       .     ",
"      .       O 7 S ,.f.a...n 7 %                                                                                                                                                                                                                                                                                                                                                                                                                                                                                                                                                                                                                                                                 .                                                                                                                                                                                                                                                                                                                                                                                                                                                   O X       O # #                                                                                                                                                                                         O 2 x >.c.f.>.j 2 % O         .   ",
"        . .   + 7 S <.f.a. .n 7 %   O   #                                                                                                                                                                                                                                                                                                                                                                                                                                                                                                                                                                                                                                                                                                                                                                                                                                                                                                                                                                                                                                                                                                 O #   .         #             # #       # # # # O #                                                                                                                                                               O + 2 x <.c.c.,.j 2 %               ",
"O       .     O 7 S ,.f.a. .n 7 =                                                                                                                                                                                                                                                                                                                                                                                                                                                                                                                                                                                                                                                                                                                                                                                                                                                                                                                                                                                                                                                                                                                   # #       #   #       # O #             #                                                                                                                                                               O O 2 x >.c.c.<.j 2 % O       . .   ",
"      # .   . O 7 S ,.g.p...n 7 %                                                                                                                                                                                                                                                                                                                                                                                                                                                                                                                                                                                                                                                                                                                                                                                                                                                                                                                                                                                                                                                                                                               #         #                                                                                                                                                                                                   O 2 x <.c.c.<.j 3 %               ",
"      .       O 7 S ,.f.g. .n 7 %       .                                                                                                                                                                                                                                                                                                                                                                                                                                                                                                                                                                                                                                                                                                                                                                                                                                                                                                                                                                                                                                                                                                   .                                               # #                                                                                                                                                             O O 2 x ;.c.c.>.j 2 % O       .     ",
"        . .   + 7 S <.f.a. .n 7 ; O                                                                                                                                                                                                                                                                                                                                                                                                                                                                                                                                                                                                                                                                                                                                                                                                                                                                                                                                                                                                                                                                                                                 # # # >                                                                                                                                                                                                 # O 2 x <.c.c.<.x 2 %         .     ",
"  O   .       O 7 S 8.p.w. .c 7 %                                                                                                                                                                                                                                                                                                                                                                                                                                                                                                                                                                                                                                                                                                                                                                                                                                                                                                                                                                                                                                                                                                                                                                                                                                                                                                                           O O 2 x >.c.c.>.j 2 %           .   ",
"        . . . O 7 S ,.g.g. .n 7 =                                                                                                                                                                                                                                                                                                                                                                                                                                                                                                                                                                                                                                                                                                                                                                                                                                                                                                                                                                                                                                                                                                                                                                                                                                                                                                                             O 2 x >.c.f.<.j 2 % O       .     ",
"      . .     O 9 S ,.f.a. .x 7 % O                                                                                                                                                                                                                                                                                                                                                                                                                                                                                                                                                                                                                                                                                                                                                                                                                                                                                                                                                                                                                                                                                                                                                                               #     #                                                                                                                                   O + 2 x =.c.c.,.j 5 %               ",
"@           . O 7 S ,.f.a. .n 7 %       .                                                                                                                                                                                                                                                                                                                                                                                                                                                                                                                                                                                                                                                                                                                                                                                                                                                                                                                                                                                                                                                                                                                                                                                                                                                                                                                     O 2 x <.c.c.<.j 2 %         . .   ",
"O     . . .   O 7 S ,.f.a. .n 7 %                   X #                                                                                                                                                                                                                                                                                                                                                                                                                                                                                                                                                                                                                                                                                                                                                                                                                                                                                                                                                                                                                                                                                                                                                                                                                                                                                                     . O 2 x >.c.f.<.j 3 %               ",
"          . . O 7 S ,.f.g. .n 7 % O                                                                                                                                                                                                                                                                                                                                                                                                                                                                                                                                                                                                                                                                                                                                                                                                                                                                                                                                                                                                                                                                                                                                                                                                                                                                                                                           % 2 x >.c.c.>.j 2 % O       .     ",
"        . .   O 7 S ,.f.p...c 7 =                   # #                                                                                                                                                                                                                                                                                                                                                                                                                                                                                                                                                                                                                                                                                                                                                                                                                                                                                                                                                                                                                                                                                                                                                                                                                                                                                                       O 2 x >.c.c.1.j 2 % O     . .     ",
"O         . . O 7 S ,.f.g. .n 7 %                                                                                                                                                                                                                                                                                                                                                                                                                                                                                                                                                                                                                                                                                                                                                                                                                                                                                                                                                                                                                                                                                                                                                                                                                                                                                                                           O O 2 x >.c.c.<.j 2 % O             ",
"        . .   O 7 S 8.g.a. .n 7 =       #                                                                                                                                                                                                                                                                                                                                                                                                                                                                                                                                                                                                                                                                                                                                                                                                                                                                                                                                                                                                                                                                                                                                                                                                                                                                                                                   O O 2 x <.c.c.<.j 2 O         . .   ",
"O   O #       O 5 V <.f.q. .n 7 %                     #                                                                                                                                                                                                                                                                                                                                                                                                                                                                                                                                                                                                                                                                                                                                                                                                                                                                                                                                                                                                                                                                                                                                                                                                                                                                                                   .   O 2 x <.f.f.>.j 2 % O             ",
"O O O O       @ 5 V 1.f.p.@.n 7 O .   X                                                                                                                                                                                                                                                                                                                                                                                                                                                                                                                                                                                                                                                                                                                                                                                                                                                                                                                                                                                                                                                                                                                                                                                                                                                                                                                       % 5 M -.j.p.=.j 2 %             O ",
". .   O O     O 2 V ,.f.p.@.n 7 %                                                                                                                                                                                                                                                                                                                                                                                                                                                                                                                                                                                                                                                                                                                                                                                                                                                                                                                                                                                                                                                                                                                                                                                                                                                                                                                             % 2 x -.g.f.=.j 2 % O             ",
"        X   X O 5 S 1.f.f.@.n 7 O .     .                                                                                                                                                                                                                                                                                                                                                                                                                                                                                                                                                                                                                                                                                                                                                                                                                                                                                                                                                                                                                                                                                                                                                                                                                                                                                                                     O , x >.g.c.<.x 5 % O       X     ",
".     X       O 5 S <.f.f.@.V 7 O                         .           # X                                                                                                                                                                                                                                                                                                                                                                                                                                                                                                                                                                                                                                                                                                                                                                                                                                                                                                                                                                                                                                                                                                                                                                                                                                                                                     O , x ,.v.c.8.x 5 =               ",
"  .           O 7 V :.f.f.;.V 7 *                   X # #       # . X #               #                                                                                                                                                                                                                                                                                                                                                                                                                                                                                                                                                                                                                                                                                                                                                                                                                                                                                                                                                                                                                                                                                                                                                                                                                                               # # .                 X O 2 x >.v.c.7.j 2 %         X     ",
".     X       O 5 V 1.p.p.;.V 7 % .     .                 X # #           # .   #                                                                                                                                                                                                                                                                                                                                                                                                                                                                                                                                                                                                                                                                                                                                                                                                                                                                                                                                                                                                                                                                                                                                                                                                                                     # #         #                           O 2 n ,.M.c.,.l 2 %               ",
"          .   O 5 n :.a.p.@.n 0 % .                   #           o O .                                                                                                                                                                                                                                                                                                                                                                                                                                                                                                                                                                                                                                                                                                                                                                                                                                                                                                                                                                                                           .                                                     #                                                                                                                                                                 # X #                                             O % 5 n 7.c.f.-.s = O     O         ",
"    O         O 2 n :.f.s.@.n 7 = .                           .             #       # .                                                                                   #                         #           #     # #           #                                                                       .     .                                                   #       .   #                       .             .     #                                   #     # .                                                   #                         #                 #                                             #                                                                                               #     #   #                     .     # o       #     . .                                     # .                                         #                                 #     .               #                                             #           . #                         #       .                                               . O X                                   #     #             #                                                                                                                                                                             .     #     O .   # X                       % 2 n ,.f.f.=.d = O       O O     ",
". . O O O O   @ 5 V 1.g.p.X.x 7 %         #                                                                                                                                                                                                                                                                                                                                                                                                                                                                                                                                                                                                                                                                                                                                                                                                                                                                                                                                                                                                                                                                                                                                                                                                                                                                                           O     O O       O #     O , v >.f.n.,.d 3 % O O   O O     ",
"X   O % % O O O 5 S ,.g.s.X.x 7 * . # X     #                                                                                                                                                                                                                                                                                                                                                                                                                                                                                                                                                                                                                                                                                                                                                                                                                                                                                                                                                                                                                                                                                                                                                                                                                                                                                                           # O O O 2 v 1.j.c.0.d 5 - + .           ",
"X     O O % % % 0 J 8.f.s.X.x 7 + .           #                                                                                                                                                                                                                                                                                                                                                                                                                                                                                                                                                                                                                                                                                                                                                                                                                                                                                                                                                                                                                                                                                                                                                                                                                                                                                   O   O   #   O       O     X O 1 l :.f.c.0.x 0 , + .           ",
"  X     O O % - 8 S 1.g.p.O.n 0 %                                                                                                                                                                                                                                                                                                                                                                                                                                                                                                                                                                                                                                                                                                                                                                                                                                                                                                                                                                                                                                                                                                                                                                                                                                                                                                         O           #   # O % 2 x =.f.f.,.x 0 , - O           ",
"      X O O % % 7 n *.a.p.>.J p , O                                                                                                                                                                                                                                                                                                                                                                                                                                                                                                                                                                                                                                                                                                                                                                                                                                                                                                                                                                                                                                                                                                                                                                                                                                                                                                 O     #       O   O   O % , e S >.p.s.:.l 7 < % .     X     ",
"O O X     . O + 3 g ) w.f.q. .c 7 ; O   #     . .                                                                                                                                                                                                                                                                                                                                                                                                                                                                                                                                                                                                                                                                                                                                                                                                                                                                                                                                                                                                                                                                                           #       #                                                                                                                                                                                         O         # X % q n ` q.f.9.( s 2 - % .           ",
", *   X       . = e V =.p.g.,.K u , % .   .   X                                                                                                                                                                                                                                                                                                                                                                                                                                                                                                                                                                                                                                                                                                                                                                                                                                                                                                                                                                                                                                                                                                 .                                         #   #                                                                                                                               O O   O     O     O #   O     , d / 8.p.p.@.V 9 % O + O           ",
"< %   X X   .   % 2 x _ q.j.u...m 0 1 O O O                                                                                                                                                                                                                                                                                                                                                                                                                                                                                                                                                                                                                                                                                                                                                                                                                                                                                                                                                                                                                                                                                               @ .         # O .   .     # # O   .       . O     .                                                                                                                     O               O   O O             O % = 7 n O.w.g.<.^ d 4 O .   .           ",
"O . .   # .     O , t J -.g.g.w. .V e 3 = O                 .       .   . O . .   O . O . .   O . O .   . O . O .   . O . O .   .   . O . .   . O   . . O . O . . O .   . O . O .   . O . O .   .   . O . .   . O   . . O . O . . O .   . O . O .   . O . O .   O   . .   .   . O .   . O . O . .   O . .   O . .   . O .   . O . O .   . O . O .   . O . O .   O   . .   .   . O .   . O . O . . O .   O . .   . O . .   O . O . . .   O . O . .   O . O . . O O   . .   .   . O .   . O . O . .   O . .   O . .   . O .   . O . O .   . O . O .   . O . O .   O   . .   .   . O .   . O . O . . O .   O . .   . O . .   O . O . . .   O . O . .   O . O . . O O   . .   .   . O .   . O . O . .   O . .   O . .   . O .   . O . O .   . O . O .   . O . O .   O   . .   .   . O .   . O . O . .   . O . .   . O   . . O . O . . O .   . O . O .   . O . O .   .   . O . .   . O   . . O . O . . O .   . O . O .   . O . O .   .   . O . .   . O   . . O . O . . O .   . O . O .   . O . O .   .   . O . .   . O   . . O . O . . O .   . O . O .   . O . O .   .   . O . .   . O   . . O . O . . O .   . O . O .   . O . O .   .   . O . .   . O   . . O . O . . . O O . . . O . . O . . . O O .   . O . .   . O   . . O . O . . O .   . O . O .   . O . O .   .   . O . .   . O   . . O . O . . O .   .   . O .   . O . O O O O O .   +   .   X     ; 3 0 c ..w.a.w.+.V p 1 O X               ",
".   . .   . O     O 2 d I -.a.g.q...C f r 5 , = = = = = = = % % % - = - = = = , = = = = = , = = = = = , = = = = = , = = = = = , , = , = , = , = = , = = = = , = = = = , = = = = = , = = = = = , , = , = , = , = = , = = = = , = = = = , = = = = = , = = = = = , = = , = , = , = = = , = = = = = , = , = = = , = , , = = = , = = = = = , = = = = = , = = = = = , = = , = , = , = = = , = = = = = = = = = , = , , = = = , = = = = = , = = = = = , = - = = , = = = = = , = , = , = = = , = = = = = , = , = = = , = , , = = = , = = = = = , = = = = = , = = = = = , = = , = , = , = = = , = = = = = = = = = , = , , = = = , = = = = = , = = = = = , = - = = , = = = = = , = , = , = = = , = = = = = , = , = = = , = , , = = = , = = = = = , = = = = = , = = = = = , = = , = , = , = = = , = = = = = , = , = , = , = = , = = = = , = = = = , = = = = = , = = = = = , , = , = , = , = = , = = = = , = = = = , = = = = = , = = = = = , , = , = , = , = = , = = = = , = = = = , = = = = = , = = = = = , , = , = , = , = = , = = = = , = = = = , = = = = = , = = = = = , , = , = , = , = = , = = = = , = = = = , = = = = = , = = = = = , , = , = , = , = = , = = = = = , , = = = = , = = , = , = = - = = , = , = , = , = = , = = = = , = = = = , = = = = = , = = = = = , , = , = , = , = = , = = = = , = = = = , , , = = , = = = = , , , , , , , , 1 % % % = 2 w j V ` ,.a.w.+.J d 7 , O         O       ",
"  O     O O O   X X O 2 y S +.w.g.a.8.+.^ V d p e i p p d d d p p p p y p y p p p p p p p p p p y p p p p p p p p p p p p p p p p p p y s y p p p p p p p y p p y p p p p p p p p p p p p p p p p p p y s y p p p p p p p y p p y p p p p p p p p p p p p p p p p p p p p p p p p p p p p p p y p y p p p p p p p y p p p p p p y p p p p p p p p p p p p p p p p p p p p p p p p p p p p p p y p p p p p p p y p p y p p p p p p p p p y p p p p p p p p p y p p p p p p p p p p p p p p p p y p y p p p p p p p y p p p p p p y p p p p p p p p p p p p p p p p p p p p p p p p p p p p p p y p p p p p p p y p p y p p p p p p p p p y p p p p p p p p p y p p p p p p p p p p p p p p p p y p y p p p p p p p y p p p p p p y p p p p p p p p p p p p p p p p p p p p p p p p p p p p p p y p p p y s y p p p p p p p y p p y p p p p p p p p p p p p p p p p p p y s y p p p p p p p y p p y p p p p p p p p p p p p p p p p p p y s y p p p p p p p y p p y p p p p p p p p p p p p p p p p p p y s y p p p p p p p y p p y p p p p p p p p p p p p p p p p p p y s y p p p p p p p y p p y p p p p p p p p p p p p p p p p p p y s y p p p p p p y p p p p y p p p p p p p y p p p p p p p p p y s y p p p p p p p y p p y p p p p p p p p p p p p p p p p p p y s y p p p p p p p y p p p p p p p p y p p p p p y p p p p d d d d p p y y d n T o.8.d.d.7.+.J d 0 = O   X O   . .       ",
"O     O O O       X     1 y C +.d.v.j.p.9.@._ ( ( ( ( ] '  . .X.' ' ' ( ( ( ( ( ( ( ( ( ( ( ( ( ( ( ( ( ( ( ( ( ( ( ( ( ( ( ( ( ( ( ( ( ( ( ( ( ( ( ( ( ( ( ( ( ( ( ( ( ( ( ( ( ( ( ( ( ( ( ( ( ( ( ( ( ( ( ( ( ( ( ( ( ( ( ( ( ( ( ( ( ( ( ( ( ( ( ( ( ( ( ( ( ( ( ( ( ( ( ( ( ( ( ( ( ( ( ( ( ( ( ( ( ( ( ( ( ( ( ( ( ( ( ( ( ( ( ( ( ( ( ( ( ( ( ( ( ( ( ( ( ( ( ( ( ( ( ( ( ( ( ( ( ( ( ( ( ( ( ( ( ( ( ( ( ( ( ( ( ( ( ( ( ( ( ( ( ( ( ( ( ( ( ( ( ( ( ( ( ( ( ( ( ( ( ( ( ( ( ( ( ( ( ( ( ( ( ( ( ( ( ( ( ( ( ( ( ( ( ( ( ( ( ( ( ( ( ( ( ( ( ( ( ( ( ( ( ( ( ( ( ( ( ( ( ( ( ( ( ( ( ( ( ( ( ( ( ( ( ( ( ( ( ( ( ( ( ( ( ( ( ( ( ( ( ( ( ( ( ( ( ( ( ( ( ( ( ( ( ( ( ( ( ( ( ( ( ( ( ( ( ( ( ( ( ( ( ( ( ( ( ( ( ( ( ( ( ( ( ( ( ( ( ( ( ( ( ( ( ( ( ( ( ( ( ( ( ( ( ( ( ( ( ( ( ( ( ( ( ( ( ( ( ( ( ( ( ( ( ( ( ( ( ( ( ( ( ( ( ( ( ( ( ( ( ( ( ( ( ( ( ( ( ( ( ( ( ( ( ( ( ( ( ( ( ( ( ( ( ( ( ( ( ( ( ( ( ( ( ( ( ( ( ( ( ( ( ( ( ( ( ( ( ( ( ( ( ( ( ( ( ( ( ( ( ( ( ( ( ( ( ( ( ( ( ( ( ( ( ( ( ( ( ( ( ( ( ( ( ( ( ( ( ( ( ( ( ( ( ( ( ( ( ( ( ( ( ( ( ( ( ( ( ( ( ( ( ( ( ( ( ( ( ( ( ( ( ( ( ( ( ( ( ( ( ( ( ( ( ( ( ( ( ( ( ( ( ( ( ( ( ( ( ( ( ( ( ( ( ( ( ( ( ( ( ( ( ( ( ( ( ( ( ( ( ( ( ( ( ( ( ( ( ( ( ( ( ( ( ( ( ( ( ( ( ( ( ( ( ( ( ( ( ( ( ( ( ( ( ( ( ( ( ( ( ( ( ( ( ( ( ( ( ( ( ( ( ( ( ( ( ( ( ( Y ( ( ' ( ' ' ( ( ( _  .9.q.p.f.r.+.S j 7 ;   X X   O O O O       ",
"                          1 t C ..8.p.f.b.p.s.p.r.e.q.s.p.p.f.p.p.p.p.s.s.p.q.s.s.p.r.p.r.s.p.r.p.r.p.s.s.q.s.p.r.s.p.q.s.w.p.r.s.q.p.q.s.q.p.q.s.q.s.p.s.q.s.s.p.r.p.s.s.q.s.p.r.s.p.q.s.w.p.r.s.q.p.q.s.q.p.q.s.q.s.p.s.q.s.s.p.r.p.s.s.q.s.p.r.s.p.q.s.w.p.r.s.q.s.p.p.s.q.p.s.q.s.q.p.q.s.p.s.q.p.q.s.q.p.r.q.p.p.q.s.r.p.s.p.r.p.s.s.q.s.p.r.s.p.q.s.w.p.r.s.q.s.p.p.s.q.p.s.q.s.q.p.q.s.p.s.p.r.p.s.q.s.s.p.s.q.s.p.r.p.p.p.p.q.p.s.p.r.s.p.s.q.s.p.r.p.p.s.q.s.p.p.s.q.p.s.q.s.q.p.q.s.p.s.q.p.q.s.q.p.r.q.p.p.q.s.r.p.s.p.r.p.s.s.q.s.p.r.s.p.q.s.w.p.r.s.q.s.p.p.s.q.p.s.q.s.q.p.q.s.p.s.p.r.p.s.q.s.s.p.s.q.s.p.r.p.p.p.p.q.p.s.p.r.s.p.s.q.s.p.r.p.p.s.q.s.p.p.s.q.p.s.q.s.q.p.q.s.p.s.q.p.q.s.q.p.r.q.p.p.q.s.r.p.s.p.r.p.s.s.q.s.p.r.s.p.q.s.w.p.r.s.q.s.p.p.s.q.p.s.q.s.q.p.q.s.p.s.q.p.q.s.q.p.q.s.q.s.p.s.q.s.s.p.r.p.s.s.q.s.p.r.s.p.q.s.w.p.r.s.q.p.q.s.q.p.q.s.q.s.p.s.q.s.s.p.r.p.s.s.q.s.p.r.s.p.q.s.w.p.r.s.q.p.q.s.q.p.q.s.q.s.p.s.q.s.s.p.r.p.s.s.q.s.p.r.s.p.q.s.w.p.r.s.q.p.q.s.q.p.q.s.q.s.p.s.q.s.s.p.r.p.s.s.q.s.p.r.s.p.q.s.w.p.r.s.q.p.q.s.q.p.q.s.q.s.p.s.q.s.s.p.r.p.s.s.q.s.p.r.s.p.q.s.w.p.r.s.q.p.q.s.q.p.q.s.q.s.p.s.p.r.s.q.p.p.r.s.q.p.q.s.q.q.p.q.s.q.p.s.q.p.q.s.q.p.q.s.q.s.p.s.q.s.s.p.r.p.s.s.q.s.p.r.s.p.q.s.w.p.r.s.q.p.q.s.q.p.q.s.q.s.p.s.q.s.s.q.s.p.r.p.r.s.p.s.r.p.r.p.r.e.e.e.r.e.e.p.p.a.s.s.s.p.h.f.p.9._ V s 9 =   X X       O O O       ",
"                O O O     X = e n ^ @.9.r.s.f.f.f.f.f.p.f.f.f.f.c.f.f.f.f.f.f.f.f.f.f.g.f.f.f.f.f.g.f.f.g.f.f.g.f.f.f.f.f.f.g.f.f.j.f.f.f.j.f.f.f.g.f.g.f.g.f.f.f.g.f.f.g.f.f.g.f.f.f.f.f.f.g.f.f.j.f.f.f.j.f.f.f.g.f.g.f.g.f.f.f.g.f.f.g.f.f.g.f.f.f.f.f.f.g.f.g.f.f.g.f.g.f.j.g.f.f.f.f.f.f.g.f.j.f.f.f.j.f.f.f.f.j.f.g.f.f.f.f.g.f.f.g.f.f.g.f.f.f.f.f.f.g.f.g.f.f.g.f.g.f.j.g.f.f.f.f.f.f.g.f.f.f.f.g.f.f.g.g.f.f.f.f.f.f.j.f.f.j.f.f.g.f.f.g.f.f.f.f.f.f.j.g.f.f.g.f.g.f.j.g.f.f.f.f.f.f.g.f.j.f.f.f.j.f.f.f.f.j.f.g.f.f.f.f.g.f.f.g.f.f.g.f.f.f.f.f.f.g.f.g.f.f.g.f.g.f.j.g.f.f.f.f.f.f.g.f.f.f.f.g.f.f.g.g.f.f.f.f.f.f.j.f.f.j.f.f.g.f.f.g.f.f.f.f.f.f.j.g.f.f.g.f.g.f.j.g.f.f.f.f.f.f.g.f.j.f.f.f.j.f.f.f.f.j.f.g.f.f.f.f.g.f.f.g.f.f.g.f.f.f.f.f.f.g.f.g.f.f.g.f.g.f.j.g.f.f.f.f.f.f.g.f.j.f.f.f.j.f.f.f.g.f.g.f.g.f.f.f.g.f.f.g.f.f.g.f.f.f.f.f.f.g.f.f.j.f.f.f.j.f.f.f.g.f.g.f.g.f.f.f.g.f.f.g.f.f.g.f.f.f.f.f.f.g.f.f.j.f.f.f.j.f.f.f.g.f.g.f.g.f.f.f.g.f.f.g.f.f.g.f.f.f.f.f.f.g.f.f.j.f.f.f.j.f.f.f.g.f.g.f.g.f.f.f.g.f.f.g.f.f.g.f.f.f.f.f.f.g.f.f.j.f.f.f.j.f.f.f.g.f.g.f.g.f.f.f.g.f.f.g.f.f.g.f.f.f.f.f.f.g.f.f.j.f.f.f.j.f.f.f.g.f.g.f.g.f.f.f.f.f.f.f.f.f.f.f.f.f.f.f.f.f.f.f.j.f.f.f.j.f.f.f.g.f.g.f.g.f.f.f.g.f.f.g.f.f.g.f.f.f.f.f.f.g.f.f.j.f.f.f.j.f.f.f.g.f.g.f.g.f.f.f.f.g.f.f.f.f.g.f.f.f.f.f.f.p.s.p.p.p.p.p.f.f.f.c.c.n.j.q.@.( M e 5 = @ X X   X #   . O   O O   ",
"  X       X     O % ; O   X   ; 5 y j S ) #.1.t.8.5.,.1.:.1.1.1.,.,.,.,.,.,.8.8.,.,.8.,.8.,.8.,.8.,.8.,.,.,.8.,.8.,.8.8.8.8.,.8.8.,.8.8.8.8.,.,.,.,.,.,.,.,.,.,.8.,.8.,.,.,.8.,.8.,.8.8.8.8.,.8.8.,.8.8.8.8.,.,.,.,.,.,.,.,.,.,.8.,.8.,.,.,.8.,.8.,.8.8.8.8.,.8.,.,.,.,.8.,.,.8.8.,.8.,.,.,.,.8.8.8.,.,.8.8.,.8.8.,.,.8.,.8.,.,.8.,.8.,.,.,.8.,.8.,.8.8.8.8.,.8.,.,.,.,.8.,.,.8.8.,.8.,.,.,.,.8.,.,.,.,.,.,.,.,.,.,.,.8.,.8.,.,.,.,.,.,.,.8.,.8.,.,.,.8.,.8.,.,.,.,.,.,.8.,.,.8.8.,.8.,.,.,.,.8.8.8.,.,.8.8.,.8.8.,.,.8.,.8.,.,.8.,.8.,.,.,.8.,.8.,.8.8.8.8.,.8.,.,.,.,.8.,.,.8.8.,.8.,.,.,.,.8.,.,.,.,.,.,.,.,.,.,.,.8.,.8.,.,.,.,.,.,.,.8.,.8.,.,.,.8.,.8.,.,.,.,.,.,.8.,.,.8.8.,.8.,.,.,.,.8.8.8.,.,.8.8.,.8.8.,.,.8.,.8.,.,.8.,.8.,.,.,.8.,.8.,.8.8.8.8.,.8.,.,.,.,.8.,.,.8.8.,.8.,.,.,.,.8.8.,.8.8.8.8.,.,.,.,.,.,.,.,.,.,.8.,.8.,.,.,.8.,.8.,.8.8.8.8.,.8.8.,.8.8.8.8.,.,.,.,.,.,.,.,.,.,.8.,.8.,.,.,.8.,.8.,.8.8.8.8.,.8.8.,.8.8.8.8.,.,.,.,.,.,.,.,.,.,.8.,.8.,.,.,.8.,.8.,.8.8.8.8.,.8.8.,.8.8.8.8.,.,.,.,.,.,.,.,.,.,.8.,.8.,.,.,.8.,.8.,.8.8.8.8.,.8.8.,.8.8.8.8.,.,.,.,.,.,.,.,.,.,.8.,.8.,.,.,.8.,.8.,.8.8.8.8.,.8.8.,.8.8.8.8.,.,.,.,.,.,.,.8.,.,.,.8.,.,.,.,.,.8.,.8.,.8.,.,.,.,.8.,.8.8.8.8.,.,.,.,.,.,.,.,.,.,.8.,.8.,.,.,.8.,.8.,.8.8.8.8.,.8.8.,.8.8.8.8.,.,.,.,.,.,.,.,.,.,.,.8.,.,.,.,.8.,.8.8.,.8.,.,.1.,.,.1.1.-.1.,.t.8.8.8.-.` S d w 5 = % % O   X           O O O O   ",
"X               O % % %         O = 5 r j c V S V V n n n n V V V n V n V V C V V V V V V C S V V V V C S V V V V V C V C V V V V V C V C V V S S C S V V S V C V V V C S V V V V V C V C V V V V V C V C V V S S C S V V S V C V V V C S V V V V V C V C V V V V V S C V V V C V V S C S C V V V V C S V C V V S C V S C V V V V V V C S V V V V V C V C V V V V V S C V V V C V V S C S C V V S C S V V S C V S V V C V V V S S C S V C V V V S V V C V V V S V V S C V V V C V V S C S C V V V V C S V C V V S C V S C V V V V V V C S V V V V V C V C V V V V V S C V V V C V V S C S C V V S C S V V S C V S V V C V V V S S C S V C V V V S V V C V V V S V V S C V V V C V V S C S C V V V V C S V C V V S C V S C V V V V V V C S V V V V V C V C V V V V V S C V V V C V V S C S C V V V V C V C V V S S C S V V S V C V V V C S V V V V V C V C V V V V V C V C V V S S C S V V S V C V V V C S V V V V V C V C V V V V V C V C V V S S C S V V S V C V V V C S V V V V V C V C V V V V V C V C V V S S C S V V S V C V V V C S V V V V V C V C V V V V V C V C V V S S C S V V S V C V V V C S V V V V V C V C V V V V V C V C V V S S C S V V V V V V V V S V C V V V C V V V V S V V V C V C V V S S C S V V S V C V V V C S V V V V V C V C V V V V V C V C V V S S C S V V S V C V S C V S V V V V C V V V V V V C V V V n n C C S V n f i 2 %         @ X .   X           O     ",
"        O           #               O % 1 2 2 5 2 , , , = , 2 2 , 1 = 1 , 2 2 1 2 2 1 2 2 , 2 2 , 2 2 1 2 2 1 2 , 2 2 1 , 2 2 1 , 2 2 1 , 2 2 1 , 2 , 2 2 1 2 2 , 2 2 1 2 2 1 2 , 2 2 1 , 2 2 1 , 2 2 1 , 2 2 1 , 2 , 2 2 1 2 2 , 2 2 1 2 2 1 2 , 2 2 1 1 2 , 2 2 2 1 2 2 , 2 2 , 2 2 1 2 2 1 2 , 2 2 1 , 2 2 1 , 2 , 2 2 1 2 2 , 2 2 1 2 2 1 2 , 2 2 1 1 2 , 2 2 2 1 2 2 , 2 2 1 2 2 , 2 2 1 2 , 2 , 2 2 1 2 , 2 2 1 2 1 2 2 , , 2 , 2 1 2 2 , 2 2 1 2 2 1 2 , 2 2 1 2 2 , 2 2 , 2 2 1 2 2 1 2 , 2 2 1 , 2 2 1 , 2 , 2 2 1 2 2 , 2 2 1 2 2 1 2 , 2 2 1 1 2 , 2 2 2 1 2 2 , 2 2 , 2 2 1 2 2 1 2 , 2 , 2 2 1 2 , 2 2 1 2 1 2 2 , , 2 , 2 1 2 2 , 2 2 1 2 2 1 2 , 2 2 1 2 2 , 2 2 , 2 2 1 2 2 1 2 , 2 2 1 , 2 2 1 , 2 , 2 2 1 2 2 , 2 2 1 2 2 1 2 , 2 2 1 1 2 , 2 2 2 1 2 2 , 2 2 1 2 2 , 2 2 1 2 , 2 2 1 , 2 2 1 , 2 , 2 2 1 2 2 , 2 2 1 2 2 1 2 , 2 2 1 , 2 2 1 , 2 2 1 , 2 2 1 , 2 , 2 2 1 2 2 , 2 2 1 2 2 1 2 , 2 2 1 , 2 2 1 , 2 2 1 , 2 2 1 , 2 , 2 2 1 2 2 , 2 2 1 2 2 1 2 , 2 2 1 , 2 2 1 , 2 2 1 , 2 2 1 , 2 , 2 2 1 2 2 , 2 2 1 2 2 1 2 , 2 2 1 , 2 1 2 , 2 2 1 , 2 2 1 , 2 , 2 2 1 2 2 , 2 2 1 2 2 1 2 , 2 2 1 , 2 2 1 , 2 2 1 , 2 2 1 , 2 , 2 2 1 2 2 , 2 2 1 2 2 1 2 , 2 2 1 , 2 2 1 , 2 2 1 , 2 2 1 , 2 , 2 2 1 2 2 , 2 2 1 2 2 1 2 , 2 2 1 , 2 2 1 , 2 2 1 , 2 2 1 , 2 , 2 2 1 2 2 1 2 2 , 2 2 1 2 2 1 2 , 2 1 , , 2 5 5 2 2 , = , , , = % +     X X     O O   .   .       O       ",
"O   O O                       . . . .   . O + O       X   X                                     X                                                     X         X                                                     X                                       X                   X                                                                           X                                                                                                                   X                                                                           X                 X                                                                                                 X                                                                           X                                                       X         X                                                     X         X                                                     X         X                                                     X                                                               X         X                                                     X         X                                                     X         X                                                     X                               X         O O O O               .   . .   .   O   O O                     ",
"O O O     O                 # O O X   X O O % % O O                 X     X X     X   X X             X     X X       X     X       X     X X       X                 X     X X       X     X       X     X X       X             X       X   X   X X             X   X X             X   X   X     X     X         X X           X       X   X   X X             X   X X         X       X   X X       X   X           X   X   X       X     X         X   X     X   X X             X   X   X     X     X         X X           X       X   X   X X             X   X X             X   X   X X       X   X           X   X   X       X     X         X   X     X   X X             X   X   X     X     X         X X           X       X   X   X X             X   X X         X       X   X     X     X X       X                 X     X X       X     X       X     X X       X                 X     X X       X     X       X     X X       X                 X     X X       X     X       X     X X       X             X   X   X   X     X     X         X     X X       X                 X     X X       X     X       X     X X       X                 X     X X       X     X       X     X X       X                 X     X X       X     X       X     X X       X             X X     X   X               X   O O O O   .         . + O + + O O   # .   . O O O             ",
"O O                   X . . O O O   . . . O % % % O O                                         X X                       X       X                         X     X                       X       X                         X       X   X                       X             X     X             X           X           X X       X   X                       X             X     X                 X             X                 X             X                         X     X             X           X           X X       X   X                       X             X   X                   X             X                 X             X                         X     X             X           X           X X       X   X                       X             X     X             X                         X     X                       X       X                         X     X                       X       X                         X     X                       X       X                         X       X             X           X   X                         X     X                       X       X                         X     X                       X       X                         X     X                       X       X                         X                           X             O             O O O + O + % % O     .   O O O O O           ",
"O O           O             O O #           O O % % O O     X X   O O X O         X       X   X         X   X   X X     X         X             X   X   X X             X   X   X X     X         X             X   X   X X         X     X           X     X     X       X   X     X     X       X             X   X     X         X     X           X     X     X       X   X   X   X   X           X     X   X     X       X     X     X     X     X       X   X       X   X     X     X       X             X   X     X         X     X           X     X     X       X   X     X   X   X         X     X   X     X       X     X     X     X     X       X   X       X   X     X     X       X             X   X     X         X     X           X     X     X       X   X   X   X   X       X             X   X   X X             X   X   X X     X         X             X   X   X X             X   X   X X     X         X             X   X   X X             X   X   X X     X         X             X   X   X X         X     X       X         X     X             X   X   X X             X   X   X X     X         X             X   X   X X             X   X   X X     X         X             X   X   X X             X   X   X X     X         X             X   X   X X       X   X         X   X                       O O O   O         O O O         O O O O O           ",
"            O           O O O       X             O O     .       O O O       X                     X               X         X     X       X               X       X               X         X     X       X               X                     X                                                 X       X               X                     X                                             X         X             X         X                     X                                           X       X               X                     X                                             X         X             X         X                     X                                           X       X               X                     X                                                 X       X               X       X               X         X     X       X               X       X               X         X     X       X               X       X               X         X     X       X               X                         X             X       X               X       X               X         X     X       X               X       X               X         X     X       X               X       X               X         X     X       X               X             X                 O O     X X X   O O O         . .     O .         O O               ",
"        O         X X     O O     O % %   .                       O O       O     O               O         O     O     O   O     O       O         O     O       O         O     O     O   O     O       O         O     O         O     O                 O     O                 O     O       O       O         O     O         O     O                 O     O                 O                     O                               O         X     O       O                 O     O       O       O         O     O         O     O                 O     O               O         O             O                               O         X     O       O                 O     O       O       O         O     O         O     O                 O     O                 O             O       O         O     O       O         O     O     O   O     O       O         O     O       O         O     O     O   O     O       O         O     O       O         O     O     O   O     O       O         O     O         O     O       O               O       O         O     O       O         O     O     O   O     O       O         O     O       O         O     O     O   O     O       O         O     O       O         O     O     O   O     O       O         O     O         O     O             . O O . . X X             X             .     O O O                 O O ",
"      O O O O                 O O % , 1 %             .   . .     . O       #         O   #         #   O       .               .           #   O       .           #   O       .               .           #   O       .           #         O   #         #         O   #         #           #           #   O       .           #         O   #         #         O   #         #     O #       O .       .     O #     O .     O .       #     O .       .       O   #         #           #           #   O       .           #         O   #         #         O   #         #   O           O .       .     O #     O .     O .       #     O .       .       O   #         #           #           #   O       .           #         O   #         #         O   #         #     O #   .           #   O       .           #   O       .               .           #   O       .           #   O       .               .           #   O       .           #   O       .               .           #   O       .           #           #       O   . . .           #   O       .           #   O       .               .           #   O       .           #   O       .               .           #   O       .           #   O       .               .           #   O       .           #         O   #       O + O         X     X     .     . O         O % O O     X X       O % "
};
