/* XPM */
static char *result[] = {
/* columns rows colors chars-per-pixel */
"672 672 256 2 ",
"   c #020302",
".  c #090600",
"X  c #060803",
"o  c #0B0B02",
"O  c #03050A",
"+  c #060909",
"@  c #0B0D0B",
"#  c #09070E",
"$  c #110E01",
"%  c #110F0A",
"&  c #0F1003",
"*  c #0E100E",
"=  c #141303",
"-  c #191603",
";  c #1C1A03",
":  c #12120C",
">  c #1A150A",
",  c #1D1B09",
"<  c #171804",
"1  c #030413",
"2  c #0C0C12",
"3  c #03051B",
"4  c #080917",
"5  c #0F1111",
"6  c #0F111A",
"7  c #121313",
"8  c #191A1A",
"9  c #161718",
"0  c #100F17",
"q  c #221E03",
"w  c #221E09",
"e  c #221D16",
"r  c #252204",
"t  c #2A2503",
"y  c #2D2903",
"u  c #242209",
"i  c #2A2509",
"p  c #2D2A0A",
"a  c #27280B",
"s  c #322C03",
"d  c #322D09",
"f  c #362C02",
"g  c #363203",
"h  c #3B3402",
"j  c #3D3A02",
"k  c #35320A",
"l  c #3A350A",
"z  c #3C3A0C",
"x  c #2A2716",
"c  c #393716",
"v  c #312E15",
"b  c #0A0A24",
"n  c #171727",
"m  c #151631",
"M  c #262637",
"N  c #312F28",
"B  c #1F1F25",
"V  c #433C02",
"C  c #433D0C",
"Z  c #473B01",
"A  c #423E16",
"S  c #423D30",
"D  c #454102",
"F  c #4B4401",
"G  c #4D4A03",
"H  c #4A450B",
"J  c #48450B",
"K  c #534C02",
"L  c #544A06",
"P  c #5C5402",
"I  c #595409",
"U  c #494717",
"Y  c #524D17",
"T  c #5A5617",
"R  c #635B05",
"E  c #635C0A",
"W  c #645904",
"Q  c #625C18",
"!  c #705F00",
"~  c #66610A",
"^  c #6A640A",
"/  c #6B6507",
"(  c #726B0C",
")  c #746A08",
"_  c #7A730A",
"`  c #6A6618",
"'  c #736C16",
"]  c #7A7519",
"[  c #494824",
"{  c #595725",
"}  c #504C33",
"|  c #625E25",
" . c #625E33",
".. c #696726",
"X. c #716E26",
"o. c #787526",
"O. c #787637",
"+. c #6C6A35",
"@. c #33334C",
"#. c #3B3E61",
"$. c #504E4C",
"%. c #726E50",
"&. c #4E4E6B",
"*. c #6C6864",
"=. c #404051",
"-. c #837B19",
";. c #837B09",
":. c #827E25",
">. c #827D38",
",. c #847E5E",
"<. c #8A8419",
"1. c #948A18",
"2. c #9A941B",
"3. c #93880A",
"4. c #A39A18",
"5. c #AFA819",
"6. c #8A8628",
"7. c #938C26",
"8. c #9A9527",
"9. c #898635",
"0. c #989538",
"q. c #928D37",
"w. c #A39C27",
"e. c #A39D36",
"r. c #AAA428",
"t. c #B3AB29",
"y. c #BAB429",
"u. c #A9A536",
"i. c #B3AB39",
"p. c #BAB637",
"a. c #C5BA19",
"s. c #C4BB29",
"d. c #C3BC37",
"f. c #D1C91B",
"g. c #F6EB03",
"h. c #FBEE02",
"j. c #F6EB0B",
"k. c #F9EE0B",
"l. c #F4E709",
"z. c #FDF202",
"x. c #FFF805",
"c. c #FCF30B",
"v. c #FEF90A",
"b. c #F7F108",
"n. c #F9EE13",
"m. c #F5EB1B",
"M. c #F9EE1C",
"N. c #F4EA16",
"B. c #FBF313",
"V. c #FDF915",
"C. c #FBF41B",
"Z. c #FDF91B",
"A. c #F6F118",
"S. c #ECE41C",
"D. c #CBC52A",
"F. c #D5CC2A",
"G. c #DBD32A",
"H. c #CAC537",
"J. c #D3CC38",
"K. c #DBD538",
"L. c #E5DB29",
"P. c #E3DB38",
"I. c #EBE429",
"U. c #F4EC24",
"Y. c #F9ED23",
"T. c #F4EC2C",
"R. c #F6EB2A",
"E. c #FBF323",
"W. c #FBF32C",
"Q. c #FAF627",
"!. c #EBE43C",
"~. c #EAE538",
"^. c #F4EC34",
"/. c #F3ED3C",
"(. c #F4E936",
"). c #FAF434",
"_. c #F5F23B",
"`. c #FAF43B",
"'. c #F9F637",
"]. c #EFF139",
"[. c #E6DC1A",
"{. c #999746",
"}. c #908E4D",
"|. c #A29D44",
" X c #A19E54",
".X c #A9A647",
"XX c #B2AD46",
"oX c #BAB649",
"OX c #A9A656",
"+X c #B9B656",
"@X c #B2AD57",
"#X c #908C69",
"$X c #B4B36D",
"%X c #C3BD46",
"&X c #C2BE56",
"*X c #C1BE66",
"=X c #CBC444",
"-X c #C6C24B",
";X c #CAC54C",
":X c #CCCA4B",
">X c #C9C544",
",X c #D2CC46",
"<X c #D9D546",
"1X c #CAC755",
"2X c #D2CD54",
"3X c #DAD657",
"4X c #CED056",
"5X c #E2DC44",
"6X c #E4DC4A",
"7X c #E3DD58",
"8X c #EBE444",
"9X c #EBE54B",
"0X c #E9E547",
"qX c #F3ED44",
"wX c #F3EC4B",
"eX c #F5EB4A",
"rX c #F5F243",
"tX c #F9F444",
"yX c #F5F24B",
"uX c #FAF44B",
"iX c #FBF948",
"pX c #E6E25C",
"aX c #EBE55C",
"sX c #EEEA5C",
"dX c #EBE654",
"fX c #F3EC53",
"gX c #F3ED5C",
"hX c #F6EB58",
"jX c #F6F253",
"kX c #FAF554",
"lX c #F6F25C",
"zX c #FAF45C",
"xX c #FCF95B",
"cX c #FBF954",
"vX c #EFF05A",
"bX c #C8C767",
"nX c #DAD765",
"mX c #D1CE71",
"MX c #E2DD67",
"NX c #EAE562",
"BX c #ECEA63",
"VX c #E7E466",
"CX c #F3ED62",
"ZX c #F3ED69",
"AX c #F6F263",
"SX c #F9F463",
"DX c #F6F26B",
"FX c #FBF867",
"GX c #E8E675",
"HX c #F7F576",
"JX c #BFC148",
"KX c #646587",
"LX c #ACA392",
"PX c #C2B8A4",
"IX c #DED897",
"UX c #DFD5C1",
/* pixels */
"* @ 5 5 @ 5 2 5 5 @ 5 6 8 * X 5 * @ 5 5 @ * 7 7 2 5 * * @ 2 5 6 7 5 5 5 5 5 7 5 5 4 5 5 * 5 5 2 * * * * 5 @ 5 5 7 9 @ * @ 7 @ 9 7 @ @ @ 2 * * 5 5 7 9 5 7 7 @ * 7 * 7 7 @ @ @ @ @ @ * * 7 2 7 7 7 7 9 7 7 9 9 9 7 * 7 7 9 9 * * * 9 9 7 9 9 9 9 9 9 9 8 7 8 B 7 7 7 7 7 9 7 7 7 7 5 7 0 @ 5 5 7 7 * 7 7 7 5 5 7 7 7 : 8 7 7 9 : * 7 9 8 9 9 9 7 7 7 7 7 : 5 5 * * 7 % * 7 : : 7 5 7 @ @ * * @ 7 5 7 9 : * 5 7 2 7 5 5 * 5 7 9 9 5 7 * : 7 5 7 * * @ @ @ @ 7 @ * 7 * @ @ # 5 7 @ 5 7 9 7 9 7 7 7 7 @ * @ 7 @ 7 @ 7 7 7 : 2 5 @ @ # 2 7 * 7 @ X @ @ @ @ + @ * @ @ @ @ 7 @ @ 7 @ + + 2 * o @ o   + @ @ 5 5 @ * 9 9 7 5 6 5 2 5 * @ @ @ 7 @ @ 7 @ @ @ X + O X + @ 5 2 @   X @ @ # + 5 7 7 @ 2 @ # @ + + # + + @ + X + + + @ @ + X @ @ + +   @ 1 * 5 + @ @ 2 * @ @ * @ @ @ 2 7 @ @ 7 @ : * X @ @ @ @ * * 2 * 5 5 5 5 5 * + 5 6 * * 5 * 5 5 5 7 7 @ 7 7 @ @ * 5 5 @ @ @ @ 7 7 * : 7 9 @ @ : 7 7 @ : 8 9 9 7 7 7 7 @ * @ @ 5 5 @ @ @ @ 5 5 2 7 7 7 : @ @ @ @ @ 7 : 7 7 6 5 5 5 5 7 * * * 7 7 @ 7 5 5 @ 7 7 7 7 5 5 @ 5 7 2 @ @ 7 7 : @ 5 * 7 * * @ 5 * @ 5 * 5 7 7 * * 7 7 7 7 @ * * * : 9 7 7 : : * : 7 9 : * * 5 7 7 : : 7 5 7 7 : 7 5 * * 9 8 9 9 > 9 5 7 9 9 : 7 7 : 7 : : 7 * 7 * 7 7 7 % 7 5 5 0 7 : 5 5 2 0 * 7 7 5 @ 7 7 5 7 : @ 7 : @ 2 7 7 * % @ * 7 * : 5 2 5 2 7 7 : 7 7 # : @ @ @ @ 5 7 7 7 @ * * : % @ @ 5 5 @ @ # * 5 7 9 5 + 5 5 * * * 7 * * * 7 * 5 7 7 7 8 7 5 7 7 7 8 9 5 5 7 7 5 8 ",
"@ 5 5 @ 5 5 @ 6 5 @ 2 5 8 @ * 7 * * 5 7 @ 7 7 9 2 7 9 * * @ 5 5 @ 7 7 9 5 9 6 5 5 5 5 9 * * * * 5 5 * * @ @ 5 9 * 9 7 @ 5 @ * 2 7 7 * @ 2 7 * * * * @ 5 9 9 @ @ 9 7 * 9 7 @ @ @ 7 5 7 7 7 @ 7 7 @ 5 2 9 9 9 : 9 7 @ @ 7 7 @ 9 9 * 7 9 8 9 7 9 : 8 8 9 8 7 8 9 : 9 9 7 9 8 9 7 7 7 5 % : @ @ % 9 7 7 @ 7 7 9 7 7 9 : 7 8 9 8 9 9 @ 8 9 9 9 7 7 7 9 7 @ 2 @ @ @ @ 7 * @ 5 7 7 2 @ @ 2 @ @ @ @ @ 5 @ 9 7 @ @ @ @ @ # @ 5 @ @ + 5 * * @ * 5 * 2 * @ @ @ + + @ @   @ @ 2 X   @ # 2 @ @ 5 0 7 # + X @ # + + X @ @ @ @ @ # X +   @ @ @ X +   @ #       O X @   X     @ + O +   + @ +     # +         X     O + X   + +     @ + @ +                                   O +                 X           @ X     +                             X     + X X X     + X   X   +       @ X       + +   +       X       X   X + + O X + X @ @ + X X X + @       + @ @   X       +   # + X + @ 5 X   X X @ @ @ 2 * o @ + @ @ # X   # @ + O @ X + @ + @ @ @ 2 2 @ @ @ @ 2 @ 7 @ 7 7 5 + * * * # @ @ * * 9 5 7 7 @ 9 7 7 @ @ 5 @ @ 7 @ 7 @ 7 @ 2 @ 7 2 7 * 5 @ 5 5 5 5 @ @ 7 5 7 * * 7 7 9 7 7 7 7 7 8 9 e 9 9 7 7 9 7 7 9 : 5 7 7 * 2 7 % 5 5 * 8 7 : % * 8 7 : 7 * 7 * 8 9 7 * 7 9 9 7 7 5 * 7 7 7 5 7 0 5 5 5 7 2 5 @ 0 * 7 * 9 7 % 5 7 5 9 9 7 @ 7 7 7 @ 7 7 * @ @ @ 9 7 7 7 @ 7 @ 5 @ 7 7 7 @ 5 5 @ 5 * 7 2 7 7 2 5 7 7 @ @ 5 0 % % @ @ @ @ 5 5 * @ @ 5 7 7 7 * @ @ @ 9 * * 8 7 7 7 : 7 7 7 8 8 7 5 * * 8 9 9 ",
"* 5 7 7 7 9 8 5 9 9 @ 5 5 5 * * 8 5 5 5 7 @ 2 7 7 2 7 7 9 9 7 @ * @ 2 7 5 5 5 7 9 5 5 * 7 @ @ @ @ * @ + * @ 5 5 * @ @ 7 7 7 5 @ 2 5 9 * 9 7 9 2 @ 5 @ * 7 9 7 7 9 7 7 5 7 9 7 7 7 @ 7 7 8 @ @ 7 7 @ 2 7 5 2 7 7 7 7 @ @ 7 * 7 8 9 % 7 7 8 9 9 8 9 9 8 9 7 8 : 7 7 7 7 @ @ 5 * 2 5 5 5 @ + @ @ 2 7 @ @ @ @ * 5 * @ @ + + @ 7 2 @ @ @ * 7 5 @   + X X @ X + X X   + @ +   +   +     +       +       +                   +             X     O                                                                                                                                                                 X                                                       +                                     +                       X                                                                                                                                                         O                                         X                           X + + X     +       + +   +         +   +           O   +     @     + @       X + + + X X @ * * @ # 9 @ 2 @ 7 5 * # : * 5 @ # @ o # % 5 7 % # % % @ 5 5 0 @ 9 0 5 * @ @ @ 5 7 : 5 7 : 7 9 @ 8 7 7 9 7 : 7 : 9 7 2 7 7 9 7 @ @ : 7 @ @ 9 7 7 9 @ 7 * 9 5 5 7 7 7 X @ 7 7 % % * * % @ 9 7 9 @ * 7 7 7 @ @ 7 5 7 : 7 9 7 7 @ @ @ @ 7 7 7 7 * * @ @ 5 * 7 9 * @ @ * 7 @ @ @ 7 @ 7 : o 5 * 5 * * * @ * 9 @ 7 8 8 8 8 8 7 5 5 5 7 7 ",
"@ * @ 5 7 9 8 7 7 9 9 7 7 7 * 5 7 7 7 5 9 7 7 2 7 5 : @ : 7 7 2 @ : 9 8 9 5 5 5 9 7 5 * * * # @ * X @ @ @ @ @ * 7 @ 2 7 @ 7 5 5 7 @ @ @ @ @ : @ @ @ 7 7 * * @ 5 9 @ @ @ : 7 7 2 @ @ + * @ @ @ # @ + +   @ @ @ X + X @ + + + @ X + . + + + . + + o +   X   +             .                                   X                                                                                                                                                                                                                                                                                                                                                                     O                                                                     O                                                                                                                                                                                                                                                                                                                                                     .   .       .     .   .         O       + +       @         @ @   + + +   @ @ +   + @ # o o + @ @ + @ @ 2 @ @ @ + + @ X X o # + @ @ @ # @ @ X @ 2 @ @ @ 2 @ @ 7 5 7 2 5 5 @ 7 2 @ @ @ 5 @ % o + @ @ @ 7 9 8 * @ 7 9 9 7 5 5 7 7 5 5 7 9 7 9 7 7 5 9 9 8 8 8 7 8 8 7 7 7 9 7 7 9 9 ",
"9 7 7 : 5 7 9 7 9 9 7 7 9 7 : 2 5 * 7 7 7 # 2 7 @ * 5 @ @ @ 5 @ 7 @ 7 : @ @ @ # * + X @ @ +   X +     + + X + O + X   X + +   +       @       + +     O         +       + X   O   X O           +                     O                                                                                                                                                                                                                                               O             O                                                                                                                                                                     X X                           O               X                             X                       O O                                                                                                                         +                                 +                                                 X       O           +                                                                                     O                                                                                                                             O                                       +   O   +     X #   + +   +   @ + +   O       + +   X @ @ @ @ 5 @ * + @ * 9 * @ @ 5 : 7 7 5 * 5 * 9 7 8 8 9 8 7 9 : 7 7 7 7 9 7 9 ",
"@ 7 7 + + X X @ @     @   +   # X X     X     + +   X O                         X X                             O                                                                       +                                                                                                                       O                                                     O             +                                                                                             O           O                         O                                                   O                                       O                           O                 O             O                                                                                             O                     O                       +                                                                                                                                                                         +     O                                                                                           . O                                                                                       +             +                                                       +                                                                               X   X     +   @     +   X o X X + + @   ",
"    X       .                                                                   X                 O     +   X                 O   X                                   +           X   X                             O                             O                                                                                                                                                                                 X                                                                                       O                                                                                                   +                                                                                                                                                                                                                                                   +                                             O                 O                     O                             #                                                                                                           +                                                                                     O   +                             +                                                               .                                                                                   ",
"                                        +                                                                               X                 +                   +                                                                                                                                                                                         +     +                                 +           O       O             +                                           O                                                                                                                                               O                                           +     X   O     +                                         X     O                                                   O   O                                                                     +                 +                     +                             O                         O       +             X                   +                       O                                                               O         +   #   O                                                                             .     +                                             +                               O                                 X                                         +   O                 ",
"                                      O O               O                                   O                                     O O       O                                                                                         O                     O                                                                                               +     +                                                           O                                                                                                                                                                                                                                                     +                                                             +     X   X                                                                                                                                   O                                                                           O                 O             O                                                                                                                   @                                     O                                                                                                     O         O O             .                                                                                 X       ",
"                        +                                                           O             +                 O   X                               O                                       +                             O       +                                 O                                                 O .                       +                                         +     O                                                     O                                           O                                                                                       O                                                                                                                                             O                                                                         +                                                                     +                                                                                                                                     O                                                         @                                                                                           +       O                   +       +                                                                                   O                                                                           X   ",
"                  +     +                           O                                                                               O       O     O         X           + O     O       +           +                           +                                                                 +         O                                 O     O                                 O                                                           O                                                                   O +                                                                                 O           O                   +                                                                                                                   X                                                               O                                                                                                                                     X   O       +                         +                                         +                 +                                                                                                           X           O +     O                                                           +     O           X                 O                       +                                   O   O   O                     ",
"                                                                                                                +       O                                                                               O                                                           +                                                                                                                                                   +         O             O                                         O                                                                                                                                                                         +         O                                                                                                               O                                                                                                                                                                                     O                                                                                                                                                                                             O   O X                                   O O                                                               O                                                           O                                     ",
"      +               +           O                       O           O               O                     +       +                                         O                                                     X     +                             O     +                                                                                                                               +           +                                       O                   O               +   O   O                   O         O                                           +                                                 O                       +   O                 O O                                     O                                                                             +                 O                                                                                                 + O                                                                           O     O                                 @       O X X             O                       +                 X       +         +                                     O     X       X                       + +                     O           O   @             +                                             O                                       O                               X         ",
"                  +                     +                                   O                             + O                                     O   X +                   +           O                                                                             O                                                                     +                         O       O       +     X                                                                     O                                                 O                                                                             O           O                 O                               O                                                                         O                         O                                                                                                                                 O                                   O                                                   O                                   +                                               +                                                                                                                                 O                                 O                         O                                           +         O   +               O       +                             ",
"                        +       +                                                                                                     .                                         O                                   X                   O                               O                                                                                           O                                                                                       @       +                     X                                                                                                                                           O                                               X                                                                                                           O +                               O     O                                                                                                       O                                                         O                                                                                                                         O                                             O                           O                                     O     +       O         +   O   O +     X O                         +           +       O +                   +                 X         ",
"                                                      O             O               O                       O                                             X O                                                 +                                                                                 .         +       O             +                                                                                                         O                                                       O                                                                                                       O                                                                       +               O                                                                         +                                                                                                     O                                                                                   +                                                               X             O                   O                   O           @                                 O   O                       X           O     +                               +         +                                                         @       +         O                   O                         O                                   ",
"                                            O   X   O                                                         O                         O         O                                           O                                                                                                                                         O                                                                                                                                                         O                                                                                                                                                                                                                                                                           X                                                                                                                                     O                                     O                                                                                                                                           O X                                   O             +                             O     +                           O                   O                               O     X                         +                   +             O       +                         +             ",
"              +               + +     +                                             +     O                     O                                                 O                                                                         +               O                         O                                     +                                                                                                                 +                     +     O                 X                           O                                                             +                                                     O                       +                                                                         O O                                         O                       O   O               O                                                                                                       +                     +                                 O                                     O                                   O                       +                                         O                 X                   +                         +                       X                                 +                                       +                                       O                     O             ",
"                                  +         X                                                       #                   O                               O         O                             O                                     O                                                                                                                         O                                                     O                             O                                                       O       O               O                                                                                                       +               +                                                                                                                                   O                                                                                                     O                                                                                                     +                   O                                                       O                                           O                       O                         +         O                     .               O                                               X                                     +             O O                 +                                 ",
"                        O                 X             O O                                   O         #                                                                                                                                     +                                             O                             O                                                                                                                                           +                             .                                 O                                                                                                                                                                                                 O                                                                 O                                                                                                                                             O                 O                                             O                                                                                                                                                         +                   O     X                                             X                       O     +                       + +                 +           O       +                                       ",
"                  .                                               O                           .                                                 +                                                     O                                                                                               O                       O             O                                                                                                   X                                                                                     O                                                                                                                                                                                                                                                                                                                                         .                           O                                         O       X           O                                                           O                                 +                                                                                                       O       +                                               +                                 +                     O                                                                                               ",
"                    +                                                                                         O     O                                       O       O                                         O                                       +       O                                           +                                                                                                                                                     +       +                       +                                             O                                                                   O                     O             + X                                             O                                                                                                                           O                             O                   @                                                       +                                 X       +                                                                                               O O                                                                                                             X                     +           +           O       X                     X O                                   O                     +                   O             O               ",
"    O                                                       O                       +           O                                                                                                         O         O         X                                                                                                             +                                                                                       O             O                                                               O   .                                                                                                                         +         +                                                                                                                             X                                                                             O           +                                                       O                                         O                                         +                                               +                 +                                                   +                                                 +       @                                               X                                 O                     +                                           O                             ",
"            O                           X   O           O                 O   + O                                       O         O                   O                               O                         O       +                 O   + O                                                                             @                                             O                                                                                                         O                                                 +   O                                     O                                                                                                                                                                                                                                                                                           X                                                                                   +                                                                                                                                 +                           O   +                                             O                                 +             O       X                                       +                                                                                       O                     ",
"            +       O                           O         +                         O                     X                               +           +                                       X             +                                     O X X                                             X   X                     X                                           X                                                                                                     +         + X               X                         + # @   X   X   +                           @         .                 X                       .           O           +                                                                       X                                                                                     X                   .   .                           +                                     X                                   X       +               X                     .                   X             X                                         +       +       X         +       X                       X                                                             X X   .                           X           X X                                                                                                           O                       ",
"  O                         X                                           +                                                                                                                             +         X       X     X   X                   X                                                 +     X X     X                   .                                             .           X     .               X       X                                   +                                     X         X X     X         + @                                                                     X       X                           X   X   +                 O                                           X X             .                                     X           X       .   X   X   X                     X   X                 X                     .         .           .                 X         X       X   .           X                           .     X     +         .       X                                                           +     X   .         @                     X               X         X       X           X X   X X   X X X   X X                       X     X +     X   X                                                                                                                           O                         ",
"                  X     X   X           +                                                       O                 O       O   O                                             X             X X     .     .   +     X X X X X     X X X X X     X     X                         .                   X   X X X       X       X                                             X                                   X   X   X X X     X X .   .                               X                     .         .   .         X   X   X X   .     X @ X     X                                                       . X   X           X X X @   X   X   .           X             O                                                     X .             .                                           X X   X   X                                     X         .           X X X X     X   .   X . X   X       + . .           X   X   X     X X     X   .     X     X   X   .   + X         .   X X     X   + .         . X X     X                       O           .                   .         X         X         +                   X   X   X X   X     X . X X     . X     X   X X X X X X   X X X X   .   X   X   . +                     X                                                                                                                                             O       ",
"            O     +     O           +       +             +     O           +         O                       O                             +                   O           X X     X       X o + X X X X X X .   X X X X o X X X X X X o X   X                   .                               X X     X     X       X   X                                                   +     . X X X X o X X   X X   X     X X X X X o X   X X X                           X       +         .   X X     X X X X   X o X   X X X X X o . X X + @ @ X X   X           X               @                     X X X   X     X   X X X X o o   X   . o X       X   X X         X X     +                                 X +           X   .           .     +                             X X X     X   X o X   X X o X X X X X X X X X X     X     X X               X o     X X X X X X     X X X       X X       X X   X X X X X o   X X o X X o X X o X X o X X X X X   X   . . . X X X X X @ X . o X     .   X . X @ X o X   X X                                     X X     X     X X X X X X X o . @ o X X o X     X X     X X X     X             X X X o X X o X o o X o X o X X X o X X X   X o X X X X o X X X o X     X   X   @ X                               +                   .               +                                                                                         ",
"                                  O     O                         O     +                                                                 O           O                     X   X X X X   X X X X o X X o X o o X o o o o X o X X X X X X & X X X X X X     X                                 X X           X   X X X . X   X X           X                                           .   . X X X o o X X o X o X o X o X . o X X X X X   X X               .                             X X X . X   X o X X o o o o X & X o X X o X X o o o X X o X   X                                 .         . X X X o X X X X X X X X X X X o X X X X X   X X                                                         X X       X     X           X       .   +                   . X X   X X X X o o X X o X o X X o X X .   o X X   X o X X   X   X X X X X X o X X X X X X X o X . X o X o X X X X X X X X X . X o . X X X X X o X X X o X X o X X X X o X o X o X o o o o o . o o X o X X X o o X X o X X o o X X o X X X X X X X       X     X   .       . .   .   X X X X   o X     X X X o X o + X X X X o X X   X X     X   X X X X X X X   X   X o X o X X X o X o o X o o X & X X X o X o X & & X o X X o X X X o X X X X X   X                                                       +                                                                                   O                   ",
"            +   O     X   +                                                   +           +   +             O                                   O                       .     X X X X X o X o o o o o o o o o o o o & o o o & & o & & & o X o o o X X X X X   X   .                           X X   X X X X X X X X X X X X X X X                                             X   .   . X X o o X o o o o o o o & o o o o $ o X o X X X X X X X X X                     X     X       . X X X   X X o X o o o o o o o o X & & o o o o o X o X X o X X X   X                                   . X X X X o o o o o o o o o o o o o & o o X o o o X X X X X   X X                                             X   X X X X X o X X X     X   .                             .       X X X X X X X X o o o X $ o o X o X o X o X X X X X X X X X X X X X X X o o o o X o o o o o X X o o X o o X X o o X o X X o o X o X o o o X $ o o o o o $ o o X o o o o o o o X o o o X X o X o o o o o o o o o o o o X $ o $ o o X $ o X X X X . X X         X X X           X X X X X X X X X o X o o o o o o o X & X o X X X X X X X X X X o X X X X X X X X X X o X o o o o o o X & o o o o o X o X o o o o X X & X o o o o X X X o X X X X X       .   X                                                                               O                                                                   ",
"      +                         O               O         +                       O           + O                                         +       O           +     X   X X X X X o o o & o & & = & = & o = = = = = = = = = = = & = & & = = = o o o o o o X X X   X       .           .   .   X X X X o o X o o o o o o o o X X X   X . X             +                 X     X X o X X o o & & $ = $ $ = = - = = = = = = = = = = o = = o & o o X X   X X X   X         X     X X X X . o o o o $ o $ = = $ = - = = = = < = = & = & = & & & = o o o o X X X                         X X .   X X o o X o o = & & = = = = = = = = = = & o = o = o = o o X o o X X X   X                                     X X X o o X X X o o o o o X o X X X X     .   .                 X X X o o o o o = o = = = = = = = = = = = $ $ = o o o o X $ o o o o o = o o & & = & = = & & = = = = = = = = = % o & $ $ $ o o = o = = & & = = = = = = - = = = $ = = = = = = = = $ = = = = $ = = = = = = = = = = = $ = = = = = = = = = = = $ $ $ $ o o o o X o X o X X   X X X X . X o o o o o $ o o = & & = = = = = = = = = = & & = o & & X X o o o o X o o o & = o $ = = & = = = = = = = = = = = = & < = = = - = = = = & = = = = = & o = = o o X o X X X X                                                         +                                                                                   O             ",
"                  X   +                                             +     +                     +                       O                                       X   X X X o o o & & & & = = = = < < = - < , = , < < < ; < < < < < < < < = = = = & = & $ $ o o X   . .           .           X X o $ o & o = = & & & & & & & X & X X X X .             X                 X X X X X o o $ = $ = = = = = = = - = - = , = - - = = = = = = & & & & o o X X X X   X X X   X   X X X X X o o o o o $ o $ = $ = = = - - < < = < < = = < , = = = = = = & & o o o X X X X X   X   X         X   X . X o o o o = o = = = = = - = < < < < = < < - < - = = = = = = = o o $ o X   X                                     X X o o o o o & & & o o $ o o o o X X . .                 +   X X X o o o o & = = = = = = - < = = - = = = = = = = = $ = $ = $ o = & o = = & = = = = = = = = < = = = - - = = = = = = $ = = = = = o = = = = = = < = = - - = = - = - - = = - = = - - = = - - = = - = = - - = - - - - - - - , - - - = = = = = = = = = $ = o o o o o o o X X o X X o X $ o & o = $ = = & = = = = = = = < = = < = = & = = = = & & & & & o o & o o & = o = = = = = = - = = = < , = = = < < = < = - = - - = = = < = = < = = = = = = & = & & o o o o X                                   O                                         O       O                                                                   ",
"                        +                     O .     O   O       +     +                   O X                         +                         .             X X X X X o o o $ o $ = = $ - - - = < ; < ; < ; < ; < ; ; ; < ; ; ; ; < = < - = = = = $ $ o X o X X X     .   .     .   X X X X o o o $ = = = = & < & & & & o X X X X X   X           X           X     X X X X X o o o $ $ $ - = = - ; q - q q - , < ; , , - = = - = = = = $ $ X X X X X X X X X X X X X X X X o o o $ o o $ = = = = = - , < , < ; < ; ; ; < ; < ; = , - = = = & & o o X X X X X       X X         X X X X X o o = = = = = = = - - < < ; ; ; < ; < ; < - - = = = = & & & o o o X   X X                     +         .   X X o X o o $ & = o = & o = o o o o X o X X   X   X           X X o o o & o $ = = - - < - < < < ; - = < - - = - = = = = $ = = $ = = & = = = = $ = - - - , - - - - , , - ; = - - = - - = - = - = = = = < < = , - < ; < ; ; ; - - ; - ; = , ; - - - ; < - ; < < = , , < < , ; < , ; ; < < ; , < < - < < > - - - $ > - $ $ $ $ $ o X X   X o X o o o o % $ $ = = = = = = < = = < < < , < , = = < < = < - $ $ = $ $ $ $ % o = o = $ $ - $ - - , - , ; ; , ; ; , ; , ; ; ; - , ; - - ; - ; < ; , < - - - - - = = = = & o o & o X X X X X                           O                             O                                                                 O         O             ",
"  O                         +             1 # 2 O O                             O                             X             O                                   X X X X o o = = = = , ; q q q q r r r r a r r a i t r r a a r a r r a r r r r ; ; < ; - = = = o o o X X   X X       X X X X o & = = = = = < < < < < < ; ; < < = = o X X X   X X           X         X X X o o & & = = = - , w w w q q i w w q w t q i r r r r r q w w , , ; - ; = = = o X o X X X X X X X & & o o = = = - - = , - , , ; w ; w r r r r a r r r u r r ; ; w ; - , < < & = = & o o X X X X         X o o X o o = = = - < < , ; w q q q r u u r r r r q a r w r w r ; ; , < < = = = $ o X .   X X                   X X X X X o $ $ = = - = - = , - - > = = = = $ o o o X X     X     X X X X o o o = = , , ; ; w w r u r r w r w r r r w q , ; ; , - - , - = = < < < < ; w w q q w q r u r w w q q w w q q w w , w q w , , ; w ; w ; r ; w w q q r u q u q q q q q r r r w r w w w q w r r r r r r r r r w r r u r u r r r t r u r q q t w > > > > > - > $ % $ = % o = = $ = - = - - , , ; w ; ; ; r u w r u q u u u w w w r w ; w w q w > > - - - > - - - > > q w w w q q q u w w w w q q q u u q r u u w u u w w r u u r w q w w w w w w , - > = = & & o X X X                                                                                                                                                   ",
"                                        # 2 n n # O                                                                   + +                                     X X X X o o & $ $ = = - = - - q - < ; < ; ; ; ; ; < ; ; ; q ; ; ; ; ; ; ; < ; ; - = - = = = & & o o X X X     X X X   X X X o o & o = = = = = - - = < < < < = & & & o o X X X X   X         X     X X X X X o o o o = = = = = - - q - ; ; q q q w q q q q q q ; ; ; - - - - - $ $ & & o X o X X o X X X X o o X o o = = = = = = = = = = = - = ; ; ; ; ; ; ; ; ; ; ; ; - - - = = - = = & & o o o X X X X X   X X X X o o o o o & & $ = = = = = = < q ; q q ; ; ; ; ; ; ; ; ; ; ; ; ; , = < = & o o X X X X X . X       X         X     X X X o o o $ $ = $ = = = = = = = o = % $ o o o X X X   X   X   X X X X X o o = = = = - - - - - - - , - - - - ; - - - - = = = = = = = = = = $ - - < q q - q ; - < ; q - ; q - ; - q - - - - ; ; ; ; < < ; - < - < ; ; ; ; q ; ; q - ; ; q q < ; ; ; < - - - ; ; < < < ; ; ; ; q ; q ; ; ; ; ; ; q ; q ; ; q q - - - q - $ $ - = $ $ $ $ $ $ o o = $ $ $ = = - = - ; - - < < < < - < ; < ; < < ; ; , - ; < ; q $ - - $ $ $ $ = = % $ = = $ - - - ; - ; - ; - - ; q ; q ; ; ; ; < ; ; < ; q ; ; ; < ; q - q q ; - - - < = = = & o o o X X X       X                                                 O                                                           O                             ",
"+                                 +   O O 0 n n 4   O                 O     X                 O             +               X O     +           O     +     X X o o o & = = $ - < , , ; q q w w r r t r r r t a i i p r t a y t y y t t t t r q q w ; - < = = = o X X X X X X   X o X o o & & = = = = < - , ; ; r ; ; q ; ; < = & & o o X X   X X X X         X X X o X X & o & = = = - , q i q q i q i w t t w i i t i t i i i i i q q w ; , - < = & & o X X X X X o o o o & & = = - < ; ; ; < ; ; r ; r r i i y a a y p i y i r a r w w ; ; ; ; ; , = = = o & & X X X X X X X o o o o = = = = = , , < q w r t i t q w y t t p y t a t i q t t i r q ; < = = = $ o X X .     X X X X           X X X X o o X $ o % > - , - , - , - > > = = % = & o X o X X   X   X X X & & = = < = = , ; , w w w w q q r q q i r u q q ; w ; , > - = > = > = , , q q q q i q i t t t r q w q q q w w w q i r r w i q q r u q r q u u t i t w w r i i i i t w i i t i r i i i u u q i r i t i t i t i i t t i p t i t i t i i i i i t t t w t w q - - - > $ $ $ = $ - = = - - - > q q q w r r w r u r r r r r q r r r r u r r w q > q - , , - ; - = - - - q w w w w w i w q i i t q i w t q r u t r u q i t w i i u t i p w i w i i i q q q < = < & o o X X             .                                             O                                                                                         ",
"      +       O                         O # 6 6 #       O     +               O   X +       O                         O               O               .     X X o o o & = - - - ; - q q q q t t t q t q r t t t q t t t t t t t t t y y t t r r q q q q ; < = = $ o o o o . # . o o o & & = & = ; ; ; ; < ; ; r q q q q q < - - = o o & o X X     X     X   X X X X o o o $ = = = = = < q q q q q f t t f t f t s t f s y s t t t q t q q q q - ; < = = $ $ o o o & o & = o = = < < < ; q q q ; q q q r q q t t t t y y y d y y t t r r q q ; ; r r ; ; , = = = & & & X X o X o o % & = $ = = - ; q q q r r r t t t f f s y s y y y s y s t t t y q q q < - $ = = $ o o o X X X X X X           X X o o o o o = = $ $ = - ; - , ; , ; - - $ - = & o & o X X X X X X o o o $ = = < < ; ; q q w q q q q q t t t t y t y t q q ; ; ; - = $ < = = < ; q q t y y t t t y t r q q q q q w q q t t t t w q q q r r r r r r r r r r q t t t t t y t t t t t t t t t q q r r t t t t y t t t t y y t y y y y y y t y t t t t q t q t q q - q - - q $ > = = , , ; ; ; w ; q q q q r t t t t r r r t t t t t t t r t q r q q > q > - q - > , ; - - w q q q q q q t r t t t r r t y q t t t r r t t t t t q t r q t f t t t t w t t q q q ; - = $ o X o . X                                 +   O   O                                     O                                                                 ",
"                          O               O O # O +                             +                                             O                         X   X X o & & = - q q q V L K K P W W W W W W P P R R P W W R W R P R W P P P P P P P P P F Z h r w w ; = o o o . . . . X o o & = = < ; q q t j Z D F F F F G D F V q < < = = o o X X X X X   X X X X X X X o & : = > = = < ; r V Z F K K P P W P P W W W W W W W E W W W W W W L f t q q ; q - $ % o o & o o = = = = = < ; r r r y V F K K K P P P P P P P R P R R R W P P K G F Z V s t r r r ; - < < = & & & & & & & = = = = - ; u r q y Z K G K K P P P P P W W W R R R W R W W W P P K Z V r q ; - = = $ o o o X X X X X   X X   X X X X o $ = = > = ; C V Z D Z F D F Z j C q - : = o o o o o X X X X o o $ - ; , r Y T P K I P K P K P P P W W W W R W W W P L f q q q q ; r D F F F K P P W W W W W W P P W K P P P W W W P P I Z t f Z K K K P K P P P P W P W W W W W W E W W W P I W R R E W W P W R R R R R R R R R E P R R W E W W R R W W W P P L K P Z Z V q q q q w q q ; ; ; ; q r r t t y V F K K K K P P P P P P P I P P P P P P P F Z f t t q q q q q q s Y I W I P W E E W W W E I E W W W W W W W W P I W P P W E W R W E E E W W W W W L F f q q - = = o o X X       .                                                                                                                                     O     ",
"                                #         +       O +           +     + O               O                             O X                     .       .   X X o o & o < q q l ' u.CXhXhXhXCXgXlXhXCXCXgXCXgXgXCXgXgXgXgXgXCXCXgXSXAXAXAXFXAXAXAXhXhXZX|.t q q q , - = o o o $ $ = & = = = ; , r q t ' MXCXDXDXDXZXDXDXFXAXZXD ; ; - = $ o & X o X X X X o X X X & o o = - - ; q ; ; q f 3XsXhXgXhXhXCXgXhXhXhXhXhXSXhXSXzXSXSXSXzXzXhXhXhX2XQ f y d i q q ; - = < < < < , ; ; r r t y d s D nXCXCXgXhXgXhXgXgXCXlXsXgXsXgXgXgXaXaXhXsXaXCX7X7X&XI y y r w q ; ; = = & = & & = & = = < - q q q t t Q MXhXCXCXCXCXZXCXCXCXgXgXAXAXSXSXAXCXCXlXAXCXhXgXCXXXf r q q w < < = = $ o o o & X X X X X X o o o o = = = < $ h GXCXZXZXDXZXZXZXCXBX%XC ; = = & & o o o o X o X & & - ; q t ` %XaXgXzXhXzXgXCXSXCXgXCXSXSXSXSXSXzXzXlXzXgX+Xg r w i q I VXvXgXCXCXSXCXCXCXhXBXCXCXCXgXCXCXCXzXSXzXzXzXCXSX7X-.V h ( BXgXlXhXzXlXgXlXgXgXgXsXhXsXsXgXgXlXzXgXgXlXlXzXjXeXyXlXgXlXCXCXgXgXlXgXCXfXgXlXlXlXgXgXgXhXhXgXgXhXgXhXhXaXaXhXhX6X7X7X&XZ - q q q q w r r q t t y t s f f %XZXAXAXAXDXCXDXDXDXDXDXAXDXAXAXAXgXCXCXgXgXZX` t f f f i i t Y ' aXZXCXCXCXCXCXSXCXCXSXSXCXCXZXCXCXgXgXgXBXsXsXgXgXCXCXgXBXBXCXCXCXCXZXCXCXCXhXCXaXZX' t q ; ; = $ % X o X X .                             O   O                                                   O                     +                                 ",
"                        O                   +             X   +             X                                 O +       X                               X   X o & = & < q q Y ,XP.dXgXCXgXBXCXsXCXNXNXNXNXMXNXNXNXVX7XpXMXNXaXaXaXNXpXNXsXsXaXsXdXfXuXd.P H h q ; ; = = $ = $ $ o = = = ; ; r r t I r.qXwXsXBXVXNXVXpX3XwXjXG r q ; - = & & & X o X X X X X o o o = = = ; q q r t f V K J.tXyXgXgXCXsXBXgXaXCXaXaXaXaXaXaXaXaXsXaXaXhXhXeXhX] Z f f t t r q ; - = = < < = < ; q r t s f F / fXjXfXBXpXpX7X7X7X7XNXpXpXpX7X7X7X7X7X7XpX7X7X6XfX,XE Z j s s y q q , ; < , > < < , ; ; ; r t q Z L K ;.6XfXgXCXBX7XNXNX7XNXNX7XaXsXsXBXgXCXgXsXgXaXaXhXeXd.Z V f q ; ; < = = = $ o X X X X X X X o o o o $ - ; < r h P 7X9XdXpX7X7X3X6X6XwXd.7.T - = = & & o & o o & o & = - ; q j nX9X9X6X6X7X7X7X7X7X7XaX7XaXaXsXaXsXsXaXsXdXwXH.V f r q r ^ vXiXfXgXNXNXNXNX7XNXaX7XaX7X7XaXpXdXaX7XaXdXaXdXfX5X1.! W ;.fXfXhXzXfXsXBXBXaXaXNXaX7XNXNXNXaXNXaXBXgXsXgXyXtX`.qXsXBXsXaXBXBXNXNXNXNXNXNXaXpXBXBXsXBXBXBXNXVXNXVXNXaXaXaXNXaXCXhXfX,XZ Z t t q t t i t s d d g g Z F K ,XjXlXZXBXBXBXBXBXVXVXBXVXBXVXVXNXNXNXNXgXfXhX-.W Z f f Z Z Z XXNXdXCXCXCXNXCXNXVXNXVXNXNXNXNXNXMXNXMXNXNXNXNXNXNXMXNXNXBXsXBXVXNXBXCXVXCXNXNXNXNX9XhX) f q q ; = $ X o o X                                                                                                                                                 ",
"              O                                                   +                         +         +               O   O   .                           . X o o = & < r t I K.K.I t r r q r ; q q - - - = = = - - - = < = < ; ; q ; q q r r r t L 6XeXeX2X-.Z - - - - - $ $ - = < < ; r r y y Z -.P.tXi.y ; ; ; - - - p.yXs.0.h q q - - = = o & o o o o o & & = = < ; q r r s R 3.dX!./.9XW q r r r r q q q ; q - ; ; ; ; q q r r t f w.eXF.s.s.w.Z f f q q q q ; u q r r r t t j / p.9XyXcXp.I r q ; < - = = = = = = = = = = = = = < q g p.eXeX9X,X-.t q q q q ; < < < < < ; ; ; q q s s ) 6XeXrXuXXXs ; ; ; = = - = < < < q q r r r r t t r q h K.8X!.6Xe.Z f w q q q q = $ & & & o o X o o = = = = , ; ; j %X5XeX5.; ; q q q q C ,X/.dX|.q - - - = = = = & & & = = w r y j NXfX8.r ; ; - ; - ; ; ; q q r t r t r q q j i./.H.p.Y y z _ lXy.G r q q r q ; q q q ; q q ; q q q t t t y t E eX`./.(.`.6X6.f t t r r q r ; q ; q ; ; ; q r q r t t t G J.qXr.y r ; r ; ; q ; ; ; ; ; ; ; ; ; ; ; ; ; ; ; < ; ; - ; ; q q q V d.(.J.d.%XI q q q r y y y s h V W ,X5XqX3Xj q q q q q ; ; ; < ; ; ; < ; < < ; t u.8X!.eX-.L Z f f Z %XSX&Xh r q q ; ; ; ; ; ; < ; q ; ; ; ; ; < < < ; < ; ; ; ; ; ; ; ; q q ; ; ; q q q ` dX5.1.6.D ; , = $ o o X   .                                               O                                                                                             ",
"                                                          #   +         +     +   O                     O             .               .                   . o o & > = , u y I K.P.J + . $ $ o o . . .         .           X   X . o o o o o $ X % A mXdX9XP.s.7.Z q q - - - $ - < < ; < r t y g 7.hXqXhX@X-             +XlXyXNXK t t q ; < = = & o o o o = & & = < ; q t t L -.d.s.wXhXfXHXI $ o & X X o o o X . . .     .           $ |.zXkXuXeXd.Z Z f t q w r r r r r r r r s _ y.K.uXxXDX+Xc o X o o                             X . q +XzXhXjXhXr.Z Z f t r r r r t r r r t q t f E e.s.(.dXhXDX X- . . . .       X X X o o o & o o o X   . $ 2XeX`./.K.i.^ t q t q q ; = = & & & o o & & = = , ; ; r q j J./.fXe.. . . . $ . d &XeXP.d.' r ; ; - < = < = = < - ; ; r r g pXjX7.X   . . . . . . . . . $ o $ $ $ X . r .XjXrX5X~ y y ( lXp.z   X X   X           +   .   . . $ $ $ $ $ | FXuX_.R.'.7XO.$ . o o o                         X X X X g 4XdX8.= . X X X X X o X X X X . o X X X . . . . X   . . .           i &XhXeX(.P.;.Z f t d k l h g E r.s.eXcXjXGXq $ X o o o o X o $ o X o X .       o q.NXfXqXG.s.-.Z f V d.AXXX-   X       .     . X   . . . . .   X . X X X o o o o o o & X X X X X X   .   { aXeXeXgX6.r < = o o X   X                             X                                                                                                                 ",
"                                        + O               O       +                   X             O       .                                         X   X X o & : = ; q y E K.5XJ X r A J J G H H Z V j j h h h h j j j j j D Z D D H G H J k . w ..o.%XhX6X2XL t q q q - q q q q r t a y g j e.cXK.8...= X < ; $     O.w.J.hX) f s q q ; < = = = = $ & = = = ; ; q r r q ` s.!.5X4.r.w.|.V = k J G J G G G H Z C C V D z V C j i $ . >.%Xt.s.eXP.;.L f t i t t y y y t t t s I y./.qXy.w.e.O.a < z J H G J J V j j j j g g j h g g y - - o.u.u.w.6XP.i.6.C q y y y y t t y t t y f Z ^ J.(.P.1.:.>.| = q j z D j V j j D D D D D D j j j y q . . +X,Xd.P.(.8X2.f f t q q q ; < < & & & & & & = < , ; r t y G 0XP.w.`   $ d z q . - | 4.d.5Xi.d q q q < - = = = < < ; ; r r h pXvX7.. = U Y Y Y Y Y L L Y Y G H H C ;   - O.y.~.8X' j j _ xXp.z X , U H H L U H Y H H H H H H H Y H H l $ A XXt.D.^.P.&X..o d Y L L H D J j j V h j j z z D U [ N + z nXGX{.& - z z j j D j j j j j j V j V j j D D V D D D D D z V g i o w {.d.d.F.(.s.w.L t s s g g j _ 5XeXD.p.u. X- $ d D D G G J F F D D D j V j g y . T 7.2.s.`.P.d.L Z Z d.SXOX= = J U J D J V V j j j j j j j j j j j j j j j V V D j D j j D j j j k t +   { nXP.!.eX7.t q - = o o X X                                 O   O                                                           + O                                           ",
"                                                        O     O     O                                       +       O                                   X X X o = , = r t d E P.K.J = ..ZXkXtXtX`.tX_._.].^.].].].].~.^.^.^.].^.^._./.).).'.uX1X$ . o $ A :.%X5X6Xe.Z t q q q q r r t y y y g P y.iXd.r X   ..ZXaX{..     X 8.lX3.Z h y t r ; < - = = = = < < ; r r t t V ( 5./.qXMXq   .   . q oXiX`.'.'.'.'.'.`.).)./._./._.rXjXbX[ .   . $ f CXqXeX5X-.V f f g g j j h h V I 2.rX!.aXj . o o X [ MXcXtXtXtX'._.).].]._.^.].^.].].uXNX| o o o $ w 2XeXeXJ.^ V y y y y y y y y t f V r.P.L.8X2X$ . . . o 9.HXcXiXtXtX`.tX'.iX`.tX'.`.tXiXrXvXOX$   . . $ L hX(.P.u.D y t q q q < = = = & & = < ; ; ; q r r g ~ 0X2XX     [ VXDXo.+ . . $ {.eXt.Z f r t t r ; ; ; ; u q t r y j 3XsXq.. z CXyXuX_.)._._.'.).`.`._.uXCXX.      ; oX0X' h V ;.xXp.z X %.GXvXuX].].^.^.(.(.^.(.(.(.(.`.eXfXmX$ . . o O.VXY = $ $ 9.xXtX_.)././././././././.].].yXCXOX+.% $ k { c o [ GXyXtX'._._.'.'.]._.)._._.`.tX`.tXtXtXtXiXrX`.tXqXrXyX1Xv       . E hXqX8X;.Z h h j Z <.K.eXSX' $ o . . c 3XuXrX`.'.'._._.)._._./._./.fXi..   . . X.<XP.I.a.-.Z d.SXOX= U nXlXuXrXrXtXtXrXtX_./.`./._._._.^._._._._._._._._._._.'.rX_.`.rXqXdX1Xp   . , V w.zX7.s q < & = = X X     . +                   O               O                                                                   O                           O   ",
"+             O                         O     #                           O                   O                                                         X X o o = < = w t f E P.5XJ = ..fXQ.Z.Z.Z.V.Z.V.B.B.B.v.c.B.B.B.v.V.B.B.B.c.V.V.V.V.Q.J.h h V t $ d :.7XeXK.] C t t y t t y y g g g F >XqXtX%Xr   X E kXtXe.$       8.fXD.i.E s y r r ; - - - $ < < q q r y s f ] ,X~.P.p. X<   i k j P D.E.V.v.v.v.V.c.v.c.b.B.A.B.B.A.W.5X' r q q $ ; X.1.qX(.F.7.Z f j j Z J Z V E ,XP.9X%X:.= . $ = - H 8XQ.Z.Z.Z.V.B.V.V.V.V.B.B.V.V.Z.Q._.<.t q - . $ | 7.jX0XJ.] h g g g g g g z h K ;.a./.5X<...$ . t r r 1.rX).Z.Z.V.V.Z.V.V.Z.V.V.Z.Z.Z.E.'.i.q $ $ $ . A mX,X8XK.w.E f y t q q < < = = & = < ; ; q r y h 0.D.wXnXo     H P.uX-.o     $ {.hXK.%XT t y t r ; < , ; ; q r r r s MXsX6.  V !.Y.C.B.V.V.B.c.V.V.Z.C.C.qX'       < +XfX] F G ;.cXp.z X u ..K.].V.B.c.B.n.k.n.n.k.B.B.B.M.R.K.t $ . . }  Xv o - q 4.W.B.B.c.B.c.B.B.B.B.A.V.V.A.'.jXO.X       X X X Y pXW.Z.V.V.V.V.V.V.V.V.V.V.V.V.Z.Z.V.V.V.Z.Z.Z.C.Z.Z.E.K.E y , .   A XXH./.D.4.L Z P <.s.wXp..Xz X = = r T !.E.Z.V.V.V.B.B.V.V.V.V.Z.V.E.D.P V h . - H d.eXI.a.W d.zX X= C K.'.E.Z.Z.Z.Z.Z.Z.V.B.V.V.V.B.B.V.V.V.V.V.V.V.V.V.V.Z.V.V.Z.V.V.Z.Q.J.d       t 2.hX8.f q q $ : = . X .                         O                             O                                         O         +                                 ",
"                                O                     + +                                         O                         O                         . X X & & = ; - q i g E P.5XJ = ..fXn.c.z.z.h.c.z.z.z.z.h.h.z.b.h.b.b.h.b.z.z.h.z.z.b.c.E./.eXCX{.$ . $ Y w.eX7X0.f y y y y y y y g g P fXrX,XOXq w U 2.^.E.s.Y ;     X.%XeXdX] s y t q q q - - - ; < q r t s s F 3XuXyXoX<       9.ZXyX`.E.c.x.x.z.z.z.z.z.x.z.z.z.b.b.z.k.m.(.9X7XmXc . . q oXK.P.P.I f j Z H Z P ] 4.qXkX:., $   < bX3X,XK.Q.c.v.b.x.z.b.b.z.z.z.z.z.b.z.v.c.C.T.9XVXX..   . d 0.y.qXd.-.j g g g j g j V w.jXqXfXu..   . q 1X7X5XL.M.c.b.v.z.x.z.x.z.x.x.x.b.b.v.b.B.I.P.6XnX>.. . $ t %XeXuXr.h y r q < < ; < < < < q r r t y y J :XrX=XOXX ; q.y.I.M.s.e. .. $  .e.J.eXo.s g d a t r ; r r r t i y h 3XsX6.  j ~.n.k.z.z.z.z.z.z.b.x.z.b.^.`       q &XfX] V j _ cXp.G = X v 4XrXA.b.z.h.h.z.h.h.h.z.h.h.h.l.I.%XX..     .   - ..nXI.B.z.z.z.z.z.z.z.z.x.z.z.x.V.P.8.A           X X Y 9XB.c.x.z.z.z.z.x.z.z.z.z.x.x.x.x.z.x.x.x.z.x.x.b.b.b.m.^.6XnXV     . L SXrXeX1.F 2.uX`.fXT X     {.1X0X~.N.b.b.z.z.x.z.z.z.z.h.z.z.z.c.n.`.fXnX- . = >.i.P.I.G.L.kX{.o z J.Q.c.c.z.z.h.z.z.z.b.z.z.b.z.z.h.z.z.h.h.z.z.z.z.z.x.b.b.z.b.h.b.A.H.y       q 7.gX8.s q q $ - $ o o .   X X                                                                         O                     O       O                               ",
"                          + O                                                                         O             @                                 X X X X o = , - ; r f E P.5XJ < ..wXn.c.z.z.z.c.z.z.z.h.z.h.h.h.h.h.h.g.h.h.h.h.h.h.h.z.k.n.M.W.u.=     . >.ZX7X6.Z V h g g g h h j L <.jX<Xz p = [ nXP.A.n.U.6XQ     $ j VXsX] s d s t r q q q q q q r t y V 9.w.<X9X>XO.o   & t t.^.A.k.c.z.z.z.z.z.z.z.z.z.b.z.h.b.z.h.g.l.n.n.m.5XH - . . t ( <X8X-.K Z Z F F -.5XyXK.u.A     = g P.W.E.A.c.z.z.x.z.z.z.z.z.z.z.h.z.h.h.z.h.k.k.Y.`.2.V ,     y 6.<XP.<XG g g g g g D P s.qXH.w.T     = Z J.U.C.B.k.z.z.z.z.x.z.x.z.z.z.z.b.z.h.h.k.c.n.M.(.2.- $ . q {.<XqX5X8.C t r w ; ; < < < < ; r a t y h K <XjXI u   h AXT.j.k.M.eX>.. . $ $ w.lX' g g y y r q ; q q r r q r s nXaX6.  h P.k.h.z.z.z.z.z.z.b.x.b.b.(.`       ; &XgX-.D j _ iXP.d.+.X < ` 2.S.c.z.h.h.h.h.h.h.h.h.h.h.l.l.qX:..     . . q o.eXn.h.h.z.z.z.z.z.z.z.x.z.x.v.Q.H.a             X   Y dXB.b.z.z.z.x.z.z.z.z.z.z.z.z.z.z.z.x.z.z.z.x.z.z.z.z.b.B.Y.qX! - .   k &XJ.(.s.4.a.^.P.1X{ . X o d.].m.N.g.h.h.h.z.z.z.z.z.h.z.h.h.h.z.k.M.Y.P.L d . o - oXrXR.U.tX{.o z F.Y.z.z.h.z.z.z.z.h.z.z.z.z.h.h.h.z.z.z.z.z.z.z.z.z.h.z.z.z.h.g.g.N.D.a     . t 7.CX7.s w ; = = $ o X X   X                 X     X                                                                               +               O                 ",
"                                  .     +                       O     O       O             +                       +                                   X X o & = , - r t k E P.5XH < ..yXj.c.z.z.z.z.h.z.h.h.h.h.h.h.h.h.g.h.h.h.g.h.g.h.h.h.z.h.k.M.F.` q . . U 0.=X=Xu.7.D y g g y y s E y.yX<X= o X U NXY.k.k.n.qXo..   . r GXfX<.F s t t r q q , q ; ; q r t V %XdXlX;XU u     +.XXL.A.j.h.z.z.z.z.z.z.z.z.z.z.z.z.z.h.h.h.h.h.h.l.l.L.r.q.i . $ T 1X8XJ.r.;.W L ^ y.qXkXu.h o   o 9.r.U.n.k.z.z.z.z.z.z.z.z.z.z.z.z.h.z.z.h.z.z.h.h.k.M.F.%XT     & c ` 5XqXw.' D z D D ~ t.8XwX( d =   = q.t.I.k.h.h.h.z.z.x.z.z.z.z.z.z.z.h.z.z.h.h.h.h.h.k.n.F.7.>.. $ k Q p.eX,XL t q q ; ; q q ; r q y i g g ` 1.K.xXD X   g wXM.k.h.n./.>..   . $ -.fX2.~ g g s t r r r r r r r s h nXNX6.. V L.k.h.z.z.z.z.z.z.x.x.h.b.I.`       q -XfX-.Z V ) cX_.yX|.o   < P _.V.c.z.z.h.h.h.k.h.h.h.h.h.l.(.1.. . .   . q -.rXk.h.z.z.z.x.z.z.x.z.z.z.x.A.'.4Xk         v +.[ X Y 6XB.z.z.z.z.z.z.z.x.z.x.z.z.z.z.z.z.z.z.z.z.z.z.z.h.z.z.c.n.U.y.q.p   $ A ( J.I.L.I.(.1.U w o r j G.C.b.b.h.h.h.h.z.z.h.z.z.z.z.h.z.z.z.h.k.n.Y.s.|.$   . |.7XU.U.tX}.. z F.M.c.z.z.z.z.z.z.z.z.z.h.z.z.z.z.z.z.z.z.z.z.z.z.z.z.z.z.z.h.h.h.A.D.t       q 7.zX7.f q q $ - = o X     X                 X                                                                                                                       ",
"        .                                                                                                                                             + . X o $ = , = ; r s Q P.5XJ = ..eXn.z.z.z.z.z.z.h.z.z.z.h.h.h.h.h.h.h.h.h.h.h.h.h.h.h.z.z.c.c.E.uX%X>.o . $ 0.BXwX=XG j h h d h h ^ D.9X1X= o t ' /.B.k.h.c.Y.w.q - . q *X3XaXoXC f d p i i w t q i t t H XX8XjX4X..$   $ q p.).A.b.z.z.h.z.z.z.z.z.z.z.z.z.x.z.z.z.z.h.h.h.h.h.g.n.Y.eXE - . $ t <.dX/.a.;.L 1.kX6Xp.| o . l T J.Y.l.g.g.h.z.z.z.z.z.z.z.z.z.z.z.z.z.z.z.z.h.z.h.b.b.A.I.4.U $     t +XJ.hXJ.K Z V ;.2.s.eXMXt .   - K qXU.b.h.b.h.h.z.h.z.z.z.z.z.z.h.z.h.h.h.h.h.h.z.h.z.c.n.).6Xr $ o o 6.lX8Xd.7.d q q q q < ; r r y y s V 8.fXqXCXJ X i ~ (.k.h.g.k.Y.t.C $   . >.hXhX2Xh f s r r r q r r r r t h 3XBX6.  h L.n.k.z.z.z.h.h.h.z.x.g.g.T.`       ; -XgX-.D j K r.G./.p.U :   c -XG.B.h.h.g.h.h.h.h.h.h.h.h.h.N.G.%X}.- $ U -.y.M.h.z.z.z.z.z.z.z.z.z.x.b.A.(.8.O.,         { GX}.  [ 9XA.x.z.z.z.x.z.z.x.z.x.z.z.z.z.z.z.z.z.z.z.z.z.z.z.h.z.c.c.k.M.~.:.k .   i XXK.T.T.vXX.X X < +XwXm.B.b.z.g.h.h.h.h.h.h.h.h.h.z.h.z.h.h.h.h.c.c.Y.P.F ; o $ Z 8X(.kX}.X z F.Y.h.h.z.z.h.z.h.h.h.z.h.z.h.h.h.z.h.h.z.z.z.z.z.z.z.z.z.h.h.h.g.n.D.t       q 7.SX7.f q q $ $ $ . X X   X                                                       O +                                           O                                   ",
"                  +       O                   O       O                   O                 O   +                                                         X X = < , < r y g ~ P.5XJ < ..eXn.c.h.h.z.h.z.z.z.h.h.h.z.h.h.h.g.h.h.g.g.h.h.h.h.h.h.h.h.z.c.C.uXXX; . . U :.<XP.1.Q V f s s P t.wXr.c o ; {.K.Y.k.h.h.k.M.G.&X| . $ p 6.gXdXQ f f q t t t t q q q q G <XwXNXo.=   v {.i.L.n.b.h.z.h.z.z.z.z.z.z.z.z.z.z.z.z.z.h.z.h.z.h.h.h.h.g.c.Y.y.OXp .   Y u.P.(.K.4.H.hXXXU $ . s oX8Xm.g.g.g.h.h.z.z.z.z.h.z.z.z.z.z.h.h.z.h.z.h.h.h.h.h.h.b.n.L.%Xk .   . t R zX9Xt.W Z 5.hXhXd.X.$ X t e.D.m.c.b.z.h.h.h.b.h.z.h.z.z.z.z.z.h.z.z.h.h.h.z.z.z.z.z.h.n.T.e.O.w o Y i.D.!.%XC q q q q t r y y g g h F %XqXD.bXv X .XK.A.k.h.h.h.n.I.2XC . . Y 7.eX,Xh h f d y y t r r y t s j MXBX6.. Z ~.n.h.z.z.h.z.z.h.z.x.z.k.(.`       r -XAX-.D V V K d.qX].7XY   X z y.M.j.h.h.h.h.h.h.h.h.h.h.h.k.m.tXoXr i %X(.Y.B.h.z.z.z.z.z.z.z.x.x.x.v.'.gX..          < o.NXq.X U 9XB.b.z.z.z.z.z.x.x.z.z.z.x.x.z.z.z.z.z.z.z.h.h.h.h.h.h.c.c.c.k.M.P.XX;   o p ] qXF...v X o r <XQ.b.c.x.z.b.h.h.h.h.g.h.h.z.h.h.z.h.z.z.z.z.h.k.n.Q.J..XA   t VX6XaX}.  l G.Y.h.z.z.z.z.h.h.h.h.h.h.h.h.h.h.z.h.z.h.h.z.z.z.h.z.h.z.z.h.h.h.A.H.y       r 7.hX7.f q q = > $ $ X . X                                                                     +                           O                   O                     ",
"    +                               +                                         +                                                     X               . . X X X = < < < ; r s E P.<XC = ..fXk.c.h.z.h.h.z.z.z.z.z.z.z.h.h.h.h.h.z.h.h.h.h.h.z.h.z.z.z.z.z.c.Q.L.7.Y o $ d 4XkXkX-XK h j F <.a.9X.Xo   t >XQ.B.k.h.z.h.B.M.hXX.o . $ Y ,X0Xt.L f q t q t t q t T 7.t.].H.j = X o ` wXW.A.h.h.h.h.z.h.h.z.z.z.z.h.z.z.x.x.z.z.z.z.h.h.z.h.h.h.h.g.k.W.wXI = o . o p.eX).).uX( l q $ T t.I.Y.g.g.h.h.h.h.h.z.z.z.z.z.z.z.z.x.z.z.z.z.h.h.h.z.h.h.h.h.h.k.I.J.+.$ . o C NX8X(.G.a.L.eXd.s $ . o o.uXY.c.h.h.b.h.h.h.h.h.z.z.z.z.h.z.z.z.z.z.h.h.z.z.z.z.z.z.z.z.B.).7XA X o . Q dXH.' Q t q q r r t y y y Z ` d.eXT $ X $ >XW.c.h.h.h.h.h.M.`.` . . o q 6X6Xt.' s y r r r r y y y y j 7XgXq.o V P.n.h.z.z.h.h.h.h.h.x.h.j.^.`       r +XAX<.V j f j K r.].!.G o   $ I ].M.c.z.h.h.h.h.h.h.h.h.h.h.k.W.D.t s D.C.B.h.z.z.z.z.x.x.x.x.x.b.v.Q.p.O.c         . .X0X0Xq.X U <XB.z.z.z.x.z.z.z.x.z.z.x.x.z.x.x.v.z.x.x.z.v.x.z.z.z.c.z.z.z.z.c.B.F.` c     { MX:X& X c o.5.U.b.h.h.h.b.h.h.h.b.h.h.z.z.z.b.z.z.h.h.z.h.z.z.z.c.C._.<XT     g P bX}.X h F.U.z.c.z.z.z.h.z.h.h.z.z.z.h.z.h.h.z.z.z.z.z.z.z.z.h.b.z.b.b.z.b.A.H.g       q 7.hX7.f q q $ = $ . X X   X X                                               O       O                         O                                   O                 ",
"      +       +               O                                                 O       +                                                             + X X o = < q ; q y g ^ K.<XJ = ..eXk.z.h.z.z.z.z.z.h.h.z.z.z.z.h.h.h.h.z.z.h.h.h.z.z.z.z.z.z.z.z.c.V.W.zXOX- X ; o.t.wXp.P V V W 5XK.w.U     j D.C.k.z.z.h.z.z.n.^.t.c . . k 1X8XdX] f s d s d y y f q.SXrXiX-Xy X p X.t.U.n.c.h.b.h.h.z.h.z.z.h.z.z.z.z.z.z.z.z.z.z.z.z.z.z.z.h.h.h.h.g.k.S.H.' g   . @XeX(.).eXT $ . q 0.`.n.k.h.g.h.g.h.h.h.h.h.z.z.z.z.z.z.z.z.z.z.h.h.h.b.h.h.g.h.z.h.k.n._.8.s - . - ` w./.R.R.(.hXi.$ . d Q y.W.k.z.z.b.h.h.b.h.h.h.h.h.z.h.z.z.z.b.h.h.h.h.z.z.z.z.h.z.z.h.c.B.~.u.Y $ . [ MX5X,X@Xf f s t a y p k g W MXhXCX| $ $ - H.C.b.h.h.h.h.h.k.Y.r.T . . - nXeX6Xi.V d y t a y y p y k j MXgX0.o Z ~.n.h.z.z.z.z.h.h.z.x.z.j.T.'       r -XAX<.D j j h V -.J.].i.O.d   z :XI.m.h.h.h.h.h.h.h.h.h.h.h.h.E.F.F K D.k.h.z.z.x.z.z.z.z.x.x.z.x.v.'.o.o           r 5.~.8Xq.  U <Xc.c.z.z.z.z.x.z.x.x.x.x.z.x.x.z.x.v.z.x.x.v.v.z.v.z.z.c.c.z.z.c.k.Y.dXbX=   [ IX*X<   .XcXQ.B.b.b.h.h.h.h.h.z.h.h.h.b.z.z.z.c.z.z.x.c.x.z.x.v.Z.W.uXVX{       h $X#X  l F.E.z.z.z.z.z.z.z.z.z.z.z.z.h.h.z.z.z.x.x.x.x.x.x.x.x.x.x.v.x.v.v.A.F.s       r 7.zX8.V q w = - = o o X X                                                                         O +     O                             +                           ",
"              .                                 O                                                                                                     X X X o & < ; < q r g ~ K.<XJ < ..yXj.h.z.z.z.z.z.z.z.z.z.z.z.z.z.z.h.z.z.h.h.z.h.h.h.z.z.z.z.z.z.v.c.C.tX@X; X $ w ~ dXoXP Z Z ) eX9X-.$   . 0.P.B.h.z.z.c.h.c.k.E.9XO.o   i |.<XhX-.t f y s s y y f e.uX/.dX&Xr X { nXI.n.c.z.z.z.z.h.b.h.z.h.z.h.z.z.z.z.z.x.z.z.z.z.z.z.z.h.h.h.h.g.h.j.n./.2X..    T w.5XtXDXO.o - o.H.E.k.h.h.h.h.z.h.z.z.z.z.z.z.z.z.z.z.z.z.z.z.z.h.b.z.h.h.h.h.h.h.h.c.E.H.e.Y o o r ] dX^.Y./.AXXX. o 9.3X~.A.v.z.z.z.z.z.b.z.h.z.z.h.h.z.h.z.z.z.z.z.z.z.h.z.z.z.z.z.z.z.c.c.W.wX X=   a X.t.wX%Xf t y t t t t t y ~ lX6X2X{ o U 9.P.B.z.z.h.h.h.h.k.C.!..X$ . = XXJ.qX%XZ y t r t t y d s g V pXAX0.o V ~.n.h.z.h.z.h.h.h.h.x.z.k.T.' .     r &XAX<.Z f g s f H 4./.qXbX{   - ` F.Y.k.z.h.h.h.h.z.h.h.z.z.k.B.S.t.y.[.k.z.h.z.z.z.z.z.x.z.z.x.x.A.cX}.X       X , q.F.U.0X9.X U <XB.z.z.z.z.z.z.x.x.z.z.x.z.x.x.z.v.c.x.z.v.z.z.z.z.z.z.z.b.z.z.z.h.A._.nX=   : [ [ . . .X_.n.k.h.h.h.h.h.h.h.h.h.h.h.c.z.c.c.c.c.c.z.z.z.c.B.B.Y.P.,X.XA       g $X#Xo z F.m.z.z.z.z.z.z.z.z.z.h.h.z.h.h.h.x.x.x.x.v.x.x.x.x.x.v.v.v.v.v.V.Z.J.h X   . t 8.SX7.f q q $ $ = o X X X X                                                                       O X                         O                       O             ",
"O                       +                     X     X         + +                 +         +       O                             O                     X X o & < q ; t y g ` K.<Xz & ..wXj.z.z.h.c.z.z.h.z.z.h.z.z.z.c.c.c.c.c.g.g.h.z.h.h.z.z.z.z.z.z.v.v.V.).XX;       Y vXH.W K -.a.5Xd.U   . - 7XY.b.h.z.h.z.z.z.z.V.`.9.$ .   . 8.gXp.I Z g g g f f F p.cXH.g r o o ..wXB.c.z.z.z.z.z.h.z.h.z.h.h.z.z.z.z.z.z.z.z.z.z.z.z.z.h.z.h.h.h.h.l.j.m.8XGXX.    . J 1X<.z > $ s gXW.c.z.z.h.h.h.h.h.h.h.h.h.h.h.h.h.z.z.z.z.z.h.h.z.z.h.h.h.h.z.h.h.h.z.k.W.uX7.o . $ U +XH.9Xe.G s . $ oXuXC.z.z.z.z.z.z.h.h.z.z.h.z.h.h.z.z.z.z.z.z.z.z.z.z.z.z.h.h.h.h.h.n.E.).kXOX=     X :.fX%XZ g d y y y y g T 3.AXr.- o $ 0.uXC.x.z.z.z.h.h.h.z.c.).s.= X . $ :.hXH.( h y t y t y t s h F pXSX8.& V (.n.k.z.z.z.h.z.h.z.v.z.k.^.' .   X r &XAX-.D V l j h f -.P.~.J.T -   k %XP.M.k.h.z.h.h.h.z.z.h.z.h.z.k.M.n.k.z.z.z.z.z.z.x.z.z.x.x.x.v.].6.c X       X k H.Q.A.].q.X U <Xk.b.z.z.z.z.x.z.x.x.x.x.x.x.x.v.v.B.B.B.B.v.c.z.z.z.x.z.z.h.z.k.h.c.W.nX<             t.W.g.h.h.h.h.h.h.h.h.h.h.k.c.E.Y.Y.R.Y.C.B.c.c.B.Z.R.tX,Xh $         X h bX#XX z G.m.x.x.z.z.z.z.h.z.b.h.b.z.h.g.g.c.k.c.B.c.c.b.k.j.j.b.c.c.c.V.V.Q.J.l X     t 8.zX8.V t q - - - o X X   X                       O                                                                                                                 ",
"              O                 +                                                                                                                     X X X o & < < < q a s ~ K.<Xz & ..yXj.z.h.z.z.z.z.z.z.h.z.z.z.x.c.n.Y.Y.Y.I.n.b.h.h.g.h.z.z.z.z.x.x.x.v.'.XXq   X   Y dXJXP K ;.a.eXo.. . q K P.B.h.h.z.h.z.z.z.z.c.W.e.q .     q.lXdXw.R f h f h h F %XcXoX< . X = ] _.c.z.z.z.z.z.h.z.z.h.z.z.h.z.z.z.h.z.z.z.z.z.z.z.z.z.z.z.z.h.k.k.n.R.t.T [ i       U bX` X $ - V ^.V.z.z.z.z.b.h.z.h.h.z.h.h.z.z.z.z.z.z.z.z.z.h.z.z.z.h.h.b.h.z.h.z.z.z.z.B.).4.q $ . o q Z 1X}.= . - q H.'.B.z.z.z.z.z.z.z.h.h.h.h.z.h.z.h.z.z.z.z.z.z.z.z.z.z.z.z.z.h.k.n.W.G.2.6.[ o     . -.vX%XZ f s y t t r C %X5XCXe.o o = 2.).c.z.z.z.z.h.z.z.z.z.E.G.r = . . >.zX5X<XL y y y y d g g j F BXSX0.& V I.n.h.z.h.z.h.h.h.z.x.z.c.^.' X   . r &XvX-.j s s s s s V ( 8XP.,XO.o o z ) ).n.h.h.z.h.z.z.z.z.z.h.z.h.h.k.h.z.h.z.z.z.z.z.z.x.z.x.v.Q.<XU X X       { 8.G.Z.A.0X6.o c 0Xb.h.h.b.z.x.x.x.x.x.x.z.x.x.B.Z.Q.)._.).W.B.v.z.z.x.z.z.z.z.z.z.k.b.W.nX;             r.W.g.g.h.h.h.h.h.z.z.b.z.b.C.4.-.-.-.] f.E.A.C.W.L.4.e.O.=       X X X g *X#X& j G.C.z.z.z.z.z.z.z.z.h.h.h.h.k.j.M.Y.U.R.T.U.T.U.I.U.U.U.R.R.W.T.W._.<Xl .   . y w.zX2.h q q $ $ $ o X X   X                                                                               X       O                                                 ",
"                  #                       +                                             O               O                                           X X X o & = < q ; a d g ~ K.K.z & ..0Xk.b.z.z.z.z.z.h.h.z.z.x.z.c.E.y.;.' ' / 4.N.b.g.h.h.b.b.h.x.x.x.v.v.'.oXq X   X U aXoXP K J.K.&X>.. v 2XqXm.h.h.z.z.z.z.h.z.z.k.n.qX&X;     { e.6XhXi.h V C j V K =XzXoX; w }.>X~.Z.z.z.z.z.z.z.z.z.h.h.h.h.z.z.z.h.z.z.z.z.z.z.x.z.z.z.z.h.k.k.R.G.F.1XX..           { bX` . [ bX6XC.b.z.z.x.z.z.z.z.z.b.z.h.z.h.z.z.h.h.h.h.h.h.z.h.h.z.h.h.h.z.h.z.z.z.z.z.k.n.I.GX|       w $X#X& . @X7X^.Z.z.z.z.z.z.z.z.z.z.h.h.h.h.h.h.h.h.h.z.z.z.z.z.z.z.z.k.h.c.n.L.H.7X*X$ . .     . o :.vX%XZ Z g g g g y E 3XwXp.X.  z oXK.E.c.z.z.z.z.z.z.h.z.x.B.W.pX%..   [ q.F.qX_ s y g g g h h Z F NXSX0.& j ~.n.h.z.z.h.h.h.z.z.v.v.c.R.] o     q &XsX-.V j g k d k d L H.~.eX0.r X X { 7XR.B.h.z.z.z.z.z.z.h.z.z.z.h.z.h.h.z.h.h.z.z.z.z.x.z.c.Z.L.9.a X       = JXyXI.y.U.qXq.X U <XA.g.h.h.z.x.z.z.z.x.z.x.x.b.E.!.;.( ^ ( ;.I.Z.z.z.z.z.z.x.h.z.z.z.b.W.MX; X           u.W.g.g.g.h.h.h.h.z.z.z.x.v.).I o .   X e.eXF.t.p.0.r .   .       X , { ' 4X}.& C G.U.z.z.z.z.z.z.z.h.h.h.h.z.n.L.3.' ' ] ' ] ' ' ' ' ' ' ] ] -.-.6.9.O.w     . f w.xX8.Z t i - - = o o   X X                           O                                             O         O                                       +             ",
"        +                                                   +                   +           O                                               +       X X X X o = < < < r t y ~ <X<Xz = ..wXn.h.z.h.z.z.z.h.h.z.h.z.z.c.).6.- . . X I I.b.h.z.z.b.z.x.x.x.x.v.V.'.oX;       Y NX>XP K J.p.y >   k <XU.h.l.h.h.h.z.z.h.z.z.z.c.W.7Xq       q =XhXr.h V Z Z C P =XFXoX< p 4X_.Z.c.z.z.z.x.z.z.z.z.z.x.z.z.z.z.z.z.z.z.z.z.z.z.z.z.z.c.B.B.M.`.sXX.f v -             { bX..X { aXR.c.c.z.z.z.z.z.z.z.z.z.z.z.z.h.b.z.h.h.h.b.h.z.z.h.h.h.h.h.z.h.z.z.z.z.z.z.z.h.m.cX..      - $X#Xo . =X(.n.c.z.z.z.x.z.x.z.z.z.z.z.h.z.h.z.h.h.h.z.k.z.z.z.z.z.k.M.Y.Y.`.w.d {  ..           o :.cX%XZ h s y y t y ` 8XAXI X   G DXW.c.b.z.z.z.z.z.h.z.z.z.c.C.tX9.    . $ d.wXr.g s s s g h h Z F aXSX0.. Z !.n.h.z.z.h.h.h.z.z.x.x.c.).] .     q +XCX] j s s s s y s f I K.jXH.{.; o u T H.C.b.z.z.z.z.z.z.z.z.z.z.h.h.z.z.z.z.z.z.z.z.z.z.z.V.W.p.= .       o y 7XyX5.) L.dXq.. U <XA.g.h.z.z.b.z.x.z.x.x.x.x.c.).:Xq o . $ q L.Z.x.z.x.z.z.x.x.x.z.b.c.W.7X;             u.W.g.h.g.h.h.h.h.z.z.z.z.c.`.L .       0.MX] - q - .           . o Y ZX0XgX}.$ C K.Y.v.z.z.z.x.z.z.z.z.h.h.z.C.H.U   .       .             . . $ o o . . .     f r.FX2.h r q = = $ o                           O       +                               O                                                                         O   ",
"                O     O             O X     +                           +                                                           O                 X X X o = < q r t y g ~ K.J.l & ..wXj.h.h.z.z.z.z.z.z.z.z.z.v.B.).9.$ .   X Q ^.b.b.b.b.x.b.b.z.b.z.v.V.'.oXq     X U NX%X/ <.dX%XX     y J.N.l.h.h.h.h.z.z.z.z.z.z.h.M.6Xq       $ 1XzXa.( K Z H H R =XxXoX< p >XU.B.z.z.z.x.z.z.z.x.z.z.b.z.z.z.z.b.h.b.z.z.z.h.z.z.z.x.B.W.).`.H.+X[ .             X r X.4X` X { dXY.h.h.z.x.z.z.z.z.x.z.z.z.b.b.z.z.z.z.h.z.z.h.h.h.z.z.z.z.z.h.z.h.z.z.h.h.z.h.h.j.tXX.      ; $X#Xo . d.R.l.h.z.z.z.z.z.z.z.z.z.z.z.z.z.h.h.z.h.h.z.z.z.z.z.z.c.C.`.tXhXSXq.. $ $           o = 6.jX:XF V j h s s K <.!.AXL     j zXC.v.z.z.z.z.z.z.z.z.z.z.x.B.`.:.      . p.wXr.F f f h h j j Z F aXSX0.$ Z I.n.h.z.z.z.h.h.z.z.v.x.c.^.] .   . q &XsX] j s d g d g g f Q 3XxXyXMXq X X r JX'.n.b.z.z.z.z.z.z.h.h.h.h.h.h.h.h.h.h.z.h.h.h.z.b.E.uXu.o   .   . g / 9XiXt.! G.eXq.. c 6Xk.k.h.h.h.z.z.z.z.x.z.x.b.c.).1X-     . q K.Q.z.z.z.z.z.z.x.c.c.v.v.W.MXq             w.W.g.h.h.h.h.h.b.z.z.z.z.B.).K . .   . A | t                 w U I / jX`.kX}.$ Z G.Y.v.z.x.z.z.z.z.z.h.h.b.b.E.>XA                           .   .   .   .   . s w.xX8.Z y t - - = o X . X X   +                                       O                                                                         +                 X ",
"            O +         X             X             +           O                     O               O                       O     O                 X X X o = < ; < r y g ~ K.<Xl o ..wXl.h.z.h.z.h.h.z.h.z.z.z.x.v.'.9.$ . . X ` ^.v.h.h.z.b.x.x.z.j.Q.A.Z.iXoXq       U BXH.3.F.d.}.  X A <.[.n.g.h.h.h.h.h.h.z.z.z.z.h.B.~.R c o   o 9.3XqXdX-.V Z V P ,XxX+X< k H.A.c.z.z.x.z.x.z.x.z.x.z.z.z.z.z.z.h.b.h.h.h.h.h.h.c.c.Y.F.;.-.o.d o X               ..sX0XdX` X Y 9Xm.z.z.z.z.z.z.x.z.z.z.b.z.h.h.h.h.h.h.h.h.h.h.h.h.z.z.z.z.h.z.h.z.z.z.z.h.h.z.k.j.`.`       < $X#X&   s.U.h.h.h.h.h.z.x.z.z.z.z.z.z.z.h.z.h.h.h.z.h.h.z.c.A.B.E.L.F V Z f q             X < OXJX6XcX3XH j h g s g 8.wX0XMX{   c -.'.B.x.z.z.z.z.z.z.z.z.z.x.z.c.W.2.s .     {.>X<X%X` f f h V V C K BXAXq.$ Z ~.j.k.z.z.h.h.z.h.z.v.z.c.^.' .     q +XBX] j s y s s f f s V K / qX9XT r $ - X.D.Q.B.z.z.z.z.z.z.z.h.h.h.h.h.h.h.h.h.h.h.h.h.b.A.F.] z .     . $ oXlXK.H._ E P.dX0.  c 6Xj.g.g.h.h.h.z.z.z.z.z.z.z.c.).&X- . . . q J.Z.z.z.x.z.x.x.B.C.).W.E.'.VXr             r.W.k.h.h.z.z.z.x.z.z.z.z.c.C.5.2.8.1.7.8.q.q             . = I 1XjXqXT.T.uX{.= C G.Y.c.z.z.z.z.z.z.z.z.z.v.c.U.>XA                               X X   .     . s w.xX2.h t q = = & o X X   X                       +                                           O .   O         +         +   X     X   O                     X       ",
"    O           + +           +     X                                                       X                                   O                     X o X & = < q q y d g ~ K.<Xz = ..wXl.h.z.z.h.h.z.h.z.z.z.z.x.v.).6.- $ $ $ ` T.v.z.b.z.b.z.b.n.f.4.[.'.iX+X;       U vXK.5.!.] -   ; XX(.M.g.g.h.h.h.h.z.h.z.h.h.h.h.k.m.L.%Xd     t <.5XeX1.Z Z I / <XFXoX< p H.Z.c.z.z.z.x.z.x.x.z.z.z.z.z.z.z.z.z.z.z.b.B.b.n.E.W.`.uX+Xq $ o . X           $ [ | 4.^.T.rX`   { 9Xm.h.z.z.z.z.z.x.z.z.z.z.z.z.z.z.z.h.b.g.b.g.h.z.b.h.h.h.z.z.z.h.z.z.h.z.z.h.h.h.j.`.`       < $X#Xo . d.U.h.h.h.z.z.z.z.z.z.z.z.z.x.z.z.z.z.z.h.b.c.k.A.Y.^.tXhX;Xo . . .             X X ; <XyX0X,XoXF V V j Z P r.qX7.[ 7   u./.C.b.z.z.z.z.z.z.z.h.z.z.z.z.h.Z.L.:Xc     - z 7X<X' h j j C C L K sXAX7.. Z ~.j.h.z.z.h.z.z.z.z.v.x.c.^.] .     q oXlX] D j g g h g l j h j K fXeX:XL - . & 8.jXQ.v.z.z.z.z.z.z.h.h.h.h.h.h.h.h.h.h.g.g.g.j.W.u.r .     . . - ,XcX5.^ L W K.fXq.. U 5Xn.g.g.h.h.h.h.z.z.z.z.z.z.b.W.=X; $ $ $ q G.Z.z.z.z.z.x.c.C.[.2.2.].iXVXr             e.W.k.h.z.z.z.z.z.x.z.z.x.x.z.M.E.U.U.Y.^.fXj             p @Xp.J.Q.'.I.].uX{.= C P.Y.z.x.z.z.z.z.z.z.z.z.b.c.C.>XA                           o o X X . o o . X g 4.xX1.Z y q = = = X X X                                                 O                                             O                           O +               ",
"    O                     X       +                                     O                                       +         O                         X X X X & & < q < r y g ~ K.K.z & ..wXl.k.h.z.h.z.h.h.z.z.z.z.v.c.Z.G.4.4.r.4.f.Z.x.z.z.z.z.x.B.Q.R o 5.yXcX+X<     X U dXT.[.wXO.X   ; i.M.l.g.h.l.h.l.h.h.g.h.z.h.h.k.h.k.M.G.Y     . t ;XhX5.L Z L W ,XzX@X< t H.C.z.x.z.z.x.x.z.x.x.z.z.x.z.x.z.b.b.h.b.B.I.~.9Xw.E Q | [ $ .   .   X X $ { O.' JXrX(.[.I.].~   { 0Xm.g.z.z.z.z.z.z.z.z.z.z.z.z.h.h.h.g.j.m.U.N.n.b.z.z.z.z.z.z.z.z.z.z.z.z.z.z.h.h.g._.`       $ $X#X. . s.M.h.h.h.h.h.z.z.z.z.z.z.x.z.z.z.z.h.h.k.m.L.P.5X-.g s y q     .           A .XJXp.H.~.qXr.j V h V h g P J.~.sXX..     t.U.b.z.z.h.h.z.z.z.z.z.z.z.z.z.z.h.A.8X|       = 3X0XK.6.V j z V H K pXAXq.$ Z ~.n.h.z.z.h.h.h.z.z.x.z.c.T.'       ; oXCX] V g g f f h j h h V Z -.J.!.3X..o o ...XL.A.z.x.z.z.z.h.h.h.h.h.h.h.h.h.h.h.g.h.j.I.r.| o       w | r.8XwX;.Z Z W K.sX0.X [ <Xj.g.h.h.h.h.z.z.z.z.z.z.z.k.C.L.5.4.4.2.5.S.B.z.z.z.z.x.v.'.t.= q <XiXGXt X           w.).k.x.z.z.z.z.z.z.x.x.z.z.z.h.k.k.g.k.n.T.^ k k c x .   v bX<XI.Q.f.P H.lX{.= C L.W.v.x.x.x.z.z.z.z.z.c.v.c.n.P.:.Q { | | | ..| ..|  .i   d +.o.o.o.o.o.X.o.X.7.D.xX1.f r q - = o o X X .                   O                                                                                   +     +   +                         ",
"                        +     +   + O O           X     O     + X           O         X                                       O O                   X X X X & & < u r a p k ~ K.<Xk & ..wXl.h.h.h.h.h.z.h.z.z.h.z.z.x.c.E.W.).).).Q.V.x.x.z.x.z.b.V.].I   r.xXlX+X,     X Y dXT.G.8.k     r y.k.h.h.h.h.h.h.g.h.h.h.h.h.h.h.h.h.c.R.%X$     w q.eXG.-.) L P ,XSXoX= a H.C.x.z.z.z.x.z.x.z.z.z.x.z.z.x.z.x.b.A.M.^.^ I ..d $ . . . .   .   $ A [ y .XDX5X!.rXL.4.G.yXQ   { 6Xm.k.z.z.z.z.z.x.x.z.z.x.z.z.z.b.h.A.f.r.t.r.f.n.k.z.z.z.z.z.z.z.z.z.z.z.h.h.h.z.k.).`       = $X#X$ . d.m.k.h.h.h.z.z.z.z.z.z.z.z.z.z.x.x.v.V.W.D.L J c w                 X { Y y ] 7XyXyXvX<Xp.6.V j V Z V F ( 0X!.u.U   . ; a.A.z.z.z.h.h.h.z.z.z.z.h.z.z.z.h.g.j.W.:..     . @XJ.K.H.I V H D G P pXlX7.$ Z ~.n.h.z.z.z.z.z.z.x.x.z.k.^.'       ; oXsX<.F z V l C V C Z C Z V E s.iXvX:.& X = g d.Q.B.v.z.z.z.h.h.h.h.h.h.h.h.h.h.h.g.g.j.G.j           t 7.zX/.4.P L Z W <XfX0.X U 6Xn.g.g.h.z.z.h.z.z.z.z.z.h.h.c.E.Y.R.).W.R.M.c.x.x.z.z.x.A.`.p.& q 3XiXGXt X           0.uXE.B.b.z.z.z.z.z.z.z.z.z.z.z.z.z.z.h.h.m.L.J.K.3X9.t . o t 6.<XT.L.3.J.lX X$ C G.Y.z.z.z.z.z.z.z.z.z.h.z.v.c.Y.(.5X8XqXeXeXwXwXwXdXZX .. +.IXIXAXSXzXlXzXlXgXjXuXcX<.f r q - - = o X         X             +             +             +         +       +                                 +                                     + ",
"        O       +               O # +       O       O X                     O                                                                       X X X X & & < q ; t y g ~ K.<Xz & ..qXl.h.h.z.h.h.h.z.h.z.z.z.x.z.v.v.B.B.C.V.B.v.x.x.z.z.b.A.Q.yXT X r.xXxX+X=     X Y vX~.J.I $ X A 9.F.c.h.h.h.h.h.h.h.h.h.z.z.h.h.h.h.h.c.Y.7Xq .   $ d J.8X6Xw.K P ,XzXXX& u H.E.c.z.z.z.z.x.z.z.x.z.z.z.z.x.z.c.E.'.tXsXr o o .     .     . . o < }.*Xe.,XcXqXD.5.4.;.K.eX`   { 9XS.k.z.z.z.x.x.z.x.z.z.z.z.z.z.h.b.E.-.g v j w.U.n.z.z.z.z.z.z.z.z.z.z.z.z.h.h.h.l.).`       - $X#X. $ d.m.g.h.h.z.h.z.z.z.z.z.z.z.x.z.z.B.E.).uX&X$                   . X & @X1XoXH.5XJ.D.p.] I H V V V V V K 3.8X9XL -   v 0.L.j.z.z.z.h.h.h.h.z.z.z.z.z.h.z.h.k.c.Y.w.C =     Y r.P.<XI V Z D D K pXlXq.$ Z ~.n.h.z.h.z.h.z.h.z.x.x.k.T.`       ; oXsX<.V h h j h h h V h V f Z 1.jX8Xw.{ < o p 1X~.Z.v.z.z.z.z.z.h.h.h.h.h.h.h.h.h.g.j.m.<Xc         X h 8.tX!.;.Z Z L W <XsX0.o U 6Xn.g.g.h.h.z.z.b.h.h.z.h.h.h.k.k.B.B.B.B.n.c.b.z.z.z.x.V.Q.kXoX= q <XiXGXr             {.zX'.C.c.x.z.z.z.z.z.z.z.x.z.z.z.c.z.z.z.c.M.Y.W._.s.' { - X | w.K._.D.D.wX X= C L.Y.v.z.x.z.x.z.z.z.z.z.z.v.h.n.n.M.M.Y.M.C.Z.C.Q.W.jX| + [ 4X:XuX'.`.uXuXjXjXyXfXfX] f q q = = $ o X   X X   .                                                                                                                                     ",
"  O         O               + # # + # O                                             X                               O                     X         X X X X & & < q ; t y h ~ K.K.z = ..eXj.h.z.h.z.z.h.h.h.z.z.z.z.x.x.v.v.v.v.v.x.v.x.x.x.c.C.K.2.T D ..D.cXAX+X=     X Y BX0XMX| o $ q.eXC.c.h.h.g.h.h.h.h.h.h.h.h.h.h.z.h.h.c.B.I.w.U . . $ =XuX!.4.L P =XxXXX& r H.C.b.z.x.z.x.z.z.x.z.x.x.x.z.h.b.T.4.` +.O.&             . . . U e.8.H.wXiX8X8.8._ K K ! K.hX`   Y 0XS.h.z.z.z.z.z.x.z.x.x.z.z.x.b.b.I.0XT       Q s.D.n.z.z.z.z.h.z.z.z.z.z.z.z.h.h.l.).`       $ $X#X. $ d.S.g.h.h.h.h.h.z.z.z.z.z.z.z.z.n.G.1.o.O.{                   - }.e.r.!._._.<X8.~ h h h h g g f j j V ] K.!.BXC . . Q !.n.g.h.h.z.z.z.h.z.z.z.z.z.z.z.z.h.h.h.k.R.gXo.    o }.pXJ.] D j D D K dXlX0.. V (.k.k.c.z.z.z.h.z.z.x.z.k.(.'       ; oXlX<.V j j j V V V C V C V Z L ;.K.wXnXA X & t 4.).B.z.z.z.z.z.h.h.h.h.h.h.h.h.g.g.m.D.O.,         z 3XeX(.<X;.Z L F / <XlX0.o U 0Xn.g.h.h.z.z.z.h.h.h.z.h.z.z.z.z.h.c.z.c.z.z.h.x.x.b.b.I.:X' J ] r._.iXGXr .           u D P 0XC.v.x.x.z.x.z.z.z.z.z.h.h.h.h.h.h.h.k.h.g.k.m.R.=XT & X o 9.H.[.[.wX{.$ C K.Y.v.z.x.z.z.z.x.z.z.z.z.z.z.z.z.h.c.z.c.v.b.x.b.V._.Q . . < ; H.'.L._ E ! R / R P V y r q = $ o X X                                                           O   +         O                                         +   +                 X   X ",
"      O O                     O 2 # # O                                         +                                   O O                               X X X o = < ; ; t y g ~ K.<Xz & ..8Xl.h.h.h.z.z.h.h.z.h.z.h.z.z.z.v.x.c.v.x.x.x.v.x.v.A.G.oX{ X { pXrXiXHX$X=       { HX:.U u o t i.T.c.z.z.z.h.h.h.h.h.h.h.l.h.h.h.h.h.z.z.c.M.lX:.o + $ {.H.qXD.R K =XzX.X= r H.A.b.z.z.z.x.z.z.z.x.z.x.z.z.k.c./.`                   = r r ; 6.AXkXyXyXhX6XW Z Z L Z ! K.fXT   { 0XS.h.z.z.z.z.z.x.z.z.x.z.x.z.k.m.1.` ,       $ V <.R.x.z.z.z.z.z.z.z.z.z.z.z.h.h.j.'.'       & $X#XX X D.m.g.g.h.h.h.h.z.h.z.h.z.z.z.z.M.d.Z $ . . .           $ < - y nXuX_.rX0XJ.i.I h g g g g j z j j V V <.cXp.` < X o T I.k.h.h.h.h.h.z.h.z.z.z.z.z.z.z.z.z.h.z.h.n.qX<.    . T e.5X<XH h j Z K pXvX0.o D ^.n.z.z.z.z.z.z.z.z.x.z.k.^.`       ; oXfX<.F V V j V V h V V j V V V ' H.!.<XH = o o .XfXE.B.b.z.z.h.z.h.z.z.z.z.h.h.h.M.^.2..         . j wXtXs.) P Z L L E 6XsX{.= U 6XB.k.h.h.h.z.h.h.h.h.h.h.h.h.h.g.h.h.h.h.h.h.z.h.c.B.T.4.H = o oXcX'.kXIXt     . ; k w X X t VXtXZ.v.x.x.x.z.z.b.z.z.h.h.h.h.h.h.h.h.h.h.h.g.n.L.J.T     - ' yX^.wX{.$ C P.Y.c.x.x.x.z.z.z.x.z.z.z.z.z.z.h.h.h.z.z.z.x.x.b.B.`.T .   X o u.`.F.P Z Z Z Z V V g s q < & & & X X                                                               O           O       O                                     +                     ",
"                                    O +                       O                                                       .             @                 X X o o = < q q t y h ~ P.<Xz & ..wXl.h.h.h.z.h.z.h.h.h.h.h.h.h.h.h.k.z.k.k.v.v.B.V.Q.0X` & & a ' P.~.p.>.c         [ GX{ & o & K kXC.c.z.x.z.z.h.z.g.k.l.k.k.h.h.h.h.h.z.z.k.B.tX4.$ . . $ F zXqXt.P %XxXXX& r H.A.b.z.z.z.x.x.z.z.x.z.z.z.z.z.c._.-.= X .           . ,.IXMXpX8X_.rX3./ ! ! L P L Z L ;.<XfX`   T 8XN.b.z.z.z.z.z.x.z.z.z.z.v.z.n.R.R             q -.(.c.z.h.z.z.z.z.z.z.z.h.h.h.h.j.W.`       & $X,.X   D.m.h.h.h.h.h.h.h.z.z.z.z.z.z.x.C.H.K q ; = . .         }.IXVX7X/.U.I._ P V V V z j z g g g g g h j -.D.yXJXr & c ..4.M.h.h.h.h.h.h.h.h.k.k.n.k.k.h.h.c.h.h.z.h.c.).4.=       h 6X!.<.F j H K vXlX8.& D /.B.c.x.z.z.z.z.z.z.x.z.k.R.`       < oXjX1.F Z V V V V V Z V V V V Z Z R s.rX3X>.< X z I /.C.z.z.z.h.h.h.h.z.z.z.h.k.n.K.p.9.          +.:XqX8Xi.Z F Z Z Z R <XgX0.= Y 6Xn.z.z.z.z.h.z.z.h.z.h.h.j.h.g.h.h.l.g.l.k.h.k.k.m.G.p.T   w J D.].K.6.+.=     . U GX0.r = - O.7.^.Z.B.z.x.z.z.z.z.h.h.z.h.h.h.h.h.z.z.h.z.h.h.B.^.2.Y w   A +XH.aX X$ C G.Y.v.z.x.x.z.z.z.z.z.z.z.z.z.b.h.h.c.h.h.z.z.z.v.A.`.Q     X o u.iXJ.K V Z h h h h h d t r < & & X X . X                                                   O                                                                     O                 ",
"    +           X     +   +         O   + O #   .     +                                                                 O                           .   X X & = < q ; t g h ~ 5X<Xz & ..wXl.h.h.z.h.z.h.h.h.h.k.n.M.M.M.M.Y.C.Y.Y.C.E.E.Q.P.r.z X ; .XK.].<X:.X           [ GX..X X X.t.^.B.z.x.z.x.z.h.k.m.U.T.W.Y.n.k.h.z.h.z.h.c.c.W.H.>.c . . D DX/.(.;.H.kXXX= r H.C.c.x.z.x.z.z.z.z.z.z.z.z.z.z.k.E.K..XOX X[       . . }.HXFXFXtX).qX<.P K K L Z L Z Z ) K.gX`   { 0Xm.h.z.z.z.z.z.x.z.x.z.z.b.b.B.U.;.J =       . t <.Y.z.z.z.z.z.z.z.z.z.z.h.h.h.k.g.^.`       & $X#XX + d.m.l.l.h.h.h.h.z.h.z.h.z.z.z.z.B.I.H.oX@X X; . .       }.HXFXkX`.R.L./ I F j j h h g g j g g h g j p.~.yX1Xa X }.BXW.k.z.z.h.h.h.h.k.M.R.).).W.Y.B.h.h.h.h.h.h.h.C.K.{.x     z BX!.J.I g D P vXlX8.$ D (.B.z.z.z.z.z.z.z.z.x.z.c.I.'       ; oXcXt._ ^ ( ^ ` E E E E E E ~ I W W t.iXcXOXq X   = 6XW.c.z.z.z.z.h.z.z.z.x.z.h.E.u.s =         X :.jXK.3.) Z C H C H W <XCX{.= [ 9XB.c.z.z.z.z.z.z.z.h.k.n.M.M.Y.M.M.m.m.Y.Y.M.Y.Y.qX_ r $ $ q.<X]._.1Xd         . L gX5XoXY o o ; aXtXA.v.z.z.z.z.z.h.h.h.z.h.z.z.z.z.z.z.b.z.z.b.B.~.2XT   . q 6.nX X$ C P.Y.v.v.x.z.x.x.x.z.z.z.z.x.z.c.k.m.m.n.M.n.n.M.C.T.eX{       X u.iXG.W Z F F V V f s t r ; = & o X X   .                 O             O                                                                       +             +             X       ",
"                  X     +               .       O         +     X                                                                 +       +           . X X & & < ; q t y h ^ P.5Xz & X.wXj.h.z.h.z.h.h.h.h.l.m.(.8XeXeXeXuXuXuXuXuXiXcXxXd.j < ; t p.yXqXpX}.X           [ IX .X & JX0XC.c.z.z.z.z.z.z.m.f.r.r.w.5.I.n.h.h.h.z.z.z.c.C.I.7X+..   V HXqX(.3.J.kXXX= u >XC.c.z.x.z.z.x.z.x.z.z.z.z.z.z.h.B.W.yXwXBXO.o . $ $ . %.+Xu.0.D.rXuX<XH.%Xw.Z L Z L L ) P.zX`   { 0XN.h.z.z.z.x.z.x.z.z.z.x.x.z.c.M.F.1XU       U 7.s.Y.k.z.z.z.z.z.z.z.z.z.z.z.h.h.k.^.'       o $X#XX . D.m.l.l.h.h.h.h.h.z.z.z.z.z.z.h.c.E.).uXlXGXs $ o . .    . Xu.w.H._./.F.>X0.h g j h z z g g g h j K F.5X:XOXx o 9.cXC.h.h.z.h.h.h.h.M.f.5.r.w.4.L.M.h.h.h.h.h.z.b.k.T.3XU     r 0.J.K.-.H Z P vXlX0.$ F (.n.z.z.x.z.z.z.z.b.x.z.c.T.'       q oXcX5XJ.=X;X=X=X=X;X>X-X%Xd.d.JXp.t.H.J.dXi.G r   $ 3XW.g.k.z.z.h.h.z.z.z.z.z.h.Y.e.-         > ..t.rXy.) Z Z Z Z Z C W <XAX0.= Y 9Xn.c.z.z.z.z.z.h.z.b.n.T.P.5X6X8X8X6X6X8X8X9XeXfXDX^ o ; F H.iX].p. Xw .       $ K jXtXFXo.= X = @XJ.^.Z.v.b.h.h.h.z.h.z.h.z.h.z.z.z.z.z.z.z.z.b.b.m.P.-.t . X %.GX#X$ C G.Y.c.x.z.x.z.z.x.z.x.z.z.z.c.M.Y.`.(.(././.(././.eXDX|         u.tX~.t.r.t.e.] V h g y r ; < & & X X X     .       O                           O         O                                           +                 +                           ",
"            X     X                         +                                               O                                                       X X X o & & ; w q a g h ( P.K.z & X.rXj.h.h.z.h.h.z.h.g.l.a.Z s s s g j j j V K I D D g & { GX4X0XdX] | c         o O...z o X X H.Q.v.x.z.x.z.z.z.k.U.E . . . t d.Y.h.h.h.h.z.z.z.k.N./.6.o   - | 7.qX[.L.tXXX; t H.A.c.z.z.z.z.z.z.z.z.z.z.z.h.h.z.k.k.l.N.U.5X2X4XmXOX- $ o $ $ ..GXVXBXsXzXJ./ ( ' W P ) 5XxX`   | 0XN.b.z.z.z.z.z.z.x.z.z.z.z.z.z.c.C.uX` X X $ 6.).A.k.h.h.h.z.z.z.z.z.z.z.z.h.z.h.k.'.]       = $X#XX $ s.m.h.h.h.h.h.h.h.h.h.h.z.h.z.z.z.c.k.B.E.rXd.i.+XOXv o X X   . X.MX;XH.qX<X<.<.( D g g g g g g h -.kX7Xt o . o 6.tXc.z.z.z.h.h.h.c.).! $ $ . $ w.W.k.h.h.h.h.z.h.z.n.!.U       r p.yXd.I Z K sXxX8.& Z (.n.k.z.z.z.z.h.h.b.x.z.c.T.' .     - $XGXVXVXGXVXGXGXGXGXGXGXGXGXGXGXZXgX7XK -.fXCX+X  . 3XW.j.h.b.z.h.h.z.z.x.x.z.b.).|.-         r -X_.!.-.V f C C C J H I <XBX{.< [ 9XM.k.h.z.z.z.h.h.z.j.).) s s s s s s Z f f f h h g ; O.VXfX_.0X4Xk .         X = K ].Q.'.F.8...= X t GXuXQ.b.b.z.h.z.z.z.z.z.z.z.x.z.z.z.z.z.b.b.z.B.Q.rXbXx   c %.[   C K.Y.x.z.x.z.x.z.z.z.z.z.z.h.M.L.;.L L K K K K K F L U ;         {.ZXdXhXsXfXxXu.F h g y r ; = = & X X   X                                                                                                                       +               X   ",
"                                          O           +                                                       O                                     X X X o & = < q , t y g ` 8X5Xz & ..0Xj.h.z.h.h.h.h.h.g.N.t.<     $ = = = < = ; ; ; ; r r ' cXjXyX-Xz             = @X}.X   X < F.Z.v.z.z.z.z.z.x.k.I.Q .     r d.W.j.h.z.z.z.h.z.c.n.).8.$       { 6X[.S.tXi.< y H.M.x.z.z.z.z.z.z.z.z.z.z.z.h.h.b.h.h.g.j.A._.uXzXFX&XY {  .a o i [ Y Y X.ZXfX5X8X0X4.W ) P.cX` . | 0XN.h.z.h.z.z.z.z.z.z.z.z.z.h.h.h.k.E.t.9.>.7.y.A.j.h.h.z.h.h.z.z.z.z.z.x.B.Z.C.C.A.`.]       = $X#Xo . d.M.l.h.h.h.h.z.z.z.z.z.z.z.z.h.h.h.h.c.A.).zXFXFXVX6.H z ; =   x [ v T dXfXjXvXd.R P j g g g V F <.wXGXq . = Y t.W.c.z.z.h.z.z.z.c.'.E $ .   . e.W.k.h.h.h.z.h.h.z.n.^.T       w 1XhXH.<.` P lXlX8.o F (.n.h.z.z.h.z.h.h.b.x.h.j.^.' .     o c [ [ [ U [ [ [ [ [ [ S [ [ [ } ..1XaXt.s./.qXd.  . 2XR.g.h.z.z.z.z.z.z.x.x.z.x.).|.;       c O.<XrXs.W V f f V j V V I <XCX0.& Y 6Xn.c.c.z.h.h.z.h.b.j./.I   . = o o o . $ $ - = < < = 6.jXyXyXy.` -           v }.t.W.Z.E.iXFX+X;   - }.r.D.C.c.b.c.b.z.z.x.z.x.z.x.z.z.z.x.z.x.z.z.x.V.Q.4Xv           C P.Y.z.z.x.x.z.z.z.z.z.z.z.v.E.J.A $ . .                         [ ..X.X.X.t.jXr.F V h s r r = = o X X     X                                                                                                                         O     O         ",
"      X                                                                               .                                         O                   X X X X o = ; w ; t y j ^ P.5XA & ..wXj.b.h.h.h.h.h.z.l.N.t., [ bX4X,X<X<X3X<X7X3X9X6X7X0XwXK.u.1XU             U 6.3XO.  w 9.5XA.B.b.z.x.z.z.z.z.k.I.T .     t p.W.k.z.h.z.h.h.z.h.k.C.s...o     U 2XI.R.tXp.< y ,XM.c.z.z.z.z.h.h.h.h.h.h.h.g.h.h.h.h.l.j.U.w.9.0.XX3XSXDXMXU $ .   X X y {.XX<XrX].I.K.f.^.iX'   | 0XN.z.z.z.z.z.h.h.z.h.z.h.h.h.z.h.h.k.C.W.Y.Y.N.g.g.h.h.h.h.h.h.z.z.z.z.v.U.s.y.D.U.tXo..     = $X#Xo . d.M.h.h.h.h.h.z.h.h.h.h.z.z.h.h.h.h.z.h.M.y.' ..] NXlXFXDX3XC .       c OXO.] 5X!.P.<X_ I H j P p.8X,XI     | zXY.n.h.h.h.z.z.h.v.c._.E .     . e.).c.z.h.h.h.h.h.z.c.A.~.@Xu   o U e.hXzXXXP lXxX8.$ Z ~.n.k.h.h.z.h.h.h.z.z.z.k.T.' . . . + o o o o o X X                   i *XsXtXR.N.R.p.. . ,XR.l.h.x.z.z.z.z.z.z.x.z.c.R.|.q .     9.DX].0X] s f f Z C C C J P <XBX{.< Y dXn.c.c.h.z.h.h.h.h.k.yXY o $X2X<X,X<X,X<X<X<X<X<X<X5X0XD.o. X{             . T sX'.Z.Z.'.yXDXmXc         o.uX'.Q.Q.Q.c.b.x.z.x.x.x.z.z.z.x.z.z.z.z.v.V.Q.:Xk           C P.Y.h.z.z.z.z.z.z.z.h.z.z.c.E.,XU . .   . . . .                         . X.ZX!.J.;XI y t r = = o X X X X X                       +     O                           O                                                                             O ",
"                              O O                           O         O               O                                                             X X X X & & < q q t d h ( 5X0XU < X.wXb.b.z.h.h.z.h.k.g.l.i.< { nXyXjXxXzXxXxXxXcXxXxXxXxXcXXXg y $           X OXGXGX..  a 0.'.A.x.x.b.z.x.z.z.x.n.L.L $ .   t d.Y.k.z.z.z.z.z.z.h.h.k.R.7X;     $ C H.).tXXX; p H.A.c.z.z.z.z.z.h.z.h.h.h.h.h.h.h.k.h.g.n.R.Z $ - Z |.nX7XdXu.q.>.9.{ o o = q ' 9XcXiX`.W.Q.`.' o ..qXM.z.z.z.z.z.z.h.z.z.z.z.h.z.h.z.h.h.k.h.h.b.h.h.h.h.h.h.h.h.h.h.z.x.z.v.P.E V -.^.uXX.      < $X#X& $ F.M.h.h.h.h.h.h.z.z.h.h.z.b.h.h.h.h.h.c.W.3.q = y +XVXDX9XjXi.q.O.U o   @   a bX3X0X0XK.H.XXL _ <XwX4Xp     I /.B.k.h.h.z.z.z.h.v.c.).W $ .   o 0.W.c.z.h.h.h.z.h.z.z.c.Q.:Xv . X . | dX9X%XP zXjX7.o V (.n.h.z.h.h.h.b.h.h.z.h.j.E.2.P I I I I Q ~ I E T E T I ` T ` ` | [ X v $XbXJ.R.n.R.s.  . ;X^.l.h.z.h.z.z.z.z.x.x.z.c.W.|.q   .   6.zX0X2.L t t t s f h f h I <XAX0.= Y 6XB.k.c.z.h.z.z.h.k.j.rXY = nXiXtXuXjXjXhXhXzXxXxXxXcXFXXXo o             a X.t.^.Z.Q.'.J.X.o.%.x   . X X { +Xu.u.w.4.S.B.z.x.z.z.x.z.x.x.z.b.b.z.z.v.v.Z.<Xv           A P.R.h.h.z.z.z.z.z.z.z.h.c.c.E.K.Q - - q q q q q q q ; q ; - q ; q q ; .   +.HXjXjXFX] g y r = = & o X                                                 O                                                                                             ",
"                                                O                     +                                 O                                           X   X X & = , w q t g j ( P.0XH - X.eXk.h.h.h.h.h.h.b.h.N.t.< { 3XiXs.r.r.t.t.t.y.t.t.t.t.p.o.; X X         & r JX4X8.c   y e.Q.b.x.z.z.z.z.z.z.z.v.I.) f y t F s.E.k.z.h.h.h.h.h.h.h.k.M.8Xq       . -X_.iXXX; g J.Q.b.z.b.z.z.h.h.h.h.h.h.h.h.h.g.h.h.g.n.R.F t l t A Q e.CXaXNX7X7X}.o   o - Y e.p.y.f.W.Q.`.' X ..wXA.b.z.z.z.z.z.z.z.z.z.h.z.h.z.z.z.h.z.z.h.z.h.h.h.g.h.h.h.h.h.z.h.z.b.V.!.U r ' ^.iXo..     , $X#X& . F.E.h.z.z.h.z.h.z.h.h.h.h.h.h.h.h.h.h.h.M.4.V j s A o.7.t.hXgX7X7X0.- X     = | ' :XcXrXrXH.D 3.0XJ.OXx     W R.n.h.h.h.h.z.h.h.x.B.W._ q q = q r.Y.c.h.h.z.z.h.h.z.z.z.B.<Xc X . . { BXyXoX/ kXkX7.& V (.n.h.h.h.h.h.g.h.h.h.h.k.C.G.J.J.J.J.J.,XJ.J.,X,XJ.J.J.,X<XK.<X4X}.& @ N [ ] L.M.R.s.. . %X).l.h.x.h.z.z.z.x.x.x.z.x.W.|.q . . . 6.lX6XP V s f f d V g C C P ,XBX{.= Y 7XC.k.c.h.k.z.z.z.z.n.tXT % 4XrX~.5.t.t.t.i.t.p.y.t.p.i.o..               Y 2X~.W.Q._.kX&Xt < , %   [ }.}.}.v p d d f f.V.x.x.x.x.z.x.x.z.x.x.z.v.c.v.v.Q.,Xa         . C J.Y.k.h.h.z.z.h.z.z.h.h.z.c.Z.!.t.q.0.|.|.|.|.|.|.|.0.|.|.|.|.|.XXOX}.u   c 9.8.J.xX<.g y r = = o o X X                                           O                               O         O                   O                                   ",
"                                      O                                                                         O           O     O       X           X X X o & - ; - r y h ( !.5XH - X.eXk.k.z.z.h.h.h.h.h.N.t.; { 3XyX` . X o & $ = = = = = $ & X X X .   . $ U 4XVX.X< X X J t.E.b.h.z.z.z.z.z.x.z.h.B.W.`././.).E.c.h.h.h.h.h.l.h.g.h.g.l.I.` i     . XXyXiXJXr k H.Q.v.z.z.z.z.b.h.h.h.h.h.h.h.h.h.h.h.h.h.k.(.eX7XA - q A O.0.%XP.0X>Xo.6.{ = o $ = - K uX'.uX' & ..rXA.b.z.x.z.z.z.z.h.h.h.h.h.h.h.h.h.h.h.h.h.z.h.h.h.h.h.h.g.g.b.h.b.x.V.U.3XT 6.y.^.iX] .     u *X#X& $ d.E.z.z.z.z.z.h.h.h.h.z.h.h.h.h.h.h.h.h.k.M.tXyXw.f f t U }.:.;XfX6X%Xu.{.q   X o U Y -.0XP.5.f.0X<.X   - U 4.M.h.h.g.h.h.h.h.h.h.z.n.U.L.P.P.P.U.k.h.k.h.h.h.z.h.h.h.c.B.P.` U $ X A .X<X~.5.).yX7.o Z P.n.l.h.h.g.h.h.g.h.z.z.z.z.n.C.C.E.E.E.Z.E.C.C.M.M.E.M.C.C.C.M.]..X=   .   H P.M.I.s.. . %XR.l.h.z.z.z.z.x.z.x.x.z.b.W.|.q . . . 6.SX7XZ t q q t i f f d f L <XBX0.= Y 6XB.k.c.z.z.h.z.z.b.j.rXY $ 1XyXoX& X .     . . o $ o $ X           X v v ] /.'.'.xX-.g ; o X o U T 8.jXdX1X        . D.A.h.z.z.x.z.z.x.z.z.z.x.A.U.Q.Z.Q.J.k         . C P.Y.h.h.z.z.z.h.h.z.z.z.z.v.k.C.E.).`.'.`.'.'.).).).).).).).).).).`.,Xk       s r.xX2.g t ; = = & o X   X .                           +                       O                     +                                                               ",
"                                                          +                                   O                                 O                   X   X X & & - w q t d j ( !.0XH ; X.fXk.h.z.h.h.h.h.z.h.N.t.; { 3XxX...         . . X   X   X X X X X X p {.r.7XnX{.< X ..y.[.A.h.h.z.z.z.z.z.z.z.z.k.c.n.B.n.B.k.h.h.h.h.h.h.h.h.h.k.n.N.U.dX{.      o.aXjXJXr k 4X'.A.v.b.z.z.h.h.h.h.h.h.h.h.h.h.h.h.h.h.z.B.n.(.s.w.0.p = f | XXnXpXAXAXu.D j j q o D HXyXxX' o ..vX'.B.z.z.z.z.h.h.h.h.z.h.h.h.z.z.z.h.z.z.z.h.z.b.z.h.h.z.h.h.h.h.b.B.E.H.I k pXcX'.iXX.X X   u *X X< $ H.W.B.v.z.z.z.z.z.h.h.h.h.z.h.h.h.h.z.h.k.k.n.M.L.s.%X) Z f q OXVX3XdXvXdXK < < & X o [ pX'.^.I.yX8.X   U 3XI.k.l.h.h.h.h.z.z.z.z.z.z.k.n.n.C.k.k.h.h.h.h.z.z.z.h.z.c.B.E.).6XnXt o $ g u.tXW.T.rX2.X V P.n.h.h.g.h.h.h.h.h.z.h.h.h.z.k.z.k.z.z.h.k.k.h.j.k.h.g.g.k.k.k.T..X&       U P.m.R.s.. . %XW.l.h.z.z.z.z.z.z.x.v.z.v.W.|.q . . . 7.ZX6XZ f s d s d d k l l L ,XBX{.$ Y 6XC.k.c.z.k.z.z.z.z.A.uXT % 2XjX&Xo                 . . .           = OX4XP.).].,XmX{ $ . $ f G %X9XI.U.T.J.= . .   o f.N.z.z.z.x.x.x.x.x.x.x.n.D.( y.Q.Q.,Xk           C K.Y.g.g.h.z.z.h.h.z.h.z.z.z.h.z.k.c.k.n.B.B.B.k.B.k.k.k.k.k.k.k.n.M.J.g       y u.SX7.g t r = = = X o . X X .   .                                           +                                                                                       ",
"                  X                       O             O                           O     O                         O               X         X       X X X o & - ; ; r y j ^ P.8XU < X.eXj.z.z.z.z.h.h.b.b.S.p.q { 3XjX+.                .   X X     ; { Q <.wXrX5XD &   = .XT.b.g.h.h.h.h.h.z.z.z.z.z.z.z.z.z.z.z.z.h.h.h.h.h.h.h.h.n.S.a.s.J._.2X.     < I VX&Xr u 9.r.D.Q.v.h.h.h.h.h.h.g.h.h.h.h.h.h.h.h.h.h.h.k.B.M.W.qXs.e.A $ $ o ] pXvXrXrXFXIXX.o = Y ] 4Xo.X U {.8.S.V.z.z.z.z.z.z.z.z.h.h.z.z.h.h.z.z.h.h.h.h.h.h.h.h.h.g.g.g.h.b.).P.H = g K.tXyXGX...   + a bX#X< $ |.s.L.Z.z.z.z.z.h.h.h.h.h.h.h.h.h.h.h.h.h.h.z.k.B.M.W.I.hXi.; q q t oX<X0X0XpX3X{.q X c +XK.rX5XoX>.X   ` /.n.h.h.g.h.h.h.h.h.h.z.h.z.h.h.h.h.g.h.h.h.h.z.h.h.h.z.k.C.F.t.P.qXAXg o   < O.0X'.C./.7.  V P.M.g.h.h.h.h.h.h.h.h.z.h.x.z.z.z.z.z.z.z.z.z.h.h.h.h.h.k.n.n.A.T.u.=       U P.m.U.y.. . %XW.g.h.z.z.z.z.z.z.z.x.z.c.).e.q . . . 6.SX6XF h t s t d f d s f L ,XCX0.o Y 6XB.c.h.z.z.z.z.z.x.B.uXT = 1XjX+Xo                     .       z ` T d.rXY.).H.y o o $ - H HXuXT.C.B.b.B.T.J.=X%X>XD.I.b.b.z.z.z.x.z.x.x.b.v.E.u.q 1.iXQ.J.x           C K.Y.g.g.h.h.z.h.h.h.h.h.z.h.h.z.h.h.h.h.h.h.z.z.z.h.h.h.h.h.B.n.n.M.J.d       t 8.lX8.g r r = = = o X   X                                   O         O             O                   O           +   O                           O             O ",
"              +                         O     X           +                                                                                             X X X & - ; - r y j ~ !.!.U < X.eXk.z.h.z.h.z.z.z.k.N.y.; T 3XlX+.X           .   X o = & X & z 3XqX].'.].pXA X   q p.m.b.h.h.z.h.h.h.h.z.z.z.z.z.z.z.z.z.z.z.h.z.h.h.h.h.h.h.n.I.f q 7.rX3X& X   X r oX$Xa X < ; ] ].v.b.b.z.h.h.h.h.h.h.h.h.z.z.z.z.z.z.h.z.z.b.c.C.Y.qXi.9.O.a v ..] ].Q.].NXX.o X o A bXo.X o = ; G.Z.x.z.z.z.h.h.z.h.z.z.h.z.z.z.z.z.z.z.z.z.h.h.h.h.h.h.g.g.b.S.K.XXk < o.iXiXe...i .     t bX X< o a y s.E.c.z.z.h.h.h.h.h.h.h.h.h.h.h.h.z.z.h.z.z.c.k.k.C.W.K.o...{ q A C e.tXQ.].4Xk   o r ] AXXXu & X X <.^.k.h.g.h.h.h.h.h.h.h.z.z.z.z.z.z.h.h.h.h.h.h.z.z.h.z.h.c.).:.t d.uXSXj o X X q ` ~.U.].7.X j P.M.h.h.l.h.g.g.h.h.h.h.z.z.h.h.z.z.z.z.h.h.h.h.h.h.h.b.N.f.a.I.T.XX<       H 8XM.R.s.  . %XR.j.h.z.z.z.z.z.z.x.x.z.c.W.|.q . . . 9.SX7XZ f f s f d d g k h L ,XsX{.o Y 6Xn.c.c.z.z.z.z.z.z.B.uXQ $ 1XlX+X.               . . o . X o $ 8.SX!.eXtXI.(.%Xy . [ }.|.i.qXE.c.v.z.z.b.c.A.M.Y.M.m.b.h.h.h.z.z.x.x.x.z.x.A.).XXq <.tX).J.k           C P.Y.g.h.h.h.h.h.h.z.h.h.h.z.h.z.z.z.z.z.h.z.z.h.z.h.h.h.h.n.[.a.S.Y.J.g       t 8.hX8.f t q = = $ o X X   X                                                                                                                                         ",
"      +             X                         O                                             O       O                                               X X X X X & > ; , q t g ^ !.5XJ < X.eXk.c.z.z.z.z.z.z.z.N.y.q { 7XjX+.X       d H L L I P I I E E _ ~.'.Q.Q.F.7.d X r / D.n.g.b.h.h.h.h.h.z.z.z.z.z.z.z.h.z.z.z.z.z.z.h.h.h.h.h.h.n.P.q $ q.tX0Xy = X X & Q mXc < X o X.qXA.b.z.h.h.h.h.h.h.h.h.z.z.h.z.z.z.z.z.z.z.h.k.c.B.Q.].3XbXc + = r 5XQ.T.sXo.o   X U bXo.& X X = K.E.c.z.z.z.h.h.h.z.h.h.z.z.h.z.z.z.z.h.z.z.h.h.h.h.h.h.h.g.A.].( z = ; 8.iXwX' < X       y bX X< o o = p.).k.z.z.h.h.h.h.h.h.h.h.h.h.g.h.h.h.h.z.z.z.z.c.c.C.W.5X3XmXA $ = 7.`.Q.].nXc   X X X.DX0.& X a G 5.M.k.g.h.h.h.h.h.h.h.h.z.z.z.z.h.z.h.h.h.h.h.h.h.h.z.z.z.B.`.:.- d.eXcX( g X X X U <XQ.qX<.X h ~.n.h.h.h.h.h.h.h.h.h.z.z.z.z.z.z.z.z.z.z.h.h.h.h.h.j.k.I.;.P G._.XX<       U !.M.I.s.. . %XR.j.z.x.z.z.z.z.z.z.x.z.b.W.|.q . . $ 7.DX3XF h y y y f d y g s F ,XgX0.o U 6XB.k.z.x.z.z.z.z.x.B.cXT $ 1XjX*X$       - U U L Y I Y I I I K y.iXiXP.,X4.5X%Xt . X.GXhXqXE.B.b.z.z.z.h.k.g.g.j.g.g.b.h.h.z.z.z.z.x.x.x.B.Q.uX@Xq <.iXQ.,Xk           C P.U.g.h.h.h.h.h.h.h.h.h.z.z.z.h.z.z.h.h.h.z.z.h.z.h.h.h.h.M.5.W 4.(.J.d       t 8.hX8.f t q $ = = X o   X o                               O                                                                                                         ",
"      X               O                           O                                                     O         O     O                                 X o & , ; , r d h ^ !.0XH ; X.eXk.k.z.z.z.z.z.z.z.n.p.q T 7XjXO.        OXDXSXxXxXxXcXxXxXxXiX'.Q.'.].3XU . . 9.tXm.g.g.g.h.h.h.h.h.h.z.h.z.h.z.z.z.z.h.z.z.h.h.h.h.h.g.h.h.n.~.; X O.<XrX0XOXr X X y }.bX*Xv X X.sXU.k.g.b.z.h.h.h.h.h.h.z.z.z.z.z.z.z.z.z.z.z.z.z.z.c.Q.].nXc o U ] ~.T.K.mXo.X   X a oX:X.X .$ = 3XtXB.z.z.h.h.h.h.h.h.z.z.z.z.z.z.z.h.h.z.h.h.h.h.h.g.g.j.N.rXJXr o y -X0XiXBXX.X       $ j 2X3Xi.{.& & oXuXA.v.v.h.h.h.h.h.h.h.h.h.h.h.z.h.h.h.h.h.h.z.z.c.B.Z.'.K.*Xt U 7.D._.].7.J &     X { IX}.& o q.lXT.c.k.h.h.h.h.h.h.h.h.h.z.z.h.h.z.z.h.h.h.z.h.h.z.h.h.z.z.c.`.7.q @X7XwXxX*X&   . c oX~.wX6.X j P.n.h.h.g.h.h.h.h.h.h.h.h.h.z.z.z.z.h.z.h.h.h.l.h.h.g.j.0XT y H.wXoX;       U P.M.R.s.. . %X^.k.z.z.z.z.z.z.z.x.x.x.x.W.|.q . . $ q.SX7XF h f t d d d k k k K ,XaX0.X U 6XB.h.c.z.z.z.z.z.z.A.uXQ $ 1XzX*X$       C GXSXSXFXHXHXHXHXHXFXiX_.qX-.q H 3X&Xy o o.fXE.B.c.b.z.z.z.h.z.h.h.z.z.h.k.h.z.b.z.z.z.z.z.z.B.Q.D.^ l q w.iX'.<Xc           C P.Y.g.g.h.z.h.h.h.h.h.h.z.h.h.z.z.z.z.z.h.z.z.z.z.z.h.h.h.(.1.r Q wXH.d       r 7.hX8.h t i = = = o o X X                         +                                                                                             +   +       O       ",
"                            O   +                           O                     O         O                   +                                       X X o & = ; < r t g / ~.<XG < X.eXk.h.h.h.z.z.z.z.b.N.y.q | 7XvXO.        |.jXqXqX0X0X0XdXwX9X].'.'.iXK.q.k . X :.).k.g.h.g.h.h.h.h.h.h.z.h.h.z.z.z.z.z.z.z.z.z.z.h.h.h.h.g.h.B.I.9.l ; 6.yX`.,Xk X X & < }.mXc X z 8.L.E.b.b.h.h.h.h.z.h.h.h.z.z.z.h.h.h.z.h.z.z.z.b.k.U.~.r.X.u = .XdXQ.rXI v <     . r .XyXSX>.o o ' 5.).B.c.h.z.h.h.h.z.h.z.h.z.z.z.z.h.z.z.z.h.h.h.g.g.n.M.I.u.X.< T i.yXrXd.1X| X       ..-XrXtXcXnX= o q.p.F.Z.c.h.h.h.h.h.h.h.h.h.h.h.h.h.h.h.h.h.h.z.c.c.C.R.kX:.i $ 9.xX).'.BX{ X       X U mX .X o 2.`.C.v.h.h.h.h.h.h.h.h.h.h.h.h.h.h.z.h.h.h.h.h.h.h.h.z.h.z.z.c.W.d.E C T r.kXoXX     $ d :XvX7.X j L.n.k.h.h.h.h.h.h.h.z.h.z.z.z.z.z.z.h.h.h.h.h.h.h.h.h.j.0X{ a >XfXJXq     . U 8XR.I.s.. $ =XR.h.h.z.z.z.z.h.h.z.x.z.z.W.|.q . . $ 7.DX3XZ V s s y d d k k d L ,XBX0.X U 5Xn.k.z.h.z.z.z.z.z.B.kXQ $ bXzX+X$       D hXuX9XdX7XaXpXsXdXaXdX9X3X-.t L 6X%Xr . X.BXW.Z.z.z.h.z.z.z.z.z.z.z.z.z.h.z.z.b.b.z.z.z.h.c.C.kX.Xc q >.6XiXiXnXc           C K.Y.g.g.h.h.h.h.h.h.h.h.h.h.h.h.h.h.h.h.z.h.z.z.h.h.h.h.g.(.1.r T dX,Xf       q 7.hX8.h s q = = = $ o   X X .                         O             O                                             O                                                 ",
"                                                                                        O                               O       X                       . . X & = ; - r p g ^ P.5XH ; X.eXn.k.c.c.c.c.v.v.v.A.p.q | MXzXO.        0.cXt.K Z F F K K K ! 2.F.xXi.$ . . $ <.W.k.h.h.h.h.h.h.h.h.h.h.h.h.h.h.z.z.h.h.z.z.h.z.h.h.h.h.h.c.c.E.uXe.q X.9X_.0X~ > X   o }.bXp X     0.qXU.B.c.z.z.z.z.z.z.z.z.z.z.z.z.z.z.z.z.c.c.M.U.s.{.k . i Y d.].~.NXk           J :X].iXL $ o o y pX'.A.c.z.z.z.z.z.z.z.z.x.z.z.z.x.z.z.z.z.h.h.n.N.G.6X%X$ X r <.wXyXt.$ . .   . . . :.uXY.E.`.y.$ X X o ` iXQ.z.k.h.h.h.h.h.h.z.h.z.h.h.h.h.h.l.h.k.n.Y.qX<.Y a a k 8.iX].H.+Xc         [ +.q & o < 5.W.c.z.z.h.h.h.h.h.h.h.h.h.l.h.h.h.h.h.h.h.z.z.z.z.h.z.z.z.h.c.Z.^.t.C q 7.kXd.r o       +XVXq.. j I.n.c.l.l.h.l.g.g.h.h.h.h.h.h.h.h.h.h.h.h.g.h.h.h.c.c.n.9X{ d ;XjXJXr       U 0XE.U.s.. o ,X(.k.h.h.h.z.h.z.h.b.x.z.z.W.|.; . . . 7.DX3XZ f f t t f p d d d F ,XsXq.X U <Xc.k.z.v.v.c.z.v.v.A.cXT $ 1XSX+X$       D dXwX~ G D D D D D D D D j j g I 3X%Xq . - j %X).n.g.k.h.h.z.z.z.z.z.h.z.z.z.h.h.h.h.b.c.B.).dXD y < C <XiXJ.( r $           C P.U.h.l.h.h.h.h.h.h.h.h.l.h.h.h.h.h.z.c.x.v.c.c.v.c.h.c.c.`.<.t T sX,Xy       r 1.gXw.f t w $ - = o X     X   .                                                 X                                                                                   ",
"+                       O           +                     .                 O                                 +           .             X                 . o o - ; - r t g ~ P.5XH ; X.eXN.c.n.B.V.V.Z.Z.Z.Q.oXq | 7XlXO.        0.lXu.K Z Z Z F Z Z ( J.8XSX+X$ . +.e.D.C.k.h.h.h.h.h.h.h.h.h.h.h.h.z.z.h.z.z.z.z.z.z.h.z.h.h.c.k.k.c.Z.).<X..k 1.iXrX>X+.&      . XO.U X   U ] 4.T.c.h.z.z.z.z.z.z.z.z.z.z.z.z.z.z.z.c.E.tXaXZ - $ Y u.P.].].<.U o           G >XQ.'.w.| i . = ..2.D.A.c.z.z.z.x.x.z.z.z.x.z.z.z.z.z.z.z.c.B.W.!.I Y c - g 8.J.0XNX}.          $ g 2.'.Y.E.).s.T p .   Y &XJ.M.k.h.h.h.h.h.h.z.h.h.h.h.h.h.h.h.h.M.L.,XbX{ o r $X:X0XiX<Xy q o         ,.$X< X x 0.I.Z.c.z.z.h.h.h.h.h.h.h.h.h.h.h.h.h.h.h.h.z.h.z.h.z.z.k.k.B.B.B.C.W.fX>.q 9.vXP.XXY o     }.GX}.  V P.n.h.h.h.l.h.h.g.h.h.h.h.z.z.z.z.h.h.h.k.k.k.n.k.k.n.C.aXQ d :XyXJXr       Y 8XQ.W.d.. o %XW.g.h.z.h.h.h.z.h.z.x.z.b.Q.|.;   . $ >.ZX3XL V d d p f d d d s F ,XsXq.X U <Xn.c.c.c.c.B.B.B.n.C.cXQ - 1XFX*X$       j vXvXP j z h h j j z h z j l h E <Xd.V q . . |.J.[.c.k.z.z.z.z.z.z.z.z.z.z.z.h.b.h.b.B.Q.~.H..X& h X.p.wXcX1XU . .           C P.Y.h.h.h.h.h.h.l.l.l.h.h.h.h.h.h.h.h.c.B.c.B.B.B.n.V.B.C.rX6.r T vX:Xy       q 7.hXw.h t t - - - $ o . X X +                             O                           +                                                       +             O       ",
"+                       O                                                                       O   .           +                                       X X o = , , - r p g ^ K.5XC - X.fXm.M.Y.W.W.'.'.'.'.].JXr | VXlXO.      X 0.jXu.F h l V Z Z Z ' <XdXZX*X$ $ +XhXY.k.h.h.h.h.h.h.h.h.h.h.h.h.h.h.z.z.h.z.z.z.z.z.c.c.n.M.E.E.E.W.)._.ZXq.= o.xX'.cX0.& X   , ..bX+Xo   & , _ eXY.B.b.x.z.z.z.z.z.z.x.z.z.z.z.z.z.n.L.2.6.q . = i.0X_._.jXI           X r ( K.Q.^.9X+XA .   = s 7.].C.b.z.z.x.x.x.x.z.z.z.z.z.z.z.h.k.n.S.P.2Xt $ o T 0.J.qX<X' A           U .X<X).I.R.W.^.-XT     > A -.^.A.k.h.h.h.h.h.z.z.z.z.h.h.h.h.h.h.I.1.U } a = q 1XcXrXcXnX$ X           %.OX*   U 7XQ.B.c.z.h.z.z.h.h.h.h.h.h.h.h.h.h.h.h.h.h.h.z.z.h.k.B.M.W.W.W.W.W.).lXX.= C d.~.fXX.-     [ OX%.. g L.n.h.h.h.h.h.h.h.h.h.h.h.h.h.z.h.h.c.k.M.M.Y.Y.W.W.W.).VX| d :XyXJXr .     Y 0XE.T.D.. . =XR.l.h.h.h.h.h.z.z.z.z.z.k.).|.q   . $ q.DX3XZ Z f f f p f d d y G J.vXq.X c 5XA.c.C.Y.W.W.W.W.Q.).FX{ = bXFXbX$       j sXdXP h g y y y y s g y y g y I 3X6X%X>..   A ( 5XQ.c.z.h.z.z.z.z.z.z.z.z.z.h.h.c.A.W.yXNXL v & ..:XqXrXH.0.c .   .       . C G.Y.h.h.h.h.h.h.h.h.h.l.h.l.h.h.h.h.k.B.E.Y.E.W.W.W.W.W.W.eX7.q T dX:Xp X     q 7.hXw.s t q = - $ o X   . X                                                                                                                           O             ",
"                                                O                                                                   +               +                 .   X X & = - = w t d ~ K.5XC = X.fXm.L.p.XXXXXXXXXXXXOX>.; | MXAXO.        0.jXe.F h f V V l V ( 0XJX:.%.. $ %X`.B.h.h.z.h.h.h.h.h.h.h.h.h.h.h.b.h.h.z.h.h.z.x.z.h.B.L.t.i.u.i.i.i.XX@X..o U 8.].T.JXa       r oX3Xz ; X   d o.s.Q.V.b.b.x.z.z.z.z.z.z.z.z.z.z.h.E.F.q - C 6.8.G.T.I.i.{.u         X H ;XyX'.G.F.`.J.7.Y =   X Y XXF.C.v.x.z.x.z.x.x.x.z.z.z.z.x.h.k.S.) q $ c +.d r.qX~.vX.X          X = ` 6XtXs.K 2.8X_.~.d.Y .     U 7X~.m.k.k.h.h.h.h.h.z.z.h.z.h.h.h.g.(.-.- - D XXr.P.rXH.{.+.o         & , < & X X Y !.Z.v.v.z.z.h.h.h.h.h.h.h.h.l.h.h.l.h.h.h.h.z.h.z.z.n.[.y.i.u.e.i.i.XX@XU   - ( P./.-.;       N S . V P.n.h.l.l.h.l.h.h.h.h.h.z.h.z.h.h.h.k.[.t.i.u.i.i.i.XXXXOX[ d :XjXJXt .     Y 9XQ.).d.. $ =XW.g.k.h.h.h.h.h.h.z.z.z.c.R.0.;   . $ :.DX3XZ Z f w t t i y d y F ,XaXq.X A 3XY.I.s.u.i.i.XXi.i.XX+X[ $ 1XFX*X$       j sXdXP j z y y y y p p y y y s I t.P./.,XT .   r %.8.G.B.k.z.z.z.x.x.z.z.z.z.z.h.k.G.] 9.%.& , y <.5X].AXH o o   .   > v > . Z P.Y.z.h.z.h.h.h.h.h.l.h.l.h.l.h.h.h.k.L.s.i.i.i.i.i.i.i.i.+X..> T vX:Xy       q 7.zXw.h i i - - $ o o X . X                     +                                                         O   +                                                     ",
"        O   O                                                   O                                                           O                         X X   X $ = ; - q i s E K.<XC = X.eXR.5.t q q q q < ; ; & $ Q VXlXO.      . e.zXe.V f g h C V h ' dX.Xt o $ - d.W.n.z.z.z.h.h.h.z.h.h.h.h.h.h.h.z.h.h.z.z.h.z.x.z.z.C.t.f q ; q r q q q = & = P `.'.>Xa       ; XXfX:X.Xa     - 9.5X^.Z.V.c.v.z.z.z.z.z.z.z.h.h.h.M.I.i.e.>XsXkX_.^.>Xh $           q 0.qXiXiX3.! 8XqXhX&Xq     . = 6./.Q.V.B.v.x.z.z.z.z.x.z.z.z.h.c.N.;.Z Z ] %Xp.G./.y.0.+.          x {.H.qXyXu.V ' i.d./.xX] q o   $ U ' G.Y.N.k.c.h.z.z.z.z.z.z.z.h.h.h.U.D.u.i.d.vXrX].yX:.$ . . .     X %.#X< X a T 2.Q.V.v.v.z.z.z.h.h.z.z.h.h.h.h.h.h.h.h.h.h.z.h.h.z.c.V.5.s t q q t r r ; o     V H.).5.j r       +   j P.n.h.h.h.h.h.h.h.b.z.h.z.h.h.h.h.h.n.f.t q q q q r r q q = s H.cX-Xt .   . Y 9XE.).H.. $ ;XT.g.g.h.h.h.h.h.h.z.z.h.k.W.{.-     . 7.ZX7XZ f y t t t t y y p G ,XsX0.X c 6XU.G.Z q q q , ; q r q = = 1XFX*X=       Z sXaXK h d t t t r a t r r y r y G J.(.F.1.T $   . l <XT.E.V.x.z.z.z.z.z.x.z.z.z.A.H.=   . = {.>XK.0X4.0.c X X     X +.PX%.o H P.W.c.z.z.h.h.h.h.h.h.h.h.h.h.h.h.h.n.s.h f t q t r t t w q - . Y fX;Xy       r 7.hXw.f q q = = $ $ X .   .                                                                                                                                         ",
"                                        O                                                                     +   +                                   .   X o X = - = q r y I J.J.C $ X.hXR.a.X.o.] X.X.o.o.o.o.o.u.vXzXO..       u.kXe.F s f f f f f ( 6X Xr X X.1X(.C.B.c.c.c.c.k.c.c.c.c.c.k.c.c.c.b.c.k.c.c.c.c.c.c.B.E.J.2.6.<.:.6.:.:.o.:.6.6.y.'.Q.!.7.{     & }.oXK.dXI ;     $ H 1X<XJ.^.V.V.c.c.v.b.b.z.k.z.k.c.M.W.).tXyXH.u..X}.>           c i.J./.y.2.W F w.s.P.J.e.{ .   X { .Xu.p.K.W.B.v.v.v.z.x.x.c.v.c.B.C.`.hXeXeXeX9X<XnX{ X         X $ H <X_.~.;.Z f h h V H.uXdXMX..      ; 9.u.w.G.E.c.c.c.c.v.c.B.v.B.n.k.B.Y.Q.'.tXJ.u.e. X{ .       o = r .XbXa X | HX'.Q.V.v.v.v.v.v.v.c.h.c.z.k.h.z.b.z.z.z.c.c.z.c.c.x.c.E.G.-.o.:.-.o.o.o.] o.' X.] F.Y.~.pX$X=         V P.n.c.l.h.c.h.c.c.c.z.z.b.b.k.k.k.k.m.G.] ` o.X.X.] o.o.] X.<.8XiXJXt . . . Y 8XW.W.H.. o ;X).l.b.x.b.x.b.b.x.v.c.k.j.R.{.=     . 6.ZX3XF Z d f q p f k k k K K.sXq.X A <XR.L.1...` | ............X.pXFXbX-     . Z sXdXW C k y a q a r r r a r a t g -.5.eX6XMXr .   $ H 8.y.G.E.B.c.v.v.c.v.v.v.V.E.!.:.o.o.6.,X8X<XpX+.X X     X o d 0.ZX X= C 5XW.B.c.v.c.k.z.k.k.g.j.g.k.g.l.h.n.C.K.6.-.:.:.o.>.>.o.o.o.o.X.u.uX:Xy       q 1.hXw.h t q = - = o o   X                                                                       O                                                   O O       +   + ",
"                                                                                            O   O                           O   O                     X X X o = > ; - w t s I J.J.c $ ..gX(.`.zXSXSXAXSXFXHXFXFXFXcXuXSXO.X       e.lXw.F h h h l f h ( pX|.<   9.gX).W.E.E.Z.E.E.Z.Z.E.E.C.C.Z.C.C.Z.C.Z.Z.Z.Z.Z.Z.E.E.E.Q.iXcXzXFXFXFXFXFXFXFXFXxXiX'.Q.`.CXIXo     a j y.8Xp....     w O.X.E 8X).Q.E.E.Z.C.C.C.Z.Z.Z.C.E.W.W.iXsX` q ; $         X - T sX~.P.1.P V V Z ! d.8XCX}.$ .   $ = ; t -.uXE.Z.B.B.B.B.B.B.B.Z.Z.E.W.)./.qX9Xu.X.O.x         X a ..8.8X~.K.E f s h s V r.5XuXCX:.d >     q r r r.tXQ.Z.E.E.Q.E.Q.Q.Q.E.Q.E.E.Q.).uXo.r < < X         : ..o.3X&Xa & { AX'.Q.Q.E.Z.Z.Z.Z.Z.Z.Z.Z.C.V.B.V.V.B.B.B.Z.V.Z.Z.V.Z.Q.Q.`.kXzXlXzXxXxXxXlXjXlXfXwX^.E.T.yX+X-         j 5XE.C.n.n.B.Z.C.Z.Z.Z.Z.Z.Z.Z.C.Z.Z.W.].dXvXvXvXvXzXzXgXlXjXuXtXiXoXa     . Y 9XE.W.D.. $ 1X_.A.A.A.Z.B.C.Z.B.A.V.A.C.`.}.-     . 6.ZX2XZ f y t t y y y g d K ,XvX0.X A nX)._.eXCXBXBXBXZXHXDXDXDXSXxXFX*X- .   . Z sXaXP j d r r r r r r ; r r u r r f ^ <XP.,XY [ e . . q s 3.'.Z.Z.V.Z.Z.Z.Z.Z.E.Q.tXxXAXCXlXjX,X:.O.c X X X X X a 0.,XZX X- A 6X`.E.Z.Z.C.Z.B.Z.B.C.C.C.B.Z.C.M.E.W.uXFXFXFXHXHXHXHXHXHXHXDXFXcXuX:Xg       r 7.hXw.h q q $ - $ o X X   X   .                               +                                                                                                     ",
"                  + O                   +                   O           +                                           +         .                           X X o = - = < r t P J.J.C $  .GXhXhXzXzXSXzXFXFXFXFXFXFXFXFXHX%.        u.kX0.j t y f y f t ( dX{.;   9.ZXeXuXuXuXuXuXuXuXeXuXuXuXeXuXrXuXuXrXuXuXeXrXuXrXuXuXuXkXcXxXxXxXFXFXFXFXFXFXFXxXxXcXcXcXGXIXX       X d.rXrX4.V q . . $ $ A nXSXiXcXiXiXuXtXtXtXuXiXuXuXcXcXFXIX .. .           U |.p./.y.) W j s f V Z -.t.9Xp.o. ..     . .  .HXcXuXiXiXtXuXiXuXuXuXuXiXcXcXzXSXZXX..             < X.ZXwX0X<.` Z f g k f h L E 5XuX<X1X>.          0.HXjXeXuXuXuXuXuXiXiXiXuXcXuXiXjXDX+.              X A HXjXlX:Xp X  .HXxXkXiXuXuXuXuXuXuXuXuXtXtXtXrXtXrXeXtXtXrXrXtXtXtXiXiXcXcXxXSXFXxXzXxXxXxXzXlXzXjXkXuXjXAX+X=         v VXwXqXeXtXrXeXrXeXuXeXeXeXyXeXyXeXuXeXjXlXCXAXAXxXFXSXSXFXFXzXzXFXbXr + . . Y 8XW.W.H.. . bXAXyXuXiXiXuXuXtXuXuXeXyXjXZX X-     . 6.ZX3XK V y y t y y y p k K J.vX0.X S MXhXgXgXZXZXZXAXDXDXDXDXFXFXFXHXmX-   . . F gXhXP V d r q ; < < ; ; ; ; ; q u q C Q 5.6XJ.MXO.      o ` DXcXuXuXiXuXuXuXcXiXxXxXSXDXAXSXDX+X; +       X X & T FXtXjX|.- A MXCXcXuXeXuXeXrXqXqXeXqXqXqXeXqXeXfXkXzXSXFXFXFXFXFXDXFXFXFXzXSXzXlXbXk       r 7.hXw.h r q = - = o o X   X X           O         O                                                                                                                 ",
"                              O                                                                   O                   O                                   X X o = - - w t y I J.J.k   $ t j V F G L L I I I I I I I T T v         u.kXe.Z s d k f f f ( pX{.-   r C D F F F F F K F F F F F F F F F F F G F F F F F F F F D F G K G K I I I I I I I Y I L I T [         X d.'.S.].BXT < o o o - z D F F F F F F H G F G G G I I T { u .   .   . $ , ` 6XP.6Xi.h s y t t s t s ` ,X8XhX2Xq d - . . w C G G G F F F G G G K G G K L L L J u           . u L i.wXJ.%XZ t s y t t y t t f XX7XP.qX7.a x &     ; s h Z Z Z F F F F K L K G K I L Y ,             u U -.iX'.'.:Xk X < C V D D Z D Z F F F F F F F F F F Z Z F F F F F F F F F G G K K K K I L K L G F G H G G L H c X         o C D F Z F F F F F G F F F F Z Z D Z D V V V D F F F K G K K K I I U = X X X U 0XE.W.D.$   z H H F F D D D V V V V j h h i .     . 6.CX2XZ f t t r t y y d s K ,XvXe.& % l V j j V V V V Z F G K L I I Q [ $ . . . F CXdXW j k t w ; , < < < = , ; ; ; q q t ' s.qXP.;.U A o . q V Z F K F G F K F F F D j j j j h r             $ :.:X'.U._..X; - s V F F F F Z Z Z Z V V j j j j j j V Z F G K L I I I I I I L I I I Y < .     r 7.jXw.V w q - - $ o X X .                                                                                                                   +                       ",
"                                                            .                 +             O                 O                               .         . X o = > = = w w s I J.K.C .             X   . X X X   . . o . X   .   o u.xX0.V t y t y y f ' dX|.=             . . . . X o . X . X X   . . . .   .                   X X X   .                               X d.'.A.).iXH.{.{ = X o X X X                         X . .     . . . . U |.H.!.P.;.T f t t t y y y y Z Q s.qX6Xd.bX{ $ o .   .                 X o X o o X X X X           v +X,X0X0XK V t t s p y y y t y f I ' s._.P.:X+Xc             . . . o o o . X X . .                     o.pX~.Q.Q.'.J.g & X . .       X . . . . . . . . . . .   .     .         . . . . o . X X X                                       X     . X o X X o o X X   .                         X X X o X o X X X   X Y 8XE.W.F.$ .                                       . :.CX3XZ f y t t y s d d g K <XjXu.&                           . X X . $ .   . . F CXaXP l d r ; - = = = = = = ; < < q w q f W d./.qXdX3X; $ o . . . . . X . . . . . X                       { q.J.rXI.U.`.oXq X $ . X o . . . .                             . . X X $ o o o X o o o X X       r 2.hXw.f q w $ = % $ X   X                           O                                                                                                       O       ",
"                    O                                                 O                         X                       O                             .   X X o = - = ; q y I J.~.F.%XXXv                               .   .   o XXxXu.V s s t p s f ' 9X%X`  .v                     .     X                                                                           X d.'.[.y.y.8XjX;XY c e .                                 .   . . x { { w.sXP.5X=XZ t r q q r w r r r t f -.J.P.tXuXe.X.X.w                     X X   X . X . . X X . { +.T o.9X8XJ.p.y q q q q q q q t q q q q f 7.5X~.rX0X7.{ v                           . .             X U ..T s.tX~.I.Q.'.0Xr.{.v                       .                                                                               X U o.p X     X         X X                                     X   X X     X X Y 0XM.Z.R.4.e.| $ .                                   6.CX3XZ f q r q t t y d g G ,XiXK.r.9.r                             .     . . $ F AXsXP l d r , $ = & & = $ = = - , q w w f t ' d.P.rX8X] { { - . .                                   > [ k 0.dX].5Xy.4.!.].s.XXY $ .   .                                                   X .   X     .   . t w.hXw.Z t q - - $ . X .   .                                                                     O                   O                                             O ",
"                +               +                                                     O                                                                   X X o = = = ; q q H =X/.!.eX<XA                   .   .   .     . . . o i.xXu.j t t t t t q ' 9X9X6XGX%.                . .   X .   X .   .                                                                   X d.tXy./ R D.tX9XoXbX+.. .                             .   . . . | mXnXdXyXs.<.-.h t q q q r r r r i y f L ) 4.tX_.eXpXGXA                       X   .   X . . .   = $XGXnX<XwXd.) I a q q q t t t t i t y y t s I <.r.iXrXvXMX}.          . .                             o  XVX3X].qX5.5.~.].rXvXGXA .             .       .   . . .                                                                       o %.IX{ = . .   .   .                                         . X X X . X   . X Y 0XQ.E.W.eXlX{.- .                                 . :.CX3XV f q r q r t r i y G <XcXuXxX4Xv                                 .     o F lXhXK s t q - $ $ o X X o X = = = $ q q q t Z ! ;.0XtXsXVXmXi             .     .     .           X S *Xw.,XrXD.2.( ;.K.tXiXDXo.q . .   .                                             .   X   . . X . . . . f 8.kXw.Z t q $ - $ . X       .                                                                                                                   O                   ",
"                  +                 O                                               O                 O                 O                                 X . o o > < < r r h -.t.f./.K.H $ & o o o & o $ $ = = = = - - - ; ; ; ; i.FX.XZ r t t t t q ` 7XeX/.uXo.< o o o o o $ $ = $ = = & = & = = $ = o o . $ o o o $ o $ o o X $ $ $ $ $ $ $ o o o o $ o o o o o & o < H.yXp.W K d.dXeXuXSX0.q - = $ o o o $ $ $ o o o $ $ $ - - - - ; o.gXhXjXgXu.Z V r q ; < ; ; q ; q r r t s f ( hX8XqX/.yXL - $ = & & o o $ $ $ = = = - = q - - ; q - i.jXyX0XdXe.Z q q q q t q r q q q t r r r r t f ] SXkXrXjX8.$ $ $ = % $ $ & o $ o o & & & = $ = $ & < r u.rX~.!.<X] I 4XwX].rX3XJ - $ $ $ $ = $ = $ $ $ $ = $ $ = $ - $ $ o o $ $ o o o o = o & & = o & o o o = o o & o = o $ = = = = = q q.BX` q - - - = = - = = = = = = o $ $ o o $ $ o o $ $ = = = - - < < < < ; ; ; T wXL.L.(.I.uX8.y ; ; - = = $ o o o $ o o X o o $ o $ :.gX7XZ t r q q r r t y y V 0.H.D.rX<XC o = o o o = o o o $ o $ o = & = & < - - F lXCXP d p q ; = = & o X o & o = = < , q t t d s P pXuXyXrXlXj < = $ = = = $ = = - = - $ - o $ $ o o Y <XwXrXyXp.j g ( ,XeX/.jX:.s - - = = = = = $ o $ o $ o $ $ $ X o o % o o o = $ - $ - = = < < ; < - ; - h 2.zXr.Z w w = = = X X X                                 O                                                         O           O                                     ",
"          +         X                         O O         +                                       X           O                                             X X o & & = - q q r j 1.!./.P.,X,X:X,X:X=X=X;X:X:X2X2X2X2X2X2X2X,X2X,X0X<X] f q q q q q q y Y / y./.!.J.>XH.H.oX>X%X%X%X%X;X-X-X-X1X-X-X-X-X%X;X-X%X-X-X%X%X%X-X%X%X-X%X%X;X;X-X=X&X;X;X-X;X;X=X=X;X;X>X=X=X<XwX,XG V h Z K P H.rXqX6X,X=X=X>X>X>X%X%Xd.%X%X%X%X;X=X;X;X;X,X,X0XeX6XR I Y h d q q q - ; ; - ; q ; r t d s h Z K ( P.qX5X<X,X=X=X=X;X%X=X%X;X;X;X;X;X;X;X;X,X;X,XJ.8XeXJ.V D f q q q q q q q , ; w q w r q r t t t g L P <.jX6X,X2X1X:X:X1X;X;X-X;X-X>X>X=X;X;X:X:X=X>X,XK.].K.` j g y s j F ' 5X0X<X:X;X-X-X-X-X-X-X;X;X-X;X;X&X%X;X%X%X&X&X%X%X&X%X%X-X-X-X>X-X-X-X-X>X>X;X;X-X;X-X;X;X;X-X;X;X;X:X:X:X=X,X0XrX9X<X3X2X2X2X1X2X2X:X;X;X-X-X%X-X>X-X%X-X>X>X=X-X-X%X=X;X:X;X:X:X2X:X2X:X,X<XxX;.W ! 2.qX/.<X,X:X;X;X1X;X;X=X-X%X-X;X%X;X%X%X;Xd.P.eXi.V q q q q q q r t t t s j W <XyXK.:X:X;X;X-X>X-X;X>X;X;X;X;X;X;X:X;X:X=X,X<XdX3XF r q - $ $ o X X .   X X o = & < , ; r t y g L ~ _ 8X`.8X<X<X:X=X=X-X;X;X;X;X;X;X;X;X;X;X;X=X=XJ./.D.~ P H g s h G P t.uX8X5X,X2X2X1X1X:X:X2X1X;X1X;X1X%X&X%X%X%X%X%X%X;X-X-X;X;X:X;X:X1X2X2X2X2X2X2X2X6X9XhXe.f q q o = $ o X .     . O                                                     O                                                     O         +               ",
"                                                                        +                   +     O                                 O                   X X X X o & & < , ; q q q F <XdXfXfXgXlXlXlXlXgXgXgXlXAXSXSXAXAXzXlXSXzXSXlX-Xg q q - q q q q q q C e.fXwXjXjXfXgXAXAXDXZXZXSXSXDXDXDXHXDXDXDXDXAXAXgXgXCXgXgXCXBXsXaXgXsXsXsXaXaXhXaXsXsXaXhXfXsXdXhXfXsXdXfXvXvXvX3XG s h f h V i.gXeXfXhXhXhXfXaXaXsXaXhXdXgXhXgXgXgXAXAXlXgXkXhXhX3Xh t s t r ; - = = = = % = = < < q r r y t f T 2XfXwXfXlXsXfXgXgXCXgXCXCXgXAXAXAXSXSXCXSXAXhXhXhXhX&Xy q q q q q - q > - = - - - - q ; w q r t t y y X.DXCXSXSXFXFXFXFXDXDXAXAXsXCXAXlXlXAXSXzXzXlXjXyXyXpX` y t y y y g T 3XvXvXgXSXDXSXCXCXAXCXCXCXCXCXCXCXCXCXCXZXZXBXCXCXCXBXBXZXsXBXsXBXCXvXvXsXsXsXBXgXsXsXsXfXsXgXgXlXAXgXlXvXjXfXfXjXfXhXlXlXAXAXAXAXAXgXgXCXsXgXCXfXhXsXgXgXsXfXhXsXhXsXgXAXAXAXAXAXDXAXAXxXFXzXDX' Z Z -.aXjXlXzXSXSXSXCXAXAXCXgXCXCXCXCXCXCXCXCXhXCX7X] r q ; - ; ; q ; q q r q s L 2XlXlXAXAXAXAXAXAXSXAXAXZXAXAXAXAXSXzXAXAXxXSXSX:X~ d t w - % o o X .   . X X o & = < < ; q t t y y g Y 3XjXjXjXxXzXSXSXSXSXFXDXFXSXSXSXSXSXSXgXhXjXwXfXp.j t y y s s s j w.gXfXkXSXSXSXSXSXFXDXSXSXDXZXZXZXCXCXCXgXCXCXCXCXCXgXCXCXCXCXgXAXAXSXzXzXlXlXlXgXgXhXw.E y q < & o o X . X                                                           O                   O               O           O O         +               O     ",
"        +                               +                                     O       +                                                   .   O             X X X X o & = - ; w q f Y W E R R R R R R ~ ~ ^ / ( ( ) ) ( ( ) ( / ^ I I r q - - q - $ - - q q Z I P R R ~ ~ ^ ^ ( ^ ( ( ( ( ( ^ ~ ~ ~ ~ ~ ~ E ^ ^ / E ^ ^ E ! R / / E / ! / E ^ ^ ! ^ ^ ~ / E E / ~ / / / / ~ I g t t t t s F R W W R W W P R R P W W ~ R R W E ^ / / / / / ( ` I s s t r q , = = = o % = = = - , ; r t i t s h L P P P P R I R ! E E E E ~ ~ ~ ^ ^ ^ / / / / W W P F q q - , - - - - > $ = > $ = = = - - ; ; w ; r r g L W E E ( ^ / ( / ^ ~ ~ ~ E R ~ ~ ~ ~ / ~ / / ~ ~ I z t r r r r t g D P R R ^ ^ / / / ^ ^ ^ / ^ / ( ` ( ( ( ) ( ( ^ ( ^ ( ( ( ^ ^ ^ ^ ^ ^ ^ / / ^ ^ ^ ^ ^ ^ ( ^ ( ( ( ( / ( / / / ) ( ( ( ( / ( ( / ( ( / ^ ^ ~ E ^ E / E ~ ~ ^ ~ ~ ~ E ^ ^ ^ / / ( ( ( ( ( ( ( ( ( Z Z h Z E R / / / / / ^ ^ ^ E ^ R ~ E ~ ~ E R E W E E f ; ; - = = - < , < < ; q r s F P R R R ~ ~ ~ ~ R ^ E ^ / R E / ~ ~ ~ ~ ~ P ` I s q ; = $ o X . .     X X X X X o & & < < ; q r t t y L P P P R ~ ~ / ~ ^ ( ) ( _ ( ) ) ) / / / ~ P P G y r r r r t r t C E / / ) ) ) _ _ ' _ ' ' _ _ ( ) ( ( ^ ^ ^ ^ ^ ^ ^ ^ ~ ^ ^ ^ / ( ( ( ( ) ) ( / ( ( E L s q ; = = o o X X                                                       O                   O             O                                                     ",
"              +         +                 O         O           X           O             O                   O +     O                   .                   X X X o = = = < = - q ; q q r q r r t t t y s s s h h f h f g f d s t r ; < - = - = = = = - ; , q q q t t t y s s f f f l g f k q r r r t r t y s d s f s f d d s s s s f d y s y y s s s s s s d k d d d d y y r q r r q r s s d s f i y t t t y y t t t t y y s s d s s s s t t t q ; ; - = $ $ o o & X & o & = = < < ; w q r q r t q t q t t t y y t s t s y g f f f d g d s y y r ; ; < < - = = = & o = , : & & & & = = < < ; ; ; r t y s f h f h h h s s t t t y t y y y y s s g s d y t q r ; ; ; q q r r t f f t f f f f y s s s s f s f f h f g f f f g f d s s s s y s y s s y y y y d s y f d d f h g f g f g h h h h f h f V f f h f f f y t y t f f t t t f q y t y s y s g g g g g g s g s g s s s y y y f f f d y f y y y y t t t t t t r t t t q q q < < = = & & = & < = < < q q r t t t t t y y y y f y s y s t t r r r t r t r r q ; = = o o o .   .       X X X X $ & & = < ; ; q r r r r r r t t t y t d s g h h h h h g g s s t t r r q q ; r q q q q r r s s d f h f h V h j V V h h j s d s s s y y y y y y y y y y g g g g g g g g d s y t t q = = o X X X X         X                                                   O                           O                                                 +   ",
"                                          O                               O               X             +                                                     X X X o o = = = , - q w w u u t i u t t t t d d s d d d d d d d i s i r ; , = - = - < = , ; ; w q w q w w q w i w w d p i i d p q r i i i t t v d d d d d d s d y p y p p p d i d d d p d p d p v c c k p y i i r r q q r r i s d d t i i i i i i i p p i i y i p i p i p d p i i i w w ; - $ = o o o X o o & & & = < ; ; ; w r r w i i q p p d y p i s i t t y p p s d d d d d y t r ; < = = = = = o & X * > & & & & & = = = < < ; r r t p y d g d d d d d y y t i t t i p t y p y p d y p a r , r w ; , w i t t p y f i i d p p d t p d d d d l f d d k f d l d d d p s y y y p y y y y p d p y d d s s d s d d d d d d d f d d d d d f d d d d i t y i i t d f t d d s y i p i s t d y y k g d s d d y y y p t p y t t t t t y i t t p t p p t i i i i i t q w ; < = & & & & = & < & < < < < q t t i t t p y y i p p p i i t i r y u r r r w w ; < = = $ X X X       . .   X X X X & = & < < ; ; r r u q r r t i i a y y p d d d d d g k d y p y a r r q ; r q q w q w q i t p d d l l l k k l l k k k l k k d p p p p p p p y i p p p p p d d p k d p d p y t r ; - : o o X X                                                         +                                                       O   O       O                   ",
"              O                     #           +   O             X                   O     O                                                                 X X X o o o = = = = - = , ; - < ; ; q ; q q w q q r q q r q t q q ; < < = = & & & = = = = $ - $ - - - ; < q q - q , q q q q q r w w w q q q q w r r r r r q q q r q q q q q q r w q q q q w w u u v x a r ; ; ; ; < < < ; ; q ; r q ; ; q q ; w q ; q w q q q q r , q q q w q ; w ; - - = & & X o X X   X X X X o o & = = = - - ; , ; ; ; ; q q q r r ; r ; r ; q q r t q r r r r ; ; < < = = = & = o o o X X & o * & & & & = = = < < ; ; r r r r r r r r r q q q w q ; q q ; r r r q r r q q ; ; < ; < ; - ; q q q q q q q q q q q q q q r t q q t r t q r t q r q r r q t w q q r q r r q q r r q r q r q q t q q t q w q q q q q q t w q q q q q q q q w q q q q q w q r r r r w ; r r r q r r r r r ; q q q q q q q q ; q q q w q q q q q q q r r q w q , - - - = & & & & = o & & & & = < < < - ; w q w q r r q q r r q q ; q ; ; ; - ; - - = = = = & X X .             X     X X X o X & < & = = - < < , < < ; ; ; ; w q r r r r r r r i r r q , < < < = = < - - - - ; q ; w q q t r q q i t q r t t q t t r q q r r r q r r r q u ; ; q r ; r r r q q r w ; - - $ o o o o X                                                     O O   O +                           +                     O       O                         ",
"                          O       +           O               +           X                             +       O     O     O                                     . X X X o * = $ = - = - - = - < ; ; ; ; ; ; q w ; w ; q w ; q ; < = = = & & & o = o = = - = = = = - < - w w q ; ; w q a w w q u r q u u q q w w w w w q w w ; w q w q q q ; w w w w w w w , w x x u ; u ; < < - - - , ; ; w q w w q q , , w > ; q w ; w ; ; ; q w w ; w , ; ; - = : $ o o X X X X X X X X X o o & & = = = - = - - ; ; ; , w q q ; r ; ; ; ; q ; w q w ; r ; ; ; , < & & = o X o X X X X X X X X o X X o & = = = < , ; , , r u q t q u w w w w ; u ; , ; w w , w r w q q , ; < ; < , < ; - > q q w q w w w q q w q q w q w q w q u w r q r r w q q q q q q q w w w q q w w q q q r q w q w q w w q w w q w q w w q q q q w q q q w w w w q w w q w w q , q w r w w r q u w q q u ; ; ; ; - - ; q - - = - , ; , q q q q q w q q ; ; w ; , - - $ = o o & o o o o & & & & & & & < = , ; ; w ; ; w i q r w w q w , , , , , - = - = = = o o X X     . .           . .   X o X & & & = = = = = < = < ; ; < ; ; ; ; w r r w q q q w ; ; ; < < < < = - - = - - - - - > ; q q w q i u i w t u i u q r r r w , ; r ; ; w q ; w q q r ; r u r ; w ; ; < ; = = $ o . X X   .                                                                       O                                             O           O     +       ",
"                    +                                               +                   +                                                                     X   X X X X o o o o o = & = = = = = = = - - - = - < = , , = = = = = = & & o & o o o o & & = : = = = = = & = , < < - - , - , - , < ; ; , = - - - - - - - - - < - - , - - - < < < - q - - - , = - < , , - = = = = < = & & & & < < = = - , - = - - > < , = , = < < < < < < = - > = = & & & o o X X X X X   X   X X X X X & o o & = = = = = = = - = - - - = - , = - = - = , < - - = < = = = & o o o X o .   X   X   X X X X X X & : % = & = = < < , = - - , < < ; - - < , = = < < = < = = = , = = & & & & = = = = = - - - = - = = - = = - = - - - - , - ; < < < ; - , , ; < - - ; - - < , < , < - - - - = , , - , - , q - - - > - = - - - - = > - - - - - = = ; - < = q - < ; - - , = = , , = < < - = < < = = = $ $ = $ $ % = = $ = - = - < - - - - - < = , - = % = o $ o o X X X X X X X X o o & & & = = = = = , = , , - - - , - - - = < = = $ = = @ = X X X X                 .       X   X X X & o & o = = = : = = = < , < , , ; , , ; , , , , ; , < < & < = = = & = = = % = = = = - = - - < < ; ; ; , - ; , - < ; < , = = = , = = = - - < < = = , = = < = = = = = = o o o X .                                       +                       O                             +                                                       ",
"                          O                           + O       X                 +                                   O         .           O       +               .   X X o o o X o o o = = = = = = - - > < = = = = = > = = = & & o & & X o X & & X X o o & & & = & & & = = = = = < = = = = = - < = = - > > - - - = > > > > = - = = > = = - , = > , > > = = > > > > , = = & < = & o & = & = < = = = = - - > = = > , = , < , > < = = = > = = = & & X o o X X     X         X   X X X o o & o = = > = = $ - $ - - = < = = = > = < = = = = = = = = = o o o X X X .       .       X X X X X X X = & & & & > = = - > , < < < < - - = , = > = < = = = > = > = & & & & & & & = : = = $ > $ = $ > = - > = - : > - - = - > , = - - > - - - = , > - = - - - = = - - > > - - = = = = - - > - - - - > > = > - - > > $ > - > - - , - - , , - - < = - - = , < = = > > > - = = = = = $ % = $ $ $ = = o = = - > = > = - = > = > = = = = = % = o X o X X X X X X X X o o & X & o = = > = < - = - = , = , > - = < : & = = o = & $ X o X     .   .                       X X X X X X o * o o & & & & = = - = , > , - - > ; < < < < < : < & & o & @ o o o = = : = = : = = , ; ; ; , - , , - - ; - ; - - < , = , = = = , = < < = = < = - > = < = & = o o o X                                                       O     O                                                                         +               ",
"        O   +             +                   . O                           X                                                                   O         +       X       X X X X X X o X X o o o o $ $ $ = = o & o & o o o & & & X o X X o X X X X X X X X X o o o o o o & & & % o = = o o & = % $ $ $ = = = o & % = o & = & & & & & & & & = $ $ = $ $ o = = = & & o & & o o o o o X o o o o o & o o = $ o o $ o = = = & & & & & & & & & o o o o o X X X X X                 X X X X X X X X o X o o o o o $ $ & & & o & o & $ = o $ % = o o & o o X X X X X                   X X X     X   X X X o o & & & = = o & & & & $ = & & o & & o & & & & & & & o X X X X o o o o = o % o o $ $ $ $ $ o $ % $ o = $ $ % o & = = = % = $ $ o o & o = = = $ = o o = $ = $ o $ o $ $ o $ $ $ $ $ $ o $ o . $ $ $ $ $ $ $ o $ $ o o = = & $ % $ % % $ = & = o o = o = % o & & & o o X o o o . $ o o o $ o $ $ o = o & = o = & o o X o o o o X X .   X X   X X X X X X X X o o o o o o & & & o o = = $ $ $ & o o o = o X o o X X X     .                               X X   X X o o X o o & & & & = = , > % = = = = = & & & & & o & X o o X o X X o o o o o o = $ = & = < & & o = = % $ = = o o = = = o & = o & o & o & o & o o & o & o X X X X                                             O                         O         O                                                       +                 ",
"                                  .                                                                                             O                             O           X X X X X % o & & o & & & o @ = o = & : & & o & & o & o & & X X X X * X X o X o @ & @ o & & & o & & & o = o : = & & & o = : = : : & & & = : & = & = : & = * = : & & = o % % = & = : = = * & & & * & o & o o X o o o & : = & : & & * = = o & & = & & & & & & & & & & @ o o o X           X X   X X X     X X X X X o o X = o = = o = o = = & & & = & & o = = o = * = o o & X X X X   X + X +         + X   X   X X X o o & o & o & & * & & & & & & & & & & = & & = & & & & & o & X o & o & + * @ o o = o % % $ % % $ $ = o $ $ : = $ = = = & & & o o = % = = % = * = o & = = & : & & o = o = = $ % = : $ $ % % o : & = o % % o % $ $ $ & = * & = % & : % = = = = = o = = = = = = * = = * o & & o = % o o # o % = o = % : o = & = & * = o & = = : o o o X X o X     X X X X X X X X & X o o & & & & & * = = @ = o = : % o : & * o o o X X X X X X X           .           .     X X X X X o X o o & & & & & & & = 9 x B : = = = o * = & & o & o & & o X o @ o o @ o & & & * = & & & < & = = & & & = = & > = : = : = = = = = = & = * = & & & & & & X o o o X X       X                                                                   O                                                             X O               ",
"          O     O         +         X   O                     X X         X                                           +                     O             + X X     X   X X   X X   X X X X o o X o X o o X o X o X o o o X o o X X X X X X   X X X X   X X X X X X o o X & X o X o X X X X o X o o & X o o X o X o o & X o X o X X o & X & X o o X X o o o o $ X o X o o X X X X X X X X X o X X o o X X o & X o X & X X o X o o o o o o X X X X X X X             X   X     X   . X   X X X X X o X o o o X o X o X o X o o & o o o o o X X X X X X X X     X               X   .       .     X X X o o o X o X X X X o & X o o X o X X X X X o o o o X X X   X X   X X X X X o X o . o X X X o o o o X o o o o o o o o X o o o X X X o X o o o o o o o & X o o & o o & o X o o o X o o o X o X o X o o X X X o X o o o o X X o o X o & & & o o X X X & & X X o o X o X X X o . o X X X o o X o o o X o o o o o o o o X X o o X X X       .   X     X   X X X X X X o X o o o o o o o o o o % X . o X o X X o X X   X +     .   .                 +   . .   . X   X X . X o o X & & X o x B x : o o o X o o o o o X X X o X X X X X X X X o X X o o o o & X & & X o o o & o X & o & & X & & X X o $ X o o o X o o X o o X X o X X   X           X X   X                     O                     X                       +                           X                           . +         ",
"                    X X                                     X               X   X       O O .       O     +                                                                     X X X X   X X X X o o o X o o o X X X X X X X X X X X X X       X X   X X X X X X X X X X X X X & X X X & o o o X X X o X X o o o o & X o o o o X o o X X X o X o o o o o X o X o X X X X X X X X X X X X X X X X X o X X & X & X o o X & o o o X X X o X X . . X X   X   X X     X X   X             X   X X X X X X X X X o o X o o o X X X X + o o o X X o . X X X X             X                 + + . + . X   X X X X X o o o o o o X o o o o X & o o X X X X X X X X X . o X X X X X . X X o o X . X o o X o X o X o o o o o o o o o X o o o o X o o o o o o o X o o o X o X X X X X o o X o X o X o X X o X X o o X o o o o o o X o o & o o o o X o X X o o & o X o X X o X X X o X X X   X X X o X X X X o X X X X X X o X X X X X X X . + .   +   .     X   X   X   X X X o X X X + o X o & o o o o o o X X X X X X   .                                             X   X X X X X X X o o X & X : 7 * o X @ o o o o X X X X X X X X X   X X X X X X o X X X X X X X o & X o X o o X & X & X o & o & X o X o X o o @ X X X X X X X X           X                         X +                                                                                                                           ",
"      X   O                                 O             X             X             +         O                                       O                             X     X     X X     X X X X X X X X X X X   X X X       X X     X               X X     X X X X X X X X X X X X X X X X X   X X X X X X X X X X X o X X X X X X X X X X X o X X X X X X X X X X X     X X X X X   X X   X X X X X X X o o X X X X X X . X X   X   X           X     X                           X X X   X X   X   .   . X   X X X X X X   .   X X . X X     X         .                               +         X X X X X X X X o X X X X X o X X X X X X X   X   X   . .     . X .   X . X X X   X X . X   X X   X X o X X X X X X X X X X X X X X X X X X X X X X X X X X       X   X o X X X X X X   X X X .   X X X o X X X X X X X X X X X X X X X X X X X X X X X X X X X   X X   . .   . X   X . . X X X X X . . X X X X   X X       .       +       X   X X X   X         X X X X X   X X X X X X . + + . X .         X       X   .                 +     X           .   X   X X X X X X X X X X X X X X X X   X X X X X   . .   X   X .   X . X   X X X X X X X X X X X X X X X X X X X X X X X o     X X o X X   X X X   . .               +                         +                                 O                                               X                                 +     ",
"X     O       O                     O       .               X             X                                                       O                 O             X       X           X X           X X   X             .   +     X X   X     X       X     X           X X X     X X X       X       X X       X   X   X       X X       X X X     .       X X   X         X X   X     X                 X     X X X X X       X     .     . +               X     X     X X               O       .         + X X X     X X     X X     . .     X     .                                     O             X     X X     X X X X   X X X X   X X X     X             X           .   . .     +       X X X   X X X   X   X   X   X X     X       X X       X X X             X     .   X         X     X       X X   X   X X X X X X   X X X   X X X   X X                     .               .     . X     +   X   X   X                   X       X         X     X   X X X     . +     X                           +               +   O             X             .       X X   X X X   X X X     X X         X X                   .             X   X   X X     X X X X X   X   X   X X   . X         X   X               X               X     +                     X                                                                   X           X                           +     ",
"                                                                                                                                                                  O                       X                             +           X     X                           X   X     X     X                   X         X                           X           X     X X             X             X     + X                     . X                                                                 X                       X   X         +                                             X       O                 X       X                     X                                                   X   X X         X               X X             X X                   .       .   +                                     X     X   X   X   X               X                                           .             X             O                               X X         . O     +                                                                                       X   X     X                                                   X                 X       X     X     X X X       .   X       X   X                     X     O         O           O X                                                                                                                 O         ",
"        O       +   O       O         +                               O     O                           .     O                   O                                                               X         X   X                       O X               X   X             X X   X     X   O       +     X +             X               X                           X X X X               +   X   X   +                             .                                                       X                         X   +   X     .       .                                           O                                                 +                                       +         +           X X     X                   X X   X X           X             O                 O O     X       +         X       X         X                 X     X       +                             +                                                                       X                     +               X     X             O                                       + X                       X                                       X             X               X X   O O O +       X             X                                         X             X   X                               O           O                   +                 X       O                         ",
"                        O   +                                                             O         O   O                                                                                 +                           +     O           O       +       X               X       X                       X             X   O               +         + X         X       X       X                               X                 +       O     +                                                     X X             O         .       .                                                             X             O               O                                                 O                         X           O                 X                                               O           X               X                                                                                   +           X                                                             +         +   O     +     X                                               +       +         X             .           X                                                                 O O O O O O O   + O   O                                             X                                                                                                                   +               +       ",
"    X                                                         X                               #                                       O                           X                 +                                                                                             X         O                                                                                           X                                           +     +         +         X                             O O X                           +                                                                   X         X O               X                           O   .                                                                     X                                     O             .                       O               X X                                                           O O                       X           . .     +                                                   O       X                                                                                 +                                                       X     X             X             O O O O 1 O O                                                           X               X                                                                                               +                     ",
"                +       O         O         +                                                                                                                                                                 O                         .             O                                 +                   O                   +       O                                       X                                                                   O         +                                                     O                                                                                                                       O       O                                                                                                                       O                                                                       O                                                     O           X X X                 O +     +                                             +                                 O       X                                                             .                                                                   O   O 1 1 b 3 1 O O                                                           X                       O                                                   X           O                           O         O   O ",
"                                        X                         +                                                     X                                                 O O           O     O         O             + +       +             O             X                                       O                                             +                                                                                                                                                             O                                 O       +                   O     O                             O       O                                                               O       O                                   X                           O                                                 X   X         O           O                   O                                                             O                                         O                                                                                                   O                                                                               X                 O O 1 3 b b 1 O O O O     O   O                     X         O O           X O                                             O                     O                                               O             ",
"        X                                                                                     +                         X                                                                                                                                                                                                                                                         +                                                                                                                                                                                       O                                 O                                               O                                           O                                     O                               O               O                                                                               O                     O             X             O     O O                                         O     O             X                                               O                                         O                             +                                               O   1 3 m M M 3 O O O O                             X     X   +             X     O                                                                                           O         +                         ",
"      +                                                                                                   O .                                                                                   +                                                                   O   O                                                                           O         +                       X                                               O                                                                           O                         X     O           O O                                             X                           O                   O       X                                         O         O     X                             O                 O                                             + X                                                 O                         O       X                                                 O                             X                           X                             O   O                                                                                                             + 1 3 m M M 1 1 O                                                                                               O   +                 X     +       O                   +       O                               ",
"                                                                                                  +           O                                                                                                                   .                                             X   O                                                     O     O   +                                           +                                                                                                                                                                                                                     O                   O                               +                                                                                                                                                                           O             +                       O     O                                                                         O                       X             X             +       +                                                                                                                   O                   O O 1 b m m 1 1 O O   O   O         O     X           O             O                                                                   X                 O             O           O         O                 ",
"  O                                                                                                                                                                                 +                                   O   +         +                   X                                                                                               O                                                                                                                                                                                                                                             O                                                                                                                                                                                                                                                 O                                                                         O                                 O                       O     X           X                           X                             +                                 O                                                               +     O 1 O 3 3 1 O O                                                                                                                                                                               O               ",
"                                  +     X     X             X                   X                                                                                     +                                                         O                                                                 O O                                                                                                                                                                                                                                                                                                                                                                                                                                                             O                   +                         O         X                                                                           X   O X                           +     +                   O                                                   X   X   +                                         O                                                                       O         O                   O O O O O O O O O O O +   O     O                                       X   X         O         O       O                                 O     X                                       O   O   O O     O O       ",
"              +               .       . .   X                                           +                       +         O                                                                 O                 O           O                 +               O                     X O             +                               O                                                                                                                                                                                                                                                                                                                                                                                                                       O                                         +                                                                             .                                                                                       O                     X           X X                                     O               O                                 O                                                                         O     O   O O             O                                                                                 O         O                                                                                         ",
"O                               O                                                                     .       O       O     O   O                 X                                                                                   X             X X                   O                                 O                                                                                                                                                                                                                                                                                                                                                                                                                             +                 O                                             O                                   O                                                                                                   O                     O                                                                                             O                                         +                                                 O               O O                   O   O         +                           X                                                 O                         X                 O                 O             O               ",
"        O               +   +                                                                     O                                                                                                     +                         X     X O                       O O   O                                     O                                                                                                                                                                             O                         O O                 @                                                                                                                                                                                                                         O         O   X O                                                                         +                       +                 O                                           O                     O                                             O                                                           +         +                                                                                               O O         O                                                                                                                           +     .             O                                     ",
"          .                                     O                                     O                                                                                                       O                                                                                                                                                                                                                                                                                                                                                                                                                                                                                                                                           O                                                                                                                                       X                                               O                                                                                                     O         O                                                                                                                                 O                         O                                                                                                                         +                                                   O   ",
"        O                                                 O                           .                                                   O O                 X                       O                                                         +                                                                                                                                                                                                                                                         O                                                                                                                                                                                                                                           O O     O                 X           X                     O                               O       O                                                             X               .                     +                                                       X                       O                                                   +   O                                                                                                                   X   X                                                                                         X                 +                     O               O               ",
"O       O     O                         O                                               O                       O                 O         O                                       O               O                                                       X                         O                                                                                                                                                                                                                                         O                               X                                                                                                                                                                           O                     O       O   O       O       O           O   O                       O                                                                                                                             O                                                   O       O                   X                         O         X                                                             O                             O                                     X X                     O                                                         O                           O   O                                       O           ",
"            O                                                               O                                           O                                   O                                                                           X                                                                                                                                                                                                                                                             O O             O                                                                                                                                                                                                                         O                                                               O                                                                                                                               O                                               O                 X         X                                                                                       + +                                                                                                                                                                               O                                                                                 .       ",
"        O     O   O                                                                                                       O O         #   O           +                                       O O                 O                                                                                                                                                                                                                                                                               O         O                                       .                                                                                                                                                                                                                                                                   O                       O                                               X               O                                                       O                                           X                       O                                                                                                               O                                                           X       X       O                                                     + O                         X                 .                             O   O +             O ",
"        #   O O O   O               O         O                                   O   O                                         .                     O                                                                                     O                       O                                                                                                                                                                                                                                                                                                                                                                                                                                                             O           O                         +                                                   +                   O         O               O               O                                                                                     X     O                                       X         O                 O                                                                                                                                                             X             O                 X                                                   O             X X                                         O                         ",
"      O O   O O O O O O                     O                                                           O               O                                                                                                                                 O                                                                                                                                                                                                                             +             O                 +                                                                                                                                                                                                                 O                                                                                 O     O                                                                                                         O                 O     O   .             O                     O                                                                                                     +                                     O                               O                                                                                                                                                                                                       ",
"      O O + O 1 O O   O O                             O   O                                                       +               O     +                     O                     O     O                                 O                                                                                                                                                                                                                                                       +         +             O                                                                                                                                                                                                                         O                             O                                           O                       +   +                                                   O                                                               .                                 +         +                                                                   O                                       O       +                                                                                                                                               O   O     +             O   O                                       O   O                                       ",
"      O O 1 O 4 1 O O O O O       O O                           O                                                         +                                                                                         O               O       O                                                                                                                                                                                                                                                               O                             O O     .                   +                                                                                                                                                         O                                                                                                                 O                                 +                                   O                         O                                         O                   . O             X                     O                                     +                 O                                                                               O                               O           O                                                         O   O                                                                       O   O         O ",
"      O 1 4 6 6 1 1 O O     O                                                                                                                                                                                         O                                                                                                                                                                                                                                                                         O                                   O                                 O   .                                                                                                                                                                                                                                                       O   +                                                                                                                                   O                                       O                                         O                 .                                                             O O         O                                                                         O                                                       O           O       O                                 O   O       O               #                   ",
"O     O 1 m #.&.n 1 O O +   +                                                                                                                         O               +               O             O                 O                                                                                                                                                                                                                                                         +       O     O                   O                 O         O                                                                                                                                                                                                                                 +                     O         .                                                               +                                                                 O                                                                                                             O                             +                     O                                                     +                   O             O                                 O                                       +                                               O O                 O     O         O                     ",
"    O O O M =.=.m 1 1 O O O                                   O O     O                                                                                                                       O   O                         O                           O                                                                                                                                                                                                                                         O   O               O   O                     O           +                                                                                                                                                                                     O                                             O                                         O   +               +                                                             O                 #         O                                                                                                   O                                                     O                                                                                         O     O               O       O       O                   O   .                                                                                                                     ",
"    O O O n @.@.n 1 O O O O                                                     O                                                                     O           .                                                                       O       O                                                                                                                                                                                                                                             O       O               O                                 +           +                                                                                                                                                                                             +     O                   O                   O     O                                               O         #                             O                                                                                                 O                                 O                                                                             X   O                 O                 O                                                                                 O                   O         O                     X                           O       O                       O                   ",
"      O O 1 1 3 1 O O O     O     O                                         O                               O                                             O     +     O       O         O       O                     O                                                                                                                                                                                                                                                                     O                                     O         O             O     +                                                                                                                                                                                                                                         O                       O                 O                                                       O         O .                                         O               +                                             +                                                     +         +             O                                   O   O                           O   O                                                                 O                       .                                     X                                                                         ",
"      O O O O 1 O O O O   O       +                             .   O                         O O     X O   +                 X                                           O                 O                                                                                                                                                                                                                                                         +       O O                   O     X                                           O                     O                                                                                                                                                                                                                                             O                                     O       O                                   O                                             O     O                                         O                                                                       +                                                                     O   O                                         O                                       O             O                                                                 O       X X       O   O         O                               O O               ",
"      O O O O O O O O             X     O                 O                                                                                                           O                                                                                                                                                                                                                                     O                                                                                 X +   X   O                   X                             O                                         O                                                                                                                                                         O                                                             O     +                                                                                   O                                               O     #       O                                   O                                       X                   O                                                                     O                       O                                             O                       O                                                                 X                                                                     ",
"          O O   O O O O                               O                                             O               X                                             +                     O                         O       O                                                                                                                                                                                           O           @                       O                     +     X       O                         X     X     +               O       +                                                                                                                                                                               O                   O                                                                                                                                                                                                                                             O                           .                                                                 O                 O                 O     O                             X                           X             O         O             O O       O                 O         O                                                                                     .             ",
"              O   O       O           O                                       O                                                                       O                                                                                                                                                                                                                                           O                                             O                     .             O             O             X     X X                                           O   O           O                   O                                                                                                                                                               O                           O                                         O                                                                           O       O       O           O         O       O               O                                                                             X           O +             +                                                                                                         O                                                 O                                         O                                                       O     O                 O       ",
"                  O                 X           O                                     O           X                                     O                               O                         O                                                                                                                                                                                                             O                                                                       +     O X   +   O               . +   O X   +                     +                                                                                                                                                                                                                   .                               +                             O .                                 +                     O                                                                                                                                   +                                                                                                                 . O                                                     O                                               O             .                     O                                                                           +       +   ",
"O     O O                                                                                                                             O                                                                                                                                                                                                                                           O           O     +             +                                                                   O                                     .     +         +                                                                                                                                                                                                                                 O                                                                                                                 O               O                               .                                                                         O                                       O       O                             O   .                                   O                 .                                                                     O         +       O             O                                                                       X             +       X                         ",
"                O   O                           O           O                                                                                                                                     O                                                                                                                                                                   O           O                             +                                                                               O       X                 O # . +     X X                                                                                                                                                                                                                         O   O                 +               O                                                                                                                                               O                                                 O         O             O                                 O                             +           O                   #   O   +                                                                                     O                     O   O               .         O             O                                                                     O                       ",
"              O                       X                               +                               X     X                                             O                                                                                                                                                                                                                                                                                     O                               O                     X O           + X . . . . + o X                                                                                                                                                                                                                                                                 O             O                         O                 O               O       O                   O                     O       O                                                                     O                             .         .       O                                                 O       +                                     +                                       O                                 +                                         O                                     O       O             O                                               ",
"        O                                                                                             X     O                                                                                                                                                                                                                                                                                                                                                                   +         O         O     +           X X o . . o +                                                                                                                                                                                                                                                                 .                                                           X                                   O                           O                                                                                                                                                                                                     O   .                     +       O                           @                       +                                                       O                                         O   O                                             O               ",
"              #                                                                           O                       O                   O                                                                                                                                                                                                                                                                                                                                                         +                 + + X @ % $ $ $ % .   X     X                         O                                                                                                                                                       +                                                                                                                                                     O                                                                 O                             +                                                                                                         O               O                                     O                                                 O                                                                                                         O                               X         X             O     O               ",
"                          + +                                                                                                                                                                                                                                                                                                                                                                                                                                                   O     O     O                     @   o % x $.%.- % o X X     . X                           O                                                                                                                                                                         O O                                                                       .                                                                                                   +                                                                                                 O                                                                             O                                                                                       X         O                                                                       O O                     O                                       O                                 ",
"                                                        O         O                 O                                         O     O                   O       O                                                                                                                                                                                                                                                                                                                                                 +   + $ } PXUXw = o     X                                                                                                                                                                                                                                                                                                                         +                                 O         O     O                                                                                                                                                                                                                     O             +                             X                         O                                                       O                                         O                 O           X         O                             O     ",
"            O                                               O                                   X                                                                                                                                                                                                                                                                                                                                                                                 O                               +   o > N ,.#X> : % X                                                                                                                                                                                                                                                                                                                                                                                                                                                                                                                                                                                                                                                 X X           O                 X           X                                     O   O O                       X                     X                                                                 ",
"                    O           O                     O                                   X O           +                                                 O         O         O                                                                                                                                                                                                                                                                                                                 +                 + + + % : 0 > % @ X   X     .           X                                                                                                                                                                                                                                                                                                     X                 O               +                                                                                                                                                                                                                                                                                                     X   X                                                                                                 X                                       O     O                                   ",
"            +                                                   O                                       +                                                               +   X                                                                                                                                                                                                                                                                                                               X                     O   @ # % * : . o X X     X                           O                                                                                                                                                                                                                                                                                     +         +           +                                                                                                                                                                                                                                                                                             X X         X                 +         X X     O     X     O O                                           O                               O                                                           O       ",
"                    O                 O                   +             X   O O           O                                                                     O                                                                                                                                                                                                                                                                                                                           O   O .     O     O   + O   O . X @ .                               O                                                                                                                                                                                                                                                                                                                                                                                                                                                                                                                                                                                                                         X         +       X                             O               O     O                 O                                                                                                             ",
"  +                 O       O                       +         +             +                                                                                               X X                                                                                                                                                                                                                                                                                                         X                       O O +   X + + @     X   X       +                 O                                                                                                                                                                                                                                                                                                                                                                                                                                                                                                                                                                                                                               X   X     X X   X       X X       +   +                                                                                                                       X   X   X                       ",
"                  O                   +                                 O               X   O                 O   +                       X                                   X                                                                                                                                                                                                                                                                                                             O                 O   O +   +       X + X X   O   + O                                                                                                                                                                                                                                                                                                                                                                                                                                                                                                                                                                                                                                                     X X   X X X     X     X                               X                                                         O                                       X       X                         ",
"                                                                    X                           O         O                                     O                   X     X X X                                                                                                                                                                                                                                                                                                               O                             X                                                                                                                                                                                                                                                                                                                                                                                                                                                                                                                                                                                                                                                                                     X X X X X   X     X                         X                                                           O                                         X                           ",
"      +                                 X             O                               X                                   O             X                       X     X X X X                                                                                                                                                                                                                                                                                                       +   O                     O O   X   +       X   X     X                       O     O                                                                                                                                                                                                                                                                                                                                                                                                                                                                                                                                                                                                                                               X X   X .               O                                                           O                                                                               +   ",
"                    O       +   O       +                                                                                                                                                                                                                                                                                                                                                                                                                                               O   O       X               X         X                     O         O   O                                                                                                                                                                                                                                                                                                                                                                                                                                                                                                                                                                                                                                                           X X X X     X                                   X                           O                                                                     O   +           ",
"                        O                         .                                                                         O                                                                                                                                                                                                                                                                                                                                                                                             X     X     X                                                                                                                                                                                                                                                                                                                                                                                                                                                                                                                                                                                                                                                                                       X X X . X       X     X                                                 O                                                                                         ",
"    O   O           O                                               O             X X     X                         O   O                     .                                                                                                                                                                                                                                                                                                                                                 +               X       X       X                 O     O                                                                                                                                                                                                                                                                                                                                                                                                                                                                                                                                                                                                                                                                           X   X X o                                       X                                                                                                       O   ",
"                                                    +                           O     O         O                                                 +                                                                                                                                                                                                                                                                                                                                     O                 X       O X       X               X                                                                                                                                                                                                                                                                                                                                                                                                                                                                                                                                                                                                                                                                                             X +                                                                                                                 +   X                             ",
"O               O       O                           X                                 X                             +                                                                                                                                                                                                                                                                                                                                                             O                                 X     X           X X     X               X                                                                                                                                                                                                                                                                                                                                                                                                                                                 O           O               + O               +                         +                                                                                                                                                                                   X                     X           X                             +                             +   O                 ",
"          +                                                 X           O     X X             X             O                                                                                                                                                                                                                                                                                                                                                                         O O   O             O         O     X                   +         X                     +                                                                                                                                                                                                                                                                                                                                                                                                                                                                         O                 +         O                                                                                                                                                                                           O   X                                     O +                           O   O                         O         ",
"      .                                           X                                                                                                                                                                                                                                                                                                                                                                                                                                           O       O       X                           O                 X                                                                                                                                                                                                                                                                                                                                                                                                                                                             O   O           O           O               +                     X                                                                                                                                                               +                                                                           +         X         O       O               O           ",
"                          O O                                       X                     X X           O                                                                                                                                                                                                                                                                                                                                                                       +                                     X                                                                                                                                                                                                                                                                                                                                                                                                                                                                                               O .                                         X                             O                                                                                                                                                             +                                           X                 X       O                         X                 O             O ",
"                                                              X X                     @                                                                                                                                                                                                                                                                                                                                                                                                           O       X       X   X                   X                                                                                                                                                                                                                                                                                                                                                                                                                                                                                   O               O                                                                                                                                                                                                                   X         X     O                       X   X X                 +                                                 X           ",
"        +             O       O       X     +               X             + O                                                   +                                                                                                                                                                                                                                                                                                                                                       +             X X X X                           X                       +           O                                                                                                                                                                                                                                                                                                                                                                                                                                                     O O     O                                                                                                                                                                                                                                   O           +                     X             X                                                               + ",
"  O     O       O                         O       +                       X                             +         +   +                                                                                                                                                                                                                                                                                                                                                                           +   X X                             O O     O                         O   O                                                                                                                                                                                                                                                                                                                                                                                                                                                                                                                                                                                                                                                                                                   O                                                                                   X X               X   O     ",
"                                  X       +               +           X                                                 +                                                                                                                                                                                                                                                                                                                                                                       +         X                                                                                                                                                                                                                                                                                                                                                                                                                                                                                                 O           O                                                                                                                                                                                                                                               X                                       X                       +                 X O   O                     X         ",
"                                                                                X                                 .                                                                                                                                                                                                                                                                                                                                                                                                                                                                                                                                                                                                                                                                                                                                                                                                                                                                                                     O                                     O                                                                                                                                                                                                                               O                                     O                                                       O   ",
"              O         O     O +                                                                                                                                                                                                                                                                                                                                                                                                                                                                                                                                                                                                                                                                                                                                                                                                                                                                                                                                                                                 O             O       O                       O           O           O   +                                                                                                                                                                   O                                             X         O                                                   O     O     O   O   ",
"O O         O         +                                 O     O   O               +                   O                                                                                                                                                                                                                                                                                                                                                                                                                                                                                                                                                                                                                                                                                                                                                                                                                                                                                                 X         O O                                         O                           +                                                                                                                                                                                                                                                     X     X X           O                 O         ",
"          O                                                             X                                                                                                                                                                                                                                                                                                                                                                                                                                                                                                                                                                                                                                                                                                                                                                                                                                                                                                                                   O                                           O         O                                                                                                                                                                                                                                                                                   .     X               O           O       ",
"                                                              +         +                                                                                                                                                                                                                                                                                                                                                                                                                                                                                                                                                                                                                                                                                                                                                                                                                                                                                                                                                                 O   O     O               O                                                                                                                                                                                                                         O                   X                                                                             ",
"X   X                                                           X               X                                                                                                                                                                                                                                                                                                                                                                                                                                                                                                                                                                                                                                                                                                                                                                                                                                                                                                                   X                 +   O                                                               O                                                                                                                                                                                           O                                     +                         X       +                             O   ",
"      X                                 .                                                                                                                                                                                                                                                                                                                                                                                                                                                                                                                                                                                                                                                                                                                                                                                                                                                                                                                                                                     X               O                       +           O           O O   O                                                                                                                                                                                 O                                                     X                           X                     O                 ",
"                                        O             X                       X       O     O                                                                                                                                                                                                                                                                                                                                                                                                                                                                                                                                                                                                                                                                                                                                                                                                                                                                                                             O     O               O                     O                                                                                                                                                                                                                 O                                                                               X                                   +   ",
"                      +                                                                                                                                                                                                                                                                                                                                                                                                                                                                                                                                                                                                                                                                                                                                                                                                                                                                                                                                                                                                     O                                               +                                                                                                                                                                                                                                                                       O       +                                   ",
"                                  +                   +     +   O     O                         O                                                                                                                                                                                                                                                                                                                                                                                                                                                                                                                                                                                                                                                                                                                                                                                                                                                                                                   +             +     +                   X X   X                                                                                                                                                                                                                                                                                 O                                   O                       ",
"              O     O                                                                                                                                                                                                                                                                                                                                                                                                                                                                                                                                                                                                                                                                                                                                                                                                                                                                                                                                                                                               O                       X   X X   X X                               +   X                                                                                                                                                                                                 O                         O             X                                       O O               ",
"                                      O                                 .                                                                                                                                                                                                                                                                                                                                                                                                                                                                                                                                                                                                                                                                                                                                                                                                                                                                                                                             +     O   +                           +       X   O                   +     O                                                                                                                                                                                             O   O                                                   O                           O               O         O ",
"                                                  O +             +               #                                                                                                                                                                                                                                                                                                                                                                                                                                                                                                                                                                                                                                                                                                                                                                                                                                                                                                                         O                                   .     + +                         #                                                                                                                                                                                                                                                                         O             O     O         O     ",
"                  O                                 O           O O         @                                                                                                                                                                                                                                                                             O                                                                                                                                                                                                                                                                                                                                                                                                                                                                                                                                                                                                                                                           O   + O                       .           X                                                                                                                                                                                                               O                                             O     +   O         O                                         O   ",
"O                                                               . O           .                                                                                                                                                                                                                                                                 O         O   O   O                                                                                                                                                                                                                                                                                                                                                                                                                                                                                                                                                                                                                                                         +               X @ + . .   X .                                                                                                                                                                                                                           O                                         O                             O                       O         ",
"              O         O                               O             .                                                                                                                                                                                                                                                                     O O   O O O   O                                                                                                                                                                                                                                                                                                                                                                                                                                                                                                                                                                                                                                         +           +                     O +   X X . # @ o X                                                                                                                                                                                                                                                                                         +               O +                           ",
"            O       O         O                             +     O   .       +     +                                                                                                                                                                                                                                                         O O O O   O     O                                                                                                                                                                                                                                                                                                                                                                                                                                                                                                                                                                                                                                         O               O               O . o % $ $ $ . .   .                     +         O                                                                                                                                                                           O                                                         +                                                             ",
"    O   O         O               +                             +   + + o o X .     . +     +                                                                                                                                                                                                                                               O O O 1 O O O                 X                                                                                                                                                                                                                                                                                                                                                                                                                                                                                                                                                                                                                               + O               O               % > c N > $ % .   #     X                 O         O                                                                                                                                                                                                                 +                                   O                                 O       ",
"                                      O     +                       X . . # + + X X   .                                                                                                                                                                                                                                                     1 1 3 1 1 O O                                                                                                                                                                                                                                                                                                                                                                                                                                                                                                                                                                                                                                                 O               +           + + + % = PXPXx > o X                                                                                                                                                                                                                                                               +                                                               O     ",
"O                                                   O           + + % $ e S x $ o X   X .                                                                                                                                                                                                                                                   1 3 @.@.3 1 O O                                                                                                                                                                                                                                                                                                                                                                                                                                                                                                                                                                                                                                                                               @ % > PXPXx $ : X   X     .                                                                                                                                                                                                     O                                               .                         +                 +                         ",
"                    O                 O O     O   O             .   . $ ,.LXLXn X +                                                                                                                                                                                                                                                         1 m &.&.b 3 O O O   O                       O                                                                                                                                                                                                                                                                                                                           O         O   O O O     +                                                                                                                                                                                                                                                                       + O               +   + % > e e : = X .                   +                                                                                                                                                                                                                                   O                               O                   O           O             ",
"                        +   #                                     . % $ ,.PXLX> o X .   .                                                                                                                                                                                                                                                   3 M &.&.b b 1 O O                                     O                                                                                                                                                                                                                                                                                                               O   O   O O     O                                                                                                                                                                                                                                                                                   .   O             + + + o $ % o o X +     .                                                                                                                                                                                                                                                                                       O                     +           +     ",
"            O           O                                         + . % $ w % . X   + X                                                                                                                                                                                                                                                     1 b #.@.b 3 O O O                         O     O                                                                                                                                                                                                                                                                                                                   O O   O O O                                                                                                                                                                                                                                                                                 O   O     +               O +   . + + o                                                                                                                                                                                                                                                                                                             O                     +       O ",
"                                O           O           O       .   . % . . . # X .                                                                                                                                                                                                                                                         1 3 3 3 3 1 O O O                                                                                                                                                                                                                                                                                                                                                   O O O O O O   O                     O                                                                                                                                                                                                                                                                         O       O +     + + % X X   X X                         O                                                                                                                                                                                             O                         +         O                   O                 O                                 ",
"O                 O     O         O     X + +                 O + . + . o + o +   .                                                                                                                                                                                                                                                         O 1 1 1 1 1 O   O                                                                                                                                                                                                                                                                                                                                                   O 1 O 1 1 O O                                                                                                                                                                                                                                                                                     O                 O   O   X +       X X + X     + O                                                                                                                                                                                                                                                                   O                             +               .         ",
"      O       O               O         X           O             . .   .       .           O                                                                                                                                                                                                                                               O O O O O O O                                                                                                                                                                                                                                                                                                                                                       1 3 M m 1 1 O   O                           O                                                                                                                                                                                                                                                       O                   X   +     X           X                               O                                                                                                                                                                                                                                       X                       O         .                       ",
"                                                    O             +     .                                                                                                                                                                                                                                                                   O O O O O O O                                                                                                                                                                                                                                                                                                                                                       1 b KX&.3 1 1 O O                                                                                                                                                                                                                                                                         +   O   O                       O +         X       +           +           O O                                                                                                                                                                                 O                                                             O                                                       ",
"                      O +       . + +           O             +   .         + . .     X O                                                                                                                                                                                                                                                     O   O   O                                                       O     X                                                                                                                                                                                                                                                                                           3 m #.#.b 1 O O     O         X                   +                 +                                                                                                                                                                                                                     X   O +                   +             X   X                               O       O                                                                                                                                                                         O                                               O                   O                               +     . O           ",
"      O                   O                       O       .     +                     +                                                                                                                                                                                                                                                     O   O     O     O                                                                                                                                                                                                                                                                                                                                                   3 m &.&.b 1 1 O O   O                           O                                                                                                                                                                                                                                                         X             O     X                         +                                                                                                                                                                                               O   O                         +                     O           +                                           O           ",
"O +   O                                 O                       +                     @                                                                                                                                                                                                                                                           O   O O           .                                                                                                                                                                                                                                                                                                                                           1 b m m 3 3 O O O                                                                                                                                                                                                                                                                                 O         X               X       X X               +     X                                                                                                                                                                                         O   O O                                                                                             + O               O   ",
"            O                   O                           O                       .                                                                                                                                                                                                                                                                               O +                                                                                                                                                                                                                                                                                                                                         1 1 1 1 1 1 O       O     X                     O                                                                                                                                                                                                                                     +               X                                                                                                                                                                                                                                                 O O O O                           +                                       .                           O O               ",
"        O             O       O                                                         +                                                                                                                                                                                                                                                       O                                                                                                                                                                                                                                                                                                                                                               O O 1 1 O O O O                                                                                                                                                                                                                                                                               O                       O       X X   X       X     X     O         +                                                                                                                                                                                   O O O             O                                                 O       O                                             ",
"                                              .                                           O                                                                                                                                                                                                                                                                                                                                                                                                                                                                                                                                                                                                                     O O O O O O O                                                                                                                                                                                                                                                                             +   O         +                 +     X           X     +               +       O                                                                                                                                                                             O O O     O                                     O     O     +       O                                     O             ",
"        O     O           O   +               +                             O   + X                                   O                                                                                                                                                                                                                                                                                                                                                                                                                                                                                                                                                                                           O O O O O                                                                                                                                                                                                                                                                                       O           O                                                                                                                                                                                                                                       O O O   O   O                                                                 O .       O                                 ",
"        O   +                                                     O   O O   X +           +                                                                                                                                                                                                                                                                                                                                                                                                                                                                                                                                                                                                                       O   O                                                           X                                                                                                                                                                                                                     O                                 +                                                                                                                                                                                                                           O O O O   O                                                                 +                                             ",
"                                                              +                                         O       +                 O       O                                                                                                                                                                                                                                                                                                                                                                                                                                                                                                                                                                         O   O   O           .                                                                                                                                                                                                                                                           +                       X     X         +                                                                                                                                                                                                                         O   O O O O         O                       O                       O           O                   +             O       ",
"                                  O                 +           O         O                                     +     O                   #                                                                                                                                                                                                                                                                                                                                                                                                                                                                                                                                                                           O                                                                                                                                                                                                                                                                                     X           X X X   X X         +                 + O                                                                                                                                                                                                     O O O O O O                                   +           O                           O         O         O     O         ",
"    O   O                                                   O                                                 + O               O                                                                                                                                                                                                                                                                                                                                                                                                                                                                                                                                                                               O                                       O                                                                                                                                                                                                                                                                 + X X                                                                                                                                                                                                                                       O   O O           O                                                                           O                     O     ",
"    O                             O                                     O         O                                                 #                                                                                                                                                                                                                                                                                                                                                                                                                                                                                                                                                                                                                                                                                                                                                                                                                                                                     X         O +                   .                   +       .                     +                                                                                                                                                                             O O                                                     O             O                                               ",
"              O               +                                 +                                                                     .                                                                                                                                                                                                                                                                                                                                                                                                                                                                                                                                                                                                                                                                                                                                                                                                                                                                           O                 X                                                             +                                                                                                                                                                         O       O               +           #                       O           +           +       X           O           ",
"  O                                       O                                                       O                                                                                                                                                                                                                                                                                                                                                                                                                                                                                                                                                                                                                                                                                                                                                                                                                                                                                                                             X                                                                                                                                                                                                                                                     O                                           O                                           X                 ",
"                    O       +                           O     O O                 O                 +                                       O                                                                                                                                                                                                                                                                                                                                                                                                                                                                                                                                                                                                                                                                                                                                                                                                                                                                                                                                                                                                                                                                                                                                                                                                           O                         X X       X   ",
"    X                                   + O                       X             O       . O                                                                                                                                                                                                                                                                                                                                                                                                                                                                                                                                                                                                                                                                                                                                                                                                                                                                                                                                                                                                                                                                                                                                                                                 O                                 O                                                 X             X                 ",
"                                                            O           X                                                           +                                                                                                                                                                                                                                                                                                                                                                                                                                                                                                                                                                                                                                                                                                                                                                                                                                                                                                                                                                                                                                                                                                                                   +                                                                           O       X                       X       X   ",
"                      +   O                                             X                                   O     O                                                                                                                                                                                                                                                                                                                                                                                                                                                                                                                                                                                                                                                                                                                                                                                                                                                                                                                                                                                                                                                                                                                                                                                                     O                               X     X                                 ",
"    O                                                                         X             #             X                                                                                                                                                                                                                                                                                                                                                                                                                                                                                                                                                                                                                                                                                                                                                                                                                                                                                                                                                                                                                                                                                                                                                                                         +           O                 +                                   O                         ",
"    X         O                                     O                                 O O                                                                                                                                                                                                                                                                                                                                                                                                                                                                                                                                                                                                                                                                                                                                                                                                                                                                                                                                                                                                                                                                                                                                                                                                                                           X             O         O     + O   X O X     +             ",
"              O               +                                           X                                                                                                                                                                                                                                                                                                                                                                                                                                                                                                                                                                                                                                                                                                                                                                                                                                                                                                                                                                                                                                                                                                                                                                                                           +                     O                           X                   X                                 X ",
"            O           X                                     X                                                               + +           O                                                                                                                                                                                                                                                                                                                                                                                                                                                                                                                                                                                                                                                                                                                                                                                                                                                                                                                                                                                                                                                                                                                                                               O                       O X +                 O                                   O ",
"        O                             O                                         O                   O                                                                                                                                                                                                                                                                                                                                                                                                                                                                                                                                                                                                                                                                                                                                                                                                                                                                                                                                                                                                                                                                                                                                                                             X         X   O                                                                                               ",
"        O O     X             +         X   X                               O O                           O               O         O O                                                                                                                                                                                                                                                                                                                                                                                                                                                                                                                                                                                                                                                                                                                                                                                                                                                                                                                                                                                                                                                                                                                                                                   O               . #                     X             O                   X     X +   ",
"      O                                               O       O   +                       +                                                                                                                                                                                                                                                                                                                                                                                                                                                                                                                                                                                                                                                                                                                                                                                                                                                                                                                                                                                                                                                                                                                                                                                       O                                     O         O           +                                                 ",
"      #                                                     O         + O                     +     O                           O                                                                                                                                                                                                                                                                                                                                                                                                                                                                                                                                                                                                                                                                                                                                                                                                                                                                                                                                                                                                                                                                                                                                                                                       O         O                                                           X ",
"                        O                                                   O               O                 O     O                     O                                                                                                                                                                                                                                                                                                                                                                                                                                                                                                                                                                                                                                                                                                                                                                                                                                                                                                                                                                                                                                                                                                                                           O             O                                     O +                                                   ",
"                    X O             +                         X O           O           O       O .       O                                                                                                                                                                                                                                                                                                                                                                                                                                                                                                                                                                                                                                                                                                                                                                                                                                                                                                                                                                                                                                                                                                                                                                     +           X                                                                         +             X           ",
"              + X   O                             O       O                             O                       O             +                                                                                                                                                                                                                                                                                                                                                                                                                                                                                                                                                                                                                                                                                                                                                                                                                                                                                                                                                                                                                                                                                                                                                               O   O                           O                 @ +     O                                       ",
"  +           +     O               O         O         O                     O       +                   +           O                         +                                                                                                                                                                                                                                                                                                                                                                                                                                                                                                                                                                                                                                                                                                                                                                                                                                                                                                                                                                                                                                                                                                                                                                                                         O O                                   ",
"                        +                                     . O                   .   +                                                 X                                                                                                                                                                                                                                                                                                                                                                                                                                                                                                                                                                                                                                                                                                                                                                                                                                                                                                                                                                                                                                                                                                                                                 #           O                                       O               O                               ",
"                        #     +                                         O         +               O                                                                                                                                                                                                                                                                                                                                                                                                                                                                                                                                                                                                                                                                                                                                                                                                                                                                                                                                                                                                                                                                                                                                                                             O                   +                         X                                                                 ",
"            O                                       +                                                   +                       O           X X                                                                                                                                                                                                                                                                                                                                                                                                                                                                                                                                                                                                                                                                                                                                                                                                                                                                                                                                                                                                                                                                                         X X                         +               O       O                           O   +                         O               +                         ",
"                                                    O                                                 O #             O                 +                                                                                                                                                                                                                                                                                                                                                                                                                                                                                                                                                                                                                                                                                                                                                                                                                                                                                                                                                                                                                                                                                               X     X X                                                               X           +                                                                   ",
"  O                                                                       O               O                           .                                                                                                                                                                                                                                                                                                                                                                                                                                                                                                                                                                                                                                                                                                                                                                                                                                                                                                                                                                                                                                                                                                               X   X   X                               +                             +                     X                           +                                 ",
"O     +           X                     @             O                                 O                           O                                                                                                                                                                                                                                                                                                                                                                                                                                                                                                                                                                                                                                                                                                                                                                                                                                                                                                                                                                                                                                                                                                                       X       O     + .                             +   . +                                 +   O                       O       O                         ",
"              O         +                                   O   +           O .                                           O .       +       X                                                                                                                                                                                                                                                                                                                                                                                                                                                                                                                                                                                                                                                                                                                                                                                                                                                                                                                                                                                                                                                                                           X       +                                 . .   .     . .   .                     +             O             +                                     X   ",
"                X                                                                 +                   +             +             X                                                                                                                                                                                                                                                                                                                                                                                                                                                                                                                                                                                                                                                                                                                                                                                                                                                                                                                                                                                                                                                                                                       O           +                                 . . . .       .       #                                           O               X                     ",
"      + O                                                                     O                                                       O           +                                                                                                                                                                                                                                                                                                                                                                                                                                                                                                                                                                                                                                                                                                                                                                                                                                                                                                                                                                                                                                                                                               X                             + .   . . . # . . . . O   +                           + +           O         O     O             .             ",
"                                                          O       +                 O     . . O   O       O                 O   X                   O                                                                                                                                                                                                                                                                                                                                                                                                                                                                                                                                                                                                                                                                                                                                                                                                                                                                                                                                                                                                                                                                                             O         O                 X .   . . + . . . # . #                             +                 O             +           X                 ",
"            +                     +         X                                           O                                               X           X                                                                                                                                                                                                                                                                                                                                                                                                                                                                                                                                                                                                                                                                                                                                                                                                                                                                                                                                                                     .                                                                                                                                                     .   . . x *.$.% . . .                 .                       + O                     + X   X                   ",
"O O                               O     O       O                           O                                                                                                                                                                                                                                                                                                                                                                                                                                                                                                                                                                                                                                                                                                                                                                                                                                                                                                                                                                                                                                             +                                                                                                                   +               O                   + . $  .PXLX> .   .         .                             O     O O O O       O                               ",
"                                                                +                                       O                           X                                                                         O   O   O                                                                                                                                                                                                                                                                                                                                                                                                                                                                                                                                                                                                                                                                                                                                                                                                                                                                                     +                                                                                                                                                                     . + % N LX%.% o o .                                             O   O O   O                                   ",
"                +                                   O     O       O       O                                               O O                   O                                                 O O     O   O   O                                                                                                                                                                                                                                                                                                                                                                                                                                                                                                                                                                                     +                                                                                                                                                                                                                                                                                                                                                                                                                                 +                                     .   . . o $ $ . . + . +         #                                   O       O           O                       ",
"                            O           +                                           O         O                                   X                                                             O O   O O O                                                                                                                                                                                                                                                                                                                                                                                                                                                                                                                                                                                                                                                                                                                                                                                                                                                                                                           X   @ +                                                                                                                           O                     +   +   o . # . + .   .     .                 .   +         O     O     O O                                 X     ",
"                              O                                             O                                             O O                     O                                               O O O O O                                                                                                                                                                                                                                                                                                                                                                                                                                                                                                                                                                           O         X                                                                                                                                                                                                                                                                   +                                                   +                                                                                                               O                                 O O +   .   + + . . .   .                           X           O       O O O   O               . .                   ",
"                                                  +                                   +     O     +                             O                                                               O 1 O 1 O O O                                                                                                                                                                                                                                                                                                                                                                                                                                                                                                                                                                                                                                                                                                                                                                                                                                                                                     O           O O             +                                                                                                                                                     + .   +                                 X     X               O   O O       O .       O                     ",
"        O   O             +                             O     O                       O                                 X             +                                                         1 1 3 3 1 1 O                   O           O                                                                                                                                                                                                                                                                                                                                                                                                                                                                                                                       O         +                                                                                                                                                                                                                                                                                                                                   O O O                                                                                                                                                     O             .   O @     .                         X X               O   O   O                                     ",
"  O     O       +                           O       O O               O                                             O       O                                                                   1 3 &.&.3 1 O O O     O                                                                                                                                                                                                                                                                                                                                                                     O       O       O                                                                                                                                                             O                       X                                                                                                                                                                                                                                                             O                                   O         O # 6 4 O                                                                                                                                     O   O                     .     # .                                           O                                                 X   ",
"                                      O             O               O                                 #           O O               O                                                         O b m &.#.3 1 1 O O                                                 O                                                                                                                                                                                                                                                                                                               O O   O O   O O                                                                                                                                                                 O           + O           O                                                                                                                                                                                                                                                                                                                 O 0 B n #                                                                                                               @                   O O                   O                   @                                 X                 O .                                     ",
"                                      .               .                 +       O                   .                       O       O                                                         O 3 @.&.#.3 3 O O O                               O     +                                                                                                                                                                                                                                                                                                                           O   O   O O                                                                                                                                                                                                               O                                                                                                                                                                                                                                                     +   O                                       O 0 m 0 O                                                                                                               @ @           .       .                         +           X         +                         O                                 + O       O             ",
"                                              O O                             O       .                       O                                                                                 3 b @.M 3 3 1 O                         O                                                                                                                                                                                                                                                                                                                                         O O O O O O O   O                   O                                                                                                                                                                                                                                                                                                                                                                                                                             X                                                                                                                                                                                                       O               O O                                                         O               .                     O                 ",
"              O                                                             +     O       O       +                             O       O                                                       1 3 1 3 3 1 O   O       X                                 O                                                                                                                                                                                                                                                                                                                     O 1 1 1 1 O                                 O                                                                                                                                                                       X X                                                                                                                       O                                                                             +                                             X                                                                                                                                                                                             O .                   +           +           #     O   O                     X     +                                   O               ",
"                            O             O             . O                                                   O   +                                                                             O 1 1 O O 1 O O                                                                                                                                                                                                                                                                                                                                                                 O 1 m m b 1 O O O                                                                                                                                                                                                                                                                                                     O                                                                           O                                                                                                                                                                                                                                                                                   +                     O                   O                                                                               ",
"                                                              +       O                                               O O                       O     O                                           O O O O O                                                                                                                                                                                                                                                                                                                                                                     1 b &.&.@.1 1 O O     O                                                                                                                                                                                                                                                                                                                                               X                                                                                                                                                                                                                                                                                                   O               O                               O O                                         O                           O             ",
"                                                          +     O                               .   O               O                     O   O +                                             + O O O O O O O                 .       O                                                                                                                                                                                                                                                                                                                                         O b #.#.@.3 1 O   O                                                                                                                                                                                   O         O                                                                                                                                                                                                                             +                                                                                                                                                                                                         O                                           +                                               O                           +           O     O +           ",
"                                                                                          +                     X   O       O                                                                       O O O                                                                                                                                                                                                                                                                                                                                                                       1 b &.&.@.3 1 O O                                     O                                                                                                                                                                                                                                                                                                                       X                                                                                                                                                                                                                                                                             O                                 +                                                                 O                       .                       ",
"        O                                                               .           O                 X     O X     O           O   O                 O                                           O O O     O                                                                                                                                                                                                                                                                                                                                                                   1 3 m m b 3 1 O O                                                                                                                                                                                                                                                                                                                                     .                                                                                                                                                                                                                                                                                                     +           O                       +                           O         O           O               O                                             ",
"                                            O                     #                                   O X O                                     O                                                     O O               +         O                                                                                                                                                                                                                                                                                                                                             O 1 1 1 1 1 O O O O   X                         O                                                                                                                                                                                                                                                                                                                                                                                       O                                                                                                                                                                                                                                 O           O                     O                         .                           +                                             ",
"            +           O       +   O     O             +                                                   +                                                                                       O                     O                                                                                                                                                                                                                                                                                                                                                       O 1 1 1 O O O                       O                                                                                                                                                                                                                                                                                                                                                                                                                                                                                                                                                                                                                               .     .             X           +                             O                   O                   O       +     O     +               ",
"                              O             O         O             . O O       O                                     O       O O   O     +   O       O                                                                                                                                                                                                                                                                                                                                                                                                                         O O O O O O                                                                                                                                                                                                                                                                                                                                                                                                                                                                                                                                                                                                                                                               O                     +                                                                                                         X     ",
"        O           #     O                             O       +           O   +     +       O                                     O                                                                                                                                                                                                                                                                                                                                                                                                                                             O   O O O                                                               +                                                                                                                                                                                                                                                                                                                                                                                                                                                                                                                                                                                     O   +                         X       O   O     O             O                           +                   O           X           X         ",
"  O                               O                 O O                                                 + +                                                                                                                                                                                                                                                                                                                                                                                                                                                                       O   O O         O     O                                                                                                                               O                                                                                                                                                                                                                                                                                                                                                                                                                                                                                                                                                                                                 O                     O         O             X       ",
"  O   O                             O     O +                             +                                                   + O                                                                                                                                                                                                                                                                                                                                                                                                                                                     O O                         +                                                                                                   O                                           .                                                                                                                                                                                                                                                                                                                                                                                                                                                                     O                 .                       O O                   O                                         O   X       X X                             O ",
"          O         O                                                 X     X     +         + X                         +                                                                                                                                                                                                                                                                                                                                                                                                                                                       O     O   O             +                                                                                                               O             O                     +                                                                                                                                                                                                                                                                                                                                                                                                                                                                                                                                             X                               +                   X O                         O     ",
"                        O                                                     O             O   +               X         +       +     O                                                                                                                                                                                                                                                                                                                                                                                                                                                                                                                                                                       O .       O                                                     +                                                                                                                                                                                                                                                                                                                                                                                                                                                                                                                                         X                                             X               O       ",
"  O O                                           O   +                               X                 + O         O     +             O             +                                                                                                                                                                                                                                                                                                                                                                                                                                                                                                                                                                                 O                                                                                                                                                                                                                                                                                                                                                                                                                                                                                                           +         .                       X     + +         +                     O                                     O X         X         O   +   ",
"  O     O                               +         O             O         X                 X                                 X   O           O                                                                                                                                                                                                                                                                                                                                                                                                                                                                                                                                                                                                                                                                                                                                                                                                                                                                                                                                                                                                                                                                                                                   X X         X           O     O                         O       O                             X         X     +               ",
"              O                                             +                     +                                       +                                   O                                                                                                                                                                                                                                                                                                                                                                                                                                                                                                                                         O             O                                                                                                                                                                                                                                                                                                                                                                                                                                                                                                                                       O           X X   O           X                         + +                     X           O         O O         O               ",
"        O       O                 O           .       O   O O       O           +                     . O         +                   O           O                             X                                                                                                                                                                                                                                                                                                                                                                                                                                                                                                                   O   O         O                                                                                                                                                                                                                                                                                                                                                                                                                                                                                                                       +                               +     +                                     O                               O   O             O       O             O ",
"          +                             O     O           X                               X   O     O             O       +     .                                                                                                                                                                                                                                                                                                                                                                                                                                                                                                                                                             .     O       + X             O       O                     O                                                                                                                                                                                                                                                                                                                                                                                                                                                                                                                 X                   +     O       O   O               O                             +       +   O +                 ",
"        O   O                                                                     X     O X                   O +                       O                     X             +         X                                                                     O                                                                                                                                                                                                                                                                                                                                                                                                                                                 O                                                   O                   #                                                                                                                                                                                                                                                                                                                                                                                                                                 O                                 X                                             O         O                                                                   O O +     ",
"      O                                   O                   X                   O                                               O +                   X           +       +                                                                         X                                                                                                                                                                                                                                                                                                                                                                                                                                         X   X               O       O                       O     O                               .   O                                                                                                                                                                                                                                                                                                                                     X                       X                                                 +                       O                         O     X     X                                                                                       +             O           @ ",
"      O       O                           O     O                       X                             O                                             O               O                                                                                                                                                                                                                                                                                                                                                                                                                                                                                                                                     O       +   O           O                           O                                                                                                                                                                                                                                                                                                                                                     O                                           O O                                                           O O               X           +               O     +           +     O                               X       X               +                       O   O   + 5 ",
"                    O       +                                                 X               O + O           O                                           X                                                                                                                                                                                                                                                                                                                                                                                                                                                                                                                                                   O   O                   O O     #                           +                                                                                                                                                                                                                                                                                                                                                                             +                   O                                                                         X     X   O                       +                                                               O         +                           + ",
"        O           X             X +                 O           O           X           O             +                                 X     X         X     X             O X     X                                                                                                                                                                                                                                                                                                                                                                                       O                                                                                                         +                                             O             O                     + +   O                                                                                                                                                                                                                                                                                                                                               +                       O                         .       O                                                                               +     O   O                                         +     +                             X                           + ",
"                                                    X   O                   +         O     +                                         X       O     X         O       X           X                                             +     O                                                                                                                                                     O         O   O                                                                                                                                                                                                                                                                                                 +               O                   O             O       O                                                                                                                                                                                                                                                                                                                                                                         X                       +                                               O                     X             X                                           +                               X   O   +   O                           +               ",
"                                                    +     O                                                                     X   X         X               X                                         O             O                                                                                                                                                                 O   O   O   O     O                                                                                                                                                                                                                                                                                         +                 O                                                                                             X                               O                           O                     X       X     +                       O                                                         .                                     O                                                               X                   .         .                       O       O                                     O                                                                 + O     O             +                           X                                                 +         ",
"                                O                 O       O                 O                                                             X         O                                       +                                           +                                                                                                                                               O O O O O                       O   +                                                     +                                                                                                                                                                                                                           O   +                     X   X X                     +     +                                     X         X             @         +                                                         +               +         O                     O                   X                                     X                                                                         X O                                                                                             O           X                                                                             O       O                       .                             .                   X                   ",
"                                                  O O                                                               O           X                                         +         X     O             .                                                                                                                                                                               O O O 1 O   O                             O                     O                                                                                                                                                                                                                                       O                 +                     X     X   +                           O                                   O       X       X X X 7 +                                                             X                     +                                                                                                                                                                             X                                                         O   X                                               O                                       O                                                     O                 O             O   O                                   ",
"                O         O                             X X           O     O     O                                                   X     X X       +   X   X                   X               #                                                                                                                                                                                   O 1 1 1 3 O O O                                                                                                                                                                                                                                                                                                 +       +                                                                     X                                             X   X 7 @                                   .   O                                   +   O         +                                                   O             +                                                                               O     O                                                                                     O                   O     +     X                                                     +                                     O O                 X           O                                     +   O     O ",
"X                                                                           +                                                       X   X           +         X                                                                           +                                                                                                                                           O 1 m m b 1 1   O                                                                             O X                                                                                                                                                                                   O                             O         +                 .   X X     . +         X           +                                                         X X + +     O O                                                                                 X             O         O                             O     X                 +         O             X                             O                     .                                                                 O         O                                                                                           O                 O             O                                                   O           X       X       + +       O ",
"                                        X   O                       O                               O                                                         +                                                 O                                                                                                                                                                     O 3 &.&.@.3 O O O                                                                                                                                                                                                                                                                                                                     O                         +                       +                 X                       +                                                                               O                                       .                                                                   .           X                                                                                           +                                                 O                                                                   +                               X                                       +   .       O +                               X     X           O . O ",
"      +             O                     X X                                     O +             O   +     +                   X             X                               O                       O       O                 +                                                                                                                                                     1 b &.#.@.3 1 O O O O                       O     +     +                                       X                                                                                                                                                                                                                                 O             +   + X +   + X                                       O   X                                             O   O                       O O                               O   O                                                                                   O     .                       +                                     O                   +                   O                                             O                                                                               .       +   O         O                         X           + X X             +       X             O                 O                   O O     ",
"              O   O       O         O   X                 O                 O             +   O           +         O .                   X                                                   X . O           .                                                                                                                                                                       O b &.&.@.3 1 O                                                                                                                                                                                                                                                                                           # O                   O             +   . . o + X @   X                                                                       O                                               O                                                                                         O             X                                                 X + O           @                                                         X           @                   +                                                                 +                       +                                         O X                                       O     O                             X     +   X       O   O     ",
"              +       O                 +       O       +                     +           O     O                                             +                                             O                       O                                                                                                                                                                 O 3 m m b 3 1 O   +                                                 O                   O                                                                                                                                                                                                                       O             + O           X X X # . % $ . .                                                                                 +                                                         O                                                                                               X # +                                                                                                                                                                 O                                                               O                                 O       O                                                                                     O       O       O O O # O # ",
"                      O                                             O O               O             O             +     X             O O               O                                                                                                                                                                                                                             O 1 1 3 1 1 O O O           O                                                       O     O                                                                                                                                                                                                                                                 #   @ % > e > $ % .   X X                               O         +           O                                                         O                             O           O O O                                       O                             @ + +                                                                                                       +     #                 X                                   O                 O                                 +                                             O                       O                                                                             X O # 1 6 1 1 O   ",
"                            +     O                                     O               O           O   O     O O                     .         O       X     O                       O         O   .                                   +                                                                                                                                               O O 1 1 O O O                                                                                 O                                                                                                   O     O                                                                                                   O O                         +     @ >  .PX%., o +   X     .                                                                                                     O         O                               O   O O   O O O O O                                                             O                                                                                                                                       +                                                                             +                                   O     O                 O                 O                                             X         +                   O     M &.=.3 # O ",
"      O                 O     O               O               O                                                     +                                             O                                       O                                                                                                                                                                           O O O O O O O                                                                       O                                                                                                         O                                                                                                                     O                       + X o > *.UX#X> % X .                                                                                                               O   O                   O     O               O O O   O     O   O     +                                                                     X                     O                         .     O                                                               O                                                                                                                         O           O     O                         O           + +       +       O         O   +               O     # # @.&.&.4 1 O ",
"              +                                                       O       O                     O                                           O                     +                                             X                                                                                                                                                                   O   O O                                                     O         +           O                                                                                                                                                                                                                                         . +           + + @ > $.LX$.> : o X                                                                                                             O                                             O O O O     O O O     O                                                                         +                                               O                           .                       O                 +                                 +     .                                             . +             O             O   O                         O         +     O           +                   +       +   O                       +   # B @.@.4 O O ",
"                O                                                         O O                 O               O       O   O             O           O     O     +       +         O                                                                                                                                                                                                     O O O     O O   #                                                                                                                                                                                   O                                                                                                                         O           + X + % $ e % o . X                     .           O           O                                   X                                                       X   +         O   O O   O O O O O   O O O   O                                                                                                                                 O           .       #                                                       O         O                                         +                                                                               O                                         O                             O         O O O O 3 # 1 O O ",
"      +                                 +             +     O                                                                 O                                                           O           O                                                                                                                                                                                     O     O                     O                                             .                                                                                                                                                                                                                                                             + X o @ % o X X +   X     .                                                               X                         +             O   O                                   O   O 1 O O O O O O O                                 O   O                                                                                       . O       O                         O                                     .         .                                     .           X X                                                       +                             O   O             +                           O         O       O O       + O   + O   O O O O O O ",
"                                                      +   O       +             O       O           +   +     +     O                     +                         O                                                                                                                                                                                                                 +     O                   O .                                         O       O                                                                                                                                                                                                                                 O     +   O       O       O O O X @ . : @ X     .                         O                                         X                                                 O               O                 O O 1 1 1 O O . # O     O   O O                         O                           +                                       .           .             .                               .           +                                   O       O       O           O       +                                   +               +                           #           O               O         O               O   X     X                                   O     O O O O O O O ",
"                                            O   O                                           +             +                                           #                                                         O                                                                                                                                                                                                                                                                                                                                                                                                                                                                                   +         O             O O   + +   + + X X     X X         +                   O                                                                                 +                           X         O O O m @.6 M =.B . O   O                                                                   X X   O                                                                                                                         .                                                                           X                             +       X                                                 +                     O                                 O     O     O     O O   O   ",
"      +       +     O       O         O               O       O   O         O     O       O   O     O   O                 +     #       .                   O .   O                 +                                                                                                                                                                                                                                                                                                                                                                                                                                                                                                                                           O +   O X       X + + X   +   O                                                               O O                                           O   O         O             O     O 1 m @.n @.&.=.# O O                                                                         X         O                                                                           + .           O                                           O                                                                               O                                       X                 O   + +       # +       O O   O   O                                         O O O   O     ",
"                          +   O O O O             . O         .                 O                       O                     O                             O         O           +         O                                 O                                                                                                                                                                                                                                                                                                                                                                                                                                                                             O                         X     X           X                                           O                                 O     O                       O                     +                 O O O 3 3 1 @.$.@.# O O                                             O                                   .                 .   .                             .                         +           .                                               O   O           X                                                                                           O                               O                   O   O   O                               O       O O O           O ",
"                                          O                             O   O               O                           +                         O                     #   O O                   O     O .                                                                                                                                                                                                                                                                                                                                                                                                                                                                                             O O                             +   X   X                       O         O       O                                                                       O     O                                       O O O # 9 B 0 O O                           O                                                                               .                                             O                                                             O                                                   +                               O                               +                                                 O O   O O     O   O         O   O O     .                         ",
"        O   O                 O           O O                                 O               O             +                                               +     O O                                                                                                                                                                                                                                                                                                                                                                                                                                                                                                                                               X X       O       X     X                       O       O     O                                                     O                                                                     O   O O O O   O O                                             O                             O                                         O       .                                                                       O     O           O O     .                           .                                                         O                               O               .               O     O       O               +       O                 .               O   ",
"  O                       O         O               O     O             .               .                           #       +             O     O         O                               O                                                                                                                                                                                                                                                                                                                                                                                                                                                                                                       O               X                 O   X       X     X                                                                   O #                             O O     O                             #       O           O     O O       O     .                                       O         O         +                                       O               O         .                   O                 O O                         .                 +                   .                                               O                 +     O                 O                   O                             O         O O   O                                         O         ",
"                O       O   .                     .   O                 O               O                                                                                                                             O                                                                                                                                                                                                                                                                                                                                                                                                                                                                                     O   X       O       X   X                                                                                                                                                 .         .           O         O   O                                           O                                                                                       .           O                     O                         X                       .                           .                         O                                                                 O                                                                 O                     O                             ",
"      +                   #                                 O                           O                                 .                   O     O O   O                                                                                                                                                                                                                                                                                                                                                                                                                                                                                                                                                                               X     X     X           O                                                                               O                                                                                                                                                                                                   O                                       O       O                                         O O       O .           O                   .                 O                       O                                                                     +   O                   +     O       O                 .                           ",
"                    O     . O O O                   #           O                       O               .       O             +   .                                                           O   O                                                                                                                                                                                                                                                                                                                                                                                                                                                                                                     O                           +       X       +         +     X     X             +                                                                                                                                                                                                         O                                                 O                       O             X       #                       O                                             +                         #           +         #                 O +                         .                 O           O           O                                                   +       .     +       O     ",
"                                                                        O     O                                                                                         O .                                                                                                                                                                                                                                                                                                                                                                                                                                                                                                                     O     O     O             O       O                                                           +                                                                                   O                                       O     O         O                   O                                                                                                                                         X                         O O       O                         O                                                                         O                                 .               O                       O                                                                     ",
"  +   O                                                                       .       +                     .                 X   .                                                       O                                                                                                                                                                                                                                                                                                                                                                                                                                                                                                     .                     O             X       X           +               X   X       O                                                                                                                       +             O . O                                                                                     O                             O                     +     . +               +             .               O +         +                                                             .                 .                         . O                     O                         O   X           +     +               +                     . O     O               O     ",
"            +       +         #             O     O                   O .                   .     +                                                                                                                                                                                                                                                                                                                                                                                                                                                                                                                                                                                             O O                     X             +                                                                     O                                                                                                             O       # O                                                                                                                             +             O +                                                             +                       + O         X               O   O                     .       O       O       O .       O     O                     +         X     O   +                         O                 O                   O               ",
"        O     O                                                         O .   O         .   O                                                                                                                                                                                                                                                                                                                                                                                                                                                                                                                                                                                                                 O         X                                 O                                                           O                                                                                     .           O   O                                                                                     +     O             .                                           .                                                             +                         O       X O               +       O         +       # +                       +               O                                                         O                             O     +     + X                 ",
"                            O . O                   +                           O     +                                                                                                                                                                                                                                                                                                                                                                                                                                                                                                                                                                                                                               @ X X X           X               .                       O                                 O                                 O   O               O                         #                                                           O           +                                                                   O             O               #           X   X                                                                         #           X         X           .                                           #             . O                           +   +       O                             O                                           O O O     ",
"                +                         O   O             +   . O   #                                       +                   #   O           +                   .                                                                                                                                                                                                                                                                                                                                                                                                                                                                                                                             +           +                                     O                                 #   O               O               O     O           O             X                                                                                                                                                     O                                                                         X                                                 O                           +           X               + O                                                                                     O                     . O                   O                                                   O ",
"                    +     #           O                 O                 O                               +         +                                                                                                                                                                                                                                                                                                                                                                                                                                                                                                                                                                                     X O X           X                                                                                           O   O                                                                       O                                                     O                                           +                             O                                         O   .     + & : 8 X   +                                                                                                                             O     +             +                             + O                         O               .             O   O                 .                             ",
"                .         +         O                     .             .                                         + O                 O .     +     O                                                         X     X                                                                                                                                                                                                                                                                                                                                                                                                                                                                                                   X             .             O                                       O           +       O                                                                                 O .                                                         X O                                     O                                         +                         X             8 N S &   O O                                                                             .       X                                   O                       X                           +                               O           +                                                                 ",
"                                    O                             O                                         + O             O     O     O                                                                                                                                                                                                                                                                                                                                                                                                                                                                                                                                               O                   O   O                                 O                                                                   O     O     O                                                                                                                                                                                     O                       .                     X                 8 N =.:                                                     .                                   X                     +                     O             +       X     O                           .       +           . +       @         +                                     O       O             ",
"              O               O         .             O                               .                         O + O           O                 +                                                       +             O                                                                                                                                                                                                                                                                                                                                                                                                                                                                         O O                               +                     +                       O                                                                                     .   O           O                                                                                                     O     O   O       O                                                                       X @ @       +                                                                                     X               +   +         +                                   O                                               @       +       +                                     X                       + +   ",
"      O                                 +                                             O .           O .                                               O                                   X X                   +               +                                                                                                                                                                           O                                                                                                                                                                                                                                                                                                               X                                                   .                       O                       O                                                                                                               X                   O       O                     O             O                                                 X               X           X                                                       + .                                 +   . + . + .                           O             O                                 +                   O           .                                             O               O               ",
"                                            O                                                     O           O               O +           O                                               X     O           #                                                                                                                                                                                                                     O                                         .         O                                                                                                                                                                                                                                                             O                           O .             O               +                                           +   .                                                                                     +             O                           +                                                                       X X   +   X           +     +                                                                     +   +     X           @ : .   .                                                                           X X                               +     + +                                       X         O             ",
"X O                     O     .                 +               O     #       +             +         .                                               O                                                                                                                                                                                                                                                                       O                                                                                                                                                                                                                                                                                     O                     O                                               O                                   +                                               .                                             X             .                                 O                               O       O   O       O                                       X                                                                                                           O           % $.S *   + +               O       O     O     +                     +                                 +           +               +   +                                                     + ",
"O                       O               .           +         +       + O             X                               +   O   +                     O   O                                       O             +                                                                                                                                                                               O         O                           O   +                                                                                                                   O     O   O   O   O                                                                                                                                                   +       O                                                                                                                                 . O             +                                                       .     +                                                                                                         X           X   X               O                               .                                                   X       * $.$.: + @                                               O     O           @                         + O   +   + +                   O                           X X   X                   +   ",
"                O           + O   +                       O                               .               +     O                 O                                                                 .                     O     O                                                                                                                                                               X                 X                                                                                 O                                                 O O O   O O   O                                                                                           O                                                             X   O                   O   O                                                                                                                                                             X                                         O     O                                     O     O       O X   +                               X                   X X +                                                                               +   +       X +         . X .                             X     O           X                   O     O   X             O                   .       + +                 O     +                     O                 ",
"                      O . O             O                   O                                       +                             O   O                   +                                                     O                                             X                                                                                                                                                                           O               O     O                         +       O         O                                           O O O O   O                         O                                                                                                     .                                   +                                                                                                                                                                                                                                                 O   O           O                 O       +         .                                                                                         X                                                           .         +   +           O         X                 X                                         +         .       . O             +             O               +               + O .         ",
"            O       .                 O   O   +                         O                                                     +                               +                                                                                                                         +                                                                               . O                                               X X     .                                                                                                                   O O O 1 O O O O                                                                     +                                                     O         .       +                         +                                       .                                                 . O                                                                         +             X                                                   O                               +                     #                                               .                   O O                     O           .               +   O O         +                   +                       X               X       X               +   O     #               X       O O   O       O +                       .   O . O                                   O   ",
"                                                  X         O   +     +       +   + +             O                       +                                                                       +                                                                                     O                                                                                                         X                                                                                                 X                                                   1 1 1 1 1 O O                 O                   +                                                                                                         O                                                                           .                         X                       X                               O     O                         X                                       X                 O     O O                             O                                                     .                                                         X     X X X                   X             O               # +                           O X             X   X                 O       .                           O       O       O   +         X                   O .               +                     ",
"            X   O             . +   .               O     +               + +                                   X                         O                                           X O                     O                                                               + X                     + X                                                                   .       X                                                                                                                                                                 O 1 m #.m 1 O O O                                                                                                                                                                                                                                                                                                                                                   X                                         O         O O                             +     O     O                         +                               +           .               O                                               +         O         .               +                                     +                 X     . O           +     + X             O   # O   + +         +     +                                 O                 O         ",
"                                            +           O     X     O             O   + +         O     +                           O           +                           +                     .             O           O                                                                                                                                           #                       +                                                                                           + .                                                       1 b @.&.@.3 O O O O   O                                                                                                                               .             O     +                                                                               X                                       +                     O                   O                     X                     X                   O         O     O                           X                                                 O                                                               O O       O   O             X                     +         .     #       +                           X                             .           .       O             O                           +             X                           +   O O             ",
"                      + O     O .               +           O               O                         X                   +           .                                         O           O           .                                                 O     O                 X                                                                                                                               .                                                           X                 X                                                     1 n #.&.@.3 1 O O                                       +                                               O                                                                                                                                                 X                                     X                                                 X     O     X     X                                                                             O         O               +       #             +                                                       O                     O X         X                                   +     O       #                     O                         +                 +         O                           +   +           +           X O   O                     X                           ",
"                O         O           .       +                                   +                                     .       .                               X                                                                                           O X     +       +                     X             O                                               .                         X           +                                                                             X     X                 O                                         O b M #.M 3 1 O O     X                       O                                       .                                                                                         O           O                                                                             O                                     O       O       +     +           +                 X     +   +               X       O         O     O             O                                       .                 +                   O     O                       +           O               +           +   O X     X                   O   # .                     +               O     X     +     +   X       O O                               X             O               +   .       +                               +               O           ",
"      O                                       X           O               +                                             +                                                                                       O                                             X X     X                                                                                         O                                                                                                   X                                                                                 1 3 3 b b 3 O O O O                                                 O               O                                                                                                                                                                 O             X X                       +                                                           X                                                               O O   O   O       O   O       O   O     O                       O                                                                                     X                                                   #                                                                       #                   O   O   O     +                   + +     .                                                               ",
"    O   O                                         +       + O               O       .           +                                                                                                                                                           X   X                         X           O                         O     O                                   +         X       X           +                                                                     X           +       X                                                   O 1 1 1 1 1 O O           X O                                                     O                                                                         X                                                                                                       O                         +                                                                                                             O             O O O   O       O     O             O       X                           +                                                                   O                                                       O                                           X       X             O   +                               O   X                         +       O   +     +                         X                 X         ",
"                  +       +                                           +             O   O                 +                                           X     +                       X         O                   O X               O                     X X               O X                                         O                 O                   +                                   X         O         +                                                               O               X X                                               O O O O O O O                                                           O                                                                               X     X     O     O                                 .                                     +                   O                                                                 O                           X       +                               O     O O     O O O O O O     O           O                         O     +       O O       O   +                 O                             O           O                 X     O                                             +                               X     X                 O     +   X                         X   X O   X                                   X     +           X X +       +                 ",
"O                           O                       +                     +       O                                                     X   X                                                                                               #                     X X   X                 O                                     +                                           X           X                         O                                                                             X     X                                                   O O O O O                                                           O X                                                                                                                                                                                 O                                                                                                       X                       #                   O   O   O O O 1 1 O O O                   O             X               O     O                                                                   O                 X                                           O                 .                 X           X   X                       X             X     +         X         X           +           +                                           X X           X   ",
"                    +     +                             +     O +                   O           X                                   X                     +                       +               +         +                                     +           O                                                                                                                                                 X                                                                                                                                     O O O   O   O                                                           X                                                     O +                               X             O         O             O                                                         + O                                 O                                     O                   X X                                             O O O   O O O 1 b b 3 3 O   O   O O O   O               X                                                                                           O               X           +         + O         O O                 +         +         X       O +                                                     X             O X                                 +     +                     + X O           +     X         ",
"                                    +         X     X                                     +                                                                       X                 .                             X                                                       X                   O       +                     O                                                                   O                                           +               + X                           X                                                               O O O   O O                                                                                                             O                           O                           O   O     O                                                   O                                         #                     O                                       X     X                                               O   O O O 1 1 #.#.=.1 1 O     O     O                           O                 O         +                                                                       X           . +   O               O                                       X                                             +                   O O                                     +                               +       O                       X ",
"                                                                                                                    +   O                   +                         X                                                                                                                                       O                         O                         X                   X                                                             O                                                                                                           O             O .       O                                                   +                                               .                   O                               O                     .   .                                                                             O     O                               O                                                                                 O 1 #.#.#.1 O   O O                                   O             O                                                                                                                                                 X                                   O           X       +                                                 +                       +         + +                             O             ",
"  O                                           X             O         +                                                           X   X                                                                                 X +             +         O     O     .               X X X   X X                               O     O                 O       O         X                                                                         +                                                                                                                                   O                                           O                                                             .                                       O         O                     O       .                                       O                   O                                                                                             O                                     O O O O 1 b b 0 1 O O                                                                                                             X                     X       O                           O             O                                                                                                           +         @               @                                               +                   O ",
"      +                 + O       + X             X   X           X       O     +                     O             O           X                         +       X     X               O                                                       +   O O O             X     X   X X                                   +   O                             X   +             O             +     +                                                                                       X                                                                   O                                                                                                                         O                                                 O                 O       O .                                                                                                     .                                                                                             +       O O O O O # O O O O O +             + O X         +       +     X                         .                               X     X         .               O         O                           O     O   +               +         X         +                             .           +             +                 X                                                                                     X   ",
"          +       X     X   +               X     X                     +                               O                                               +         O       X                     O           O                                   O     +                   X   X                                           O               O                                                   +   +                                                               X                                                                                                                                                                                                                                                       O                               O                                                                                                                                                                                       .                       O   O O O # O O O O O O                         O               O   O                                           #   O                                       +   O                                                         +                                 O               +       O O     +                                                                         +             +   .                             ",
"          +   O                                         O                     O   O   + +           O                                                         +                               O                                                     O                 X                                     X                   O             X           O   O         +           X                                   O                                                                                                                                                                                                                                                                                                                                                                                       O                                                                                 + +                                                                             O   O   O         +                                                                             .                                     .                                             O             O O             X           .   O       +   .                         .                     #                                     +           .                   +                       +                 ",
"    #   .                                         X X X           +             .                                                         +                                                                   X                                                                                         X     X       O                     X   X O                           X   X   O                                     O     O                                                                                                                                                                                                                                                                                                                                                                         +   O                                                                                       +           .                                                         O   O             +         O     +           O                                                     O           .             +                                                               X   +   O                                           O   O +       + O                           O + +           O                     +         +                                 @   +         +       +   +       ",
"                O           +               X                                                                                                                     +                                       +                 O       .             O                                                                           O                                   X     O                   O O                         O                                                                                                                                                                                                                     O                                   O         O                       +                                       .                                                                       X                                                                                                                                                   O   O       O                                                                                                             .                             O                             O   .                             +                       O         O                                   O               O O O                                   X                                                 ",
"O       +           O                                                                                                                             .                                                       X       X   X                                                                   X       O                           X                                                   X         O                                                                 X                                                                                                                                                                                   O                                                                                                                               .                                               X                                                                                     O       O                                                 O                         O                                                           O           O                                                     +         .           X             #     O .         +                                           +       +             O       O       O                             +       .                       +                                     O     O   ",
"      O           X           @ X       X                                               +               +                                     .           .       +                                       X               +                         +                                                                                     X   X                     O               X O               +               +         O                       O   O                                 .                                                                                                                                                                                                                                                   O                   . .                           X X                     X                                                       O                                                                                                             O O   O                 O   O                                   +                                                       O             O                     +           +         O                     X     O       + +         + +     +                                                     . O                         + .                 # + +     X             O                     ",
"                    X                                 X X                                     O                 .               O         .                                                                                     .                                                                                                   X       X                   +             X                                                                                   X       X                                                                                                                                                                                                                                                                 O         O                                       .                                     X                           O   O                   O     O                                             O         O       O                                             +                                     O                         O     O O           +                               O             O                                                       O                                                                 O       O                     .                           O       X             .                                   O   ",
"                X                                             X                                               O     O                     O       O                           .                                       X     .                                                           O                 O                 O                                                                                                         .                               X                                 +                                                                                                                                                                                                                                                                                                                   X     X                                                                   +                                         O                                                               O   O     O                                                                                                                                             .           O           O         +           O     O                                                                   O             +                             X       +                           O         +     ",
"  .                     O                 O                             #                         +               +         O             . X                                               .   O               O                         X O   O                                       O                 O               +     X X                   O         O                           O                 O         O                                                                                                                                                                         +                                                                             O                                                     O                                                                                                     O                                   .                                                                                                       O                         O   O                                 O     O             +             O                 O   +                                                                   O         O O       O   +     X     X         +             O         O   +       +       +             #   O                                     +               O                         O     +         ",
"        . O                 +             .           O               +     +       O                                                         X                                     O     O   O +   +     O             O                                                                                                                         @                             X               O                                           X                                                                                                                                                                                   O                                                                                                                                           O     O                                                                                                     .                                                     O                                   O                             O                         O                           O O                                                                                   O           O           O                                                                                   O     O       O   O                                                                                                     ",
"    O                   +         +                                             O   O   +     O                                 +                                   O             O                                       +                                                                             O                 O                             +                                                                             X                               O                   O                       +     O                                                                                                                         +                                         O                                                                                   O                                                           O                                                                                               O             O O                                 O                               +                 O   O   O               O     O       O           O                 +               .         O       +                     O                                       X X         +                                                                                                                   O       #           O                       ",
"              O     O             +                 .                             O   +     +                                 #                             #         .                                                                                     O                   . +             O     O             O                                 O             O O                 O                                     O                                                                         O                                                                                                                                                                                                                                                                                                             O                     O     O                                               O   O                                         #         .                                       O     O   O                             O                                                                 O     O                 O                               O   O O                                                 O             +       #                                                             O                             O   . .                               +   O       ",
"    O   +                         .           O                                   O                                           #                             O                                 O                                                             +                                                                 O                 O   +         O                                                                               X                                                                                                                                                                                                                                                               #           O                                                         X                                               O 2 O O O                                     #               O                                 O             O                               O           O                       O                   O O                   O       O     O                                                       +                   O O                                     O                                 O                     .           .                                                   O                                     +                               ",
"                +   +         #               . +   O                   +             + . . .   .   .   +               .             X                                       O                                                       O   O O                                                                                                                   O             O                 X                             O             X                                                                                                                                           .                                                       O         .                                                                                                                     O                                 O                 0 n 6 O O                                           .         O                                                                                             O                                                                                                   O                                                         .               O                     O       O     X O     O                         O                     O             X   +                   +                 O                                                             ",
"        O               +                                 #         .               . + # . . %                                         +                                     #           .             .                                 O                                   O                         O         +             O                     O                                             +                                             O                                                                                                                                                                                                   +                                                                                       O                         O         O                                               O 0 n 6 O O                                                       O                                                                                                                                                       O         O                           O       O                       +                                   O                                           X +                   O               O                     . .   +                               X               +   O     O           O   +                         O     O ",
"                    7 +         O                   .                           O +   . . % $ # . X + . .                         .   +                   #     .                 O .                             .         .   O                                                 O                                     +                                                                   #         O     O                                                   O                                       #                                                                                     O                                       O                             X           O                                     O               O                                                                                           O O O O O O                               +                                     O                                                                     O           + O                                   O                                         #                         O           +                   O                 O             O               O     O             O       X   O                     .                 O         .       + +                         +         +   +                               O   + O O                     ",
"      +         + X 5 +       O         X                                     O   @   X $ % > % + o .   +                                         O       .                               . O         .                                   O               O                                               +                                                                 O     +         O                                                                               .             .   . .     . #       .   #                                                                           O                               .     O                                                                                                                                               O                                       O     O O O   O O                               O   O                                                                                                                 O                                         +                                   O       +         O             +               O                           #                                     O   +                     O               O O                 + +                             .   O       +         X                               +           O   O   O                   ",
"+                 O X   #                   X     O   +                         + + @ . o } %.*.$ .   +                     X             O O                                   O O O O   O                                                                       O               .               O                           O O             O     +     O                     O                   X   X                                           O                                 .                                                                                                                                                                                         O                                                                         O                                       O                                   O   O   O                           .                                   O +                                                                             +           O                                                 O         O                                                     +                             O                 O   O               O                                                                         O . .   O         O                 #       +                                 +     + O   O O     O     O O           ",
"  +                             +                         .                   + @     . . ,.#X,.. . + .                                   +                     .               O     O O O .         O                                           O                             .                                                                   O                                 + O         X                                 O   +         O                 O                                                                                                                                 O                                                       O                           O                                                               O                                               O                               O     O     O                                               O                                                                   +                       O                                 .                                 . O             .                         O       O               O .   O                                 O                     +           O                   +                                                         O                         O           O   +         . +           O O O O O                 O   ",
"            O         O O                                         .                 + . $ } *.} .         +           @                                         O     .         O O O   O O O O # # O     O                       O                         +   O           # .       O         O                             +             +           .                                                                 O                   O                                             .           O .                                                                                                                           O                                                                                                                 +                                                             O                                             O                                   O   O                                                                                                                                                                 O                         X                       O                 +                       O   O                                                             O                 O           O         .           .                                                 +         +     O O 1 O O O O         #       ",
"                  X                               +                   O     +         + . . . . . + + .   .                         O   + .               #                   + O O   O # O O                                                                                                                     O               O                                         O       +   O                             O                                                                       O                                                                                                                       O   O           O                                                   O                                                                     .                                           O   .                                                                                                                                                                                                                 O       +                               O                                                   O                             +                                                                               O                                     +                               O       #                               O     O O 4 3 1 O O                   ",
"                      +               +                 O                           . O . o . + + . +               . O   O                                       .       +   O O # # O O   O O   # O O   O O     .                                                       O O                                                               O                                                                               O                                                                       O                     O   O                                                     O                               O     O   O                                               O O                 O                                     O                                                           O                                                                                                       O                                           O                     O                                                       O                                                                                               O                                                   O                                                                                           + O                                             +     O         +           1 M &.n O O   #     O   O     ",
"  O       O       X       O             .                                   X         + # . .   . +             +         O O                                             O + # O O # O #   + O O   O O O O                                           +                                                                   O                       O           X           +                                   .         O                                       O                   O . .                                                                                         O                                                                                                                     .                                           O                                                   O         O O         O                                                     O                                                                                                             +   O           O         O                                               .                                                               O         O                                   O     +                     +         O                                             O         O             +         +                                     +     . O O O O 1 1 O O O           +     ",
"                  O           +                               O         O     X               O                                                           O               O   O O # 4 # 1 # O O O O . O                                                                             O                                                     O                 X           +           O     O         O                                                                                                                                                                                                     .                   O     X                                                 O                                                                                                                   .                                                 +                   O                                                                                                                                         O           O         O                                                                                                 O     O                                           X           +                                 .   O   O     O   .                                                             O                 .             O O # 1 O                     ",
"                              O                       #       + +     O               @         +                 #     .         .   O                                   O + O 4 n &.&.B 5 O O O   O O                                       .   O                                                                                               O                                                         X                                             +                                                                                                                                 O                                 O       +                                                     O                                   O                                                                 O       O                               O                                 O     O                                                                                 O                         O                   O                                                                                                   +                         +               . +               O                                     O       O           O         O   O                                       O                                           +               +   O # B 4 O +           X       ",
"            O O                     +           +                                       +                               O           O                                     O O # 3 $.*.*.=.1 # # O O   O                                                                                                                     O                     O O             O             +                                                                 +                                                                           +                                                                     O                                                         O +                       O                                                   O                                 O                                                         O               +                                                                                                                   O                                         O   O O       O                                 X                     .                 X           +   O       O                                                               O         O   O                                 O   .         O             O                   +                 +             +           . #     + .     + # 5 # O O O                 ",
"+                                                                                           +             .                                               +     .       O     O # N *.*.N 1 @ O O       O   O     +                                             O                                                   O                       O     O O           O                                                                   O                                                                                                         O                                                                                                                                     O                                                                   O                                                   O                                                                                                                                                                                                                                                                                                         O   O     O                         O                                                                             O                       +                 +                   X                                             +   + .       +   O + O     +     O         ",
"      +             O                                       O                   +           +                             .                     +           +         O X   O # 1 n m n 6 1 +   O   .   +   .                                     .     O                   .                                                                                                                                             O     O                               O                                                                                                                                               #                                   O                                                     O                             .                                                           O               O                             O                                                                                                                                     +                                                                             O                                 X O           X                         +                                       #                                       O             +                                             +             X         O       O + #         +   +       . #   O       + + O X   O       X         ",
"+     +                                 #             +                                   +         +                         O   +           O           O               O + O O 1 # # # # O #                     O                                       .                           .                   O +                 +       O O           O       O                                                                                                                                                                                                                                                                                                                                                                                 O                                                                                                   X                                                                     X                                                                                                                 O                       O                   +                 O                                             O             O     X       +         +           +                                               + O       + O                   +               X                   O                           O     O         X         X   O       ",
"                X                                                                                       +                           +           X O       X X X               O + # # O O #   O                       +                                                                                                 .                         O             O       O .                                       X                                                                                                                       O O     O                                                   O                                                                                                                           O                                                               O               .                         O                                                       X                                                               O                                                                                       O                                     +                                 O         O                                   +       . +                               O                   O                 +                                           O           O                         + +                 O     X               X ",
"                                    X   O .         .           .                                     +     +                 +                           +                   + # #   # # # O . +   +           .   . O                 O                                   .                                 +       .                         O             O       +                                                                                                                                     +                                     O   O                             O                       O                                             O                                                                                                                                                                                               X                                                               +                                                                                             O     O O     + O   O     +         O                             +         O               X   O                     O   O                                                                   O     +                 O       O       O               X                     X +             O                     + O   +         .             +                       ",
"                            O   O             O                                           O   + +                     .                                                 O         O   O +   O   +                           . O                       +                             .                                     +                   O                                                                 +                                                                                                       O                 O   O                                                                                                                                                                 O                                                   +                                   O                                       O                                             O             #                                                                               O O O O                       O   O       O             O                   X           O                                                                           O   +         O O +   + + +   + + +                             +                       O                     +       O   +                                   O                               +     O   O O         O           ",
"  O                                         O                 O O O                                       +     +                                                                   .     O                                       O                                                                                                               O         O                                           O   O           O         O                                     #                                                                     O   O                                                                                                                                                                             +                     O                       O                                                 +                           X                                   +                                               X       O                                                           O         O           +       +   O                                             O                                                               O   O     O   #     + . . O +             X                         O               O                                           X                           O                   O         + X   # O O O         O   +       ",
"        +               O         X     +                     O   .         .       O       +           + O               +           .                       +                           O O O +   +                                   O     #                                                     @                   +                           O                   O                       X     O         X       X                             O                         #                                         O       O                   O   O                                                                                                                       O                                                   X                 X     +                                                                                               X                                                                                                     +           O                                         O                               O O   +     O         .   O       O                     +               O         O       X   O                         + + + . .   # O   +     X X               +                                             O                 O         O           O         +               O   O       O         O 6 B 6 1 O       + +         ",
"      O                           X       O       O   O O                                                       O O                                             O       +     O     +   O . O   O + +                                 O +                   O                                                                 +               O                               X                                     O                                                                                                                                                 O                     O   +                                                                                                                                                             O +   O                                                             +                                                                                               .                               O                                                             O                         O     X                         #                                                     O             +               O #   # . 8 S N o X X     X                                                                             + O         O             +                       O     O #                 O 6 n 2 O   O     O       O   ",
"            O                         O             O     +           .                       O                         # .                                   @                   O         O #           O                 . O   O O     O                                                           +                         @                                                                                                                                   O                                                               O                                                                                                                                                                                                           X       X                                   +                                                                                                       O                                                                                         +                                                     O               O         X             .       .   .         X                                 X     X X     O       +         + o $.#X,..     +                       +                                     +     O                 +                                     .                                 O O O   O   X                 ",
"  .             +                       O   O                         O                                       +       O           O                                   O           O     #                                       O             O                                                                 +     X                                                                                               X                                                                                         O         O           O                                                         O             #             +                                                                                         O               +                                                                                                                                               +                                                 .                                                                         + .           .                               O                                                           O       +                             O   + +         + + . } ,.%.o @ + O . O                       +                                             +             O           +               +     O                     + + +         O + O O                       ",
"          O     +       O                             X               .   O                                                           +   +                                     O   O                   O O               +                         O                                                                                   O                                                                                 X               O           O                                                                                                                   O       O                                                                 @                                                                                                                                                                     O X     O                                                                                                             O               O       O                                                                                                                           +           +           +   O               +                   O               . o N $.N o . +   .                                                                                       O O             +                 O                 O .   +             + O O           O         ",
"                    #     O     +     +                   X                                 O                                               O                       O O + O                               O   O               +               #     O                                   X                 X           O   X                                                           X         +     +                                           X           O                                                                                                                 O                                                                                                                                                 O               O                               X                               O                                 O                                                         .                                     +                             O             O                 .                                   O   O                                                                 O     . O                     +       O     @   +     + . # . . . + + + .             O       O                           O                 +                                       O           O +                   O O         +     O +       O +         O O . ",
"                        +       +             O X             X O           O           O       +   @   O .                               +         O         X     .       O +   + O   O     +                                       O   O .           O                                           +   X         X                                           O +         X       X         X               +       X                                   +                                         .                                           +                                         O                             #                                                                                                                 O                       O     O             X     O                               X           X     +                       O           +                                                   X                                       O                                                         #     X   +   X               +         O     O           O     O               O   O       O               +           +     O         +     + + . o + X +       O   O                 O                                 O     +         O O   + O                 +                                           +               +     +         +   +     ",
"                    +   +                                     X +                                 +     +                       . O                                 + + O     O   O   O                         O                     #           O     O       O     O                               +                   X   X                           O                                           X     O                     O           O                                                       X                                                                           O                                                                                                                                                                 O                                                   X                                             O           O                                                                             O                                                               X                                           X       O       O +   O                   O   O                 +                 +   O           O     #             + @ @ + + X +                                             +             O           +     +   O   +               O                                                   O             #                   O +   ",
"    O                     O                             +           O +   O   O   +                         +         O                           O           X O                                                                             # O   O                                                                       X                                                           X X X                                                                                                                     X   O         +                                 +   O                                                                     X                                                                         O O                                             X     X       .                                   X                                                 O                                             O                                                                 O                                 X                                                         O                             O O O           O .                 O                     O           X +     .                             O                                                           O                 .     +                               O   O   O     + .       .   #         O     ",
"  O         +       O   +         +   +   .   .                                     +           X                   + .     +             +           #             O                                                                   O   O O O               O           +                 +                     O                         X   X                                   X X                         +         X                                                                         X   X       O                                             O           O                   +                 O                                                                                                                                                     +                               X                       O                                                                                                             X       X     X                                                                     X         X                   X     O O     O O                 O                         O                 X     +       O                         @   + X X                                     +     +           + +   O                         O     +         . O                 X                     X X       O   O O O   O     O           +   .   ",
"                                                            O                                                             #     #                         X                       O   +                     O                                     O         + +       O                                         +                                                                 X             O                                                                                                                 X                       O                   O                       O     O                                                                                                                                               O                     X                           O                                       O                                                                                         X                                                                                   X         X           +       X   X     O           X                           O   O         + O     O     # +     X                                 O     O       X                 +                                   O                 X         +                           O               X       O       +   +           X     O     . O   +             O         ",
"                                +       O     . O     @     X                   +                 +     O         O .                                                             O   +       O                                                                             +               X                             O                   O                                                                                       O                                                                             X                                       X           O           O                             O   O                         O                                                                                         X     +     +             O                                   X                         O O               O                                                   O                             X         +   +         X           +       O         O                                     X           X                                                     O                 O                                           +                     + O O             +                     O       +     . X         +                           +                                     +               +                 O     +                           ",
"          .       O                     #             X X     X     X                             +           +                     .                                             O O   O         X                                                   +                 X                   X         +       +       O   + O O                   X           +                                   X     X     O         O   X                                                       O   X     X                                                           X           O       +                                                               +       .                                                                           O                                                                 +                             O   O                       O                                         X                           X                                       O           O                                 O               X       X       +                       +                     O       O                           X     +                       O           O + X   X +   +   +                             + O         X                     X     X O   +             +     O .                     @                   X         X +   +       +           +       ",
"                                                .               X                                 O                                                                 +             O     O                                       +                             X                 +           X     O     +                                             O       X             O                         O                                                                             X                 O       O                                                                                         O             O O                                                                                                                 +             2 +               O         O       O                                           O             O                                                       +                   X                                         +                                     X                               X                                             O     O                                                                   +                 X           O                                             X           X                       X           +               + +           .             X   X X                 X                     ",
"              # O       +                           X       O       X   O             + O                             .       O +       .             .         X     X     O         O         O     O                                                                     X +         X +                                         X                     X                           O         O     O                                                               +   .                               X                                             O         O       O O           O         O O                               @                                                                                                               X @ 5 5                                                                                                                             O           .           X                               X     +             +                 O     O                                   X     X X                                   O                           O     O       +                                 O                     O +         O           +                       #                       X           X   X                       +             O                                     X     X   X         + X X     @         +   . ",
"                            +       O               +       .           O     O     X             X     O           +                                                 X             + O               O + +                           .                     X                                                             O                 X O                 +                                                         O                                                       +                                                                       O                                     O         +           O   O         +   O     O                                                                   O                     +           O 5 # 5   O                                                                                                                                                                                                         +                                         +         O   O                                                                     O     O         X             +                 X     O               O             O                               O           X               X                                                                             +         X   O     X                 .                     ",
".             +           O .                       .     O                       O   + O     +           X       +                               X                                           .                                                                         X                                 +   O                               X                           O                   O   O                                                                                                                 O                                                 +         O                                                                                                                                                                 O O 2 2 +     O     O                     .   O                 O O           O   .     .               O                                                 O             X                                                                                     O     O                             O                                                                                                                               +                                                                                 X           +                           X     O   + .   +                   X         +                 O               O ",
"                              O                       #             X +                 X       +             + +                                                                   +             O                                             X                 O     X     X         X             O   +               +           O                                                                     X         +                                             X                                                                                                         + O                         +           O         O                                                                                                                     @ O O O     O O                                                         O               +               O                                                                                                 +             O                                         O                                     X                                           X     X                           + X                       X           O +     + +         + O                   .     X                                                         +   + . O         +           O                       + +                       +     +       + O . ",
"    .             +                       @     .     +                             X                                   X     X                                 X                       +                                                   +           X     O       X     X                 X                                         O                                 .             +                     X                                               .                         X   X             +                                             O                 +                 X   X                             O       O                                                                                 O     O         O         O       O         O O                             O             O                     O                                                     X                                                                       O                                     O O O   + +   O                                                 X                       O         +                     + +             X O       +     O                   +                                                 X   O X   O         X   + +           O   X                                               X   X   X     X                             +               ",
"                  O .     .   O         .             + +             +                           X                         O                             X O +   X                 O                                                                     X         X   O     X         X                                                                         +         .                                                     X                               X                       X             O .                                                                 X                   X     X     @               X         O     X                   O                                                                     O           O     O             O                   O   #   O         O                                                                                               +             O                                     O                                           O O +   O     O O     O     +                           +                                                             +     X                     X                             O O                       +     X     X       .                   +                     +           .   .     +     +       +           X     X X     X X               X     +         +           ",
"  O                               + X   +   +     O +       .                   X                                                                                                 O                     X           . +       .                                                     X       X       O                   O                           +                                                     O               O                 O   O   . O +                                                           O         O                               O         +                       X   X   X                                         #                                                                                                         O                                                                                                                                       O   +                                                                                                               +                                                 O                                               O X       X                                                           O                         X           X                   +           X                 O   .                           .                   X     X         X       X     +                     ",
"            #                   X           . O             +           O       O                               X                 X                   O             X                 O   O O       O                                         +                         +                               O                                                                 O               O                     +                                   O       X     O                                                                                             +   O O                       O   O X       @                                                                                                                                 O         +           O                                 O                                                                                                           +                                       .                                                                                                               +                                       X   X X           O                 O O         O   O       O   O O                           O             X                                                 +                                                   X     O                 X +                                 ",
".                                             O                                                                 X                                     O                                           O                                                       O                     +                                                   +                                                                   O                   X                       O O   O           X     X                                                                                               +   O                                                     O                                                                                                                     +                     O                                                                                                 +                                                                     +         +       O                   +                                   +                   O                             O                           X   X             X     +           O                 O                       O                                         O                                                                           O                                                       +       #         ",
"              X                                 +         #                                                                     +   .                 O         O                               O                                                         O   O             +                                       .         +             +           O                   O                         O             O         O                 +   O O   O                 X                                                                 O                                 O               +   + . . + X                                                                                                                                                               X     O +       O                                                                               . O     +                           O             O                                                                             +   O                                   O                                                                         +                                               O       O                 X     O         +                                           O O                               +         .   O                 O                               O   O                   + ",
"                              X X X X O                               O O             O                         O                           O                                             O O       O                             .             O                           +                             .           O                                                   O                                                                     #   O   O O O                                                                                       +   + +                                 +   .   . # + X @ .   X                                 O                                                                         O                             O           X O                       O                                 O                                                       +                                                                                                                                                                                             .                                                       O                   O +                                                   O                                                         X                                       .               O     .     O       O                         +   ",
"                                  O                 +         .       .   O   .                                 .                                         +                                   O                                     O     O       O   +                                     .     O                                         X     O X                 O O                               O                                         O   O O O           X     O       O                                                                         O                             X X X @ % $ $ . X     X   X                                                                                                         O                                                                     O       O     O                       O                   +                                                                                                                                                                         O                                                                 .   +             +   .               +           #                                                             +         O +     O                                                             O                   #   O     O       O             O     +         O             O ",
"            +   O                                                                                   X         X                 +               +                           +                                         +   .               +                         O O O           #       O     .           O   O           +                 X                   +                     O           +                                                             O                         O                                                         +       O       O   O   +         O + X % % > v w o % X   X                             O                                                                     O     O   +           O             O           X     X             O                                   O       O                         O     .             O                                 +                               .                                                   .             @                                                                 +             .                                               O                         O                   O       +                                   +                 O                                     O                   #     .                           O           O                   ",
"                            +                     .                                     +                                                                         O             O     +     O                                           O           O         O               O     O                                                                               O                     .                                                                                       O                                                                     O     O     +                       + X % > $.LX} $ $ X X                                     O                                                                                                   O         O   X O     O       +   O O               O               O         O                                                                                                                       O                                 .       .                       O     O                                                     .                                       O             O                                   O O           O                                                               O         O                     O       O                     .                         +       O   +           O   O   O ",
"      .           #                             O                             # +                   +                     .                                                                             O     O       X X                                                           .                     #       O           #                     O                                                             O                 O     X                                                                                     # @                                             +             X o > %.UX$.= % .   X                                                                                                       O               O                                                                     O                       O           +                                               O               O                                                                                               +                                 O                                             .         .                                                     O                                         +                                                           #             + +         +               X   +             O   +                                                   . ",
"O     +   +             +                             #                                             +         X O                   +                         +                             O   O         O + +     X       X                                     O             .                     O   .                 .                                             O O                         X                                       + +       O                                                                                                                                 + + + % > S %.x : : X X                 .                                                           O                                   O                                     O                   +     O               O                                     O                                                                                                                                                           O                 O                                                                                                                         +         +           +                   X                                           . #             +                                         X X   X                                     O   O         .   .       +         ",
"                        .       X         O                   O   O   .             .                                                                                                                           + X X                                               O   O           O                         O                     X                                                                                                                                                   O                                                       O                         +                 + X # % . . o X X X     X                           X                                                                                                                                     O                                   #     O                   +                       O                                                                         O     O                                                                     O +     O                                         .   .                                                                     O             O . O                   X                               O                                         O O   O                                     X                                                 O                   ",
"    O O                                 .         +                 X                                   O                   . O                   .                   .   O O                         O     O   O +         X               O                 +                                 .             O                                     O                     O +                                                                               .           +                               O                                                           O X                 O   O X . . + % . X .                                                                                                                             O                 O       O                                               X                           O                                             +                                                           . O           O                                                     O           O O                                                         +                                     O   O       O           O O           O           O       O                                     O                                     O               .                             O       +                   +                         O         ",
"                            +                           O   O   O   O                                                       O   X                                                       +               O O                 X                               O           O                                                                                       +                                                                                 O   +                                                                                                         O         +               O O +   # + * X     X X                         O                                                     O                                                     O           O                           +   O             X     X                   +     O     O                             X X   X                                                                                     X           @                             O     O   O                               O                     O               O   +           X +                                 O                               .     X                                             + #                                   .                                   X         O               + +                                       ",
"                                . O                                 X               +                         + O                                           .                                     O   O O                           O     O                                               .   .         .                                                                           .                                                                                                       .                                               O                                         O O O O     +   @   +   X X   X   X                                                                                   O                                         O                 +       O             +                 X X         +                                                                     O                                                                                                                                   O   O                   #                             +                                     O                     O           . O                                 . O             +               O                                             O   O                                                               O                 O   O   O           ",
"                                      O                   +       O     O   O                                               .   +                                                                         O O                     O                                               .               O                   O                     O         O                                                                                                               O                                                                                             O   O                     +   +       X X       O   +                         O                 O                                                             O                           O O   O         O         +                       X X                                           O                                     +                                                                       O                                       O       O O O         .           O                       +   O O                                               +           O                   O                           O               .                                             #                             O                           +                                 .                       O           O ",
"    X +       +                                         +       O                             O   +                   +                 .                                                             O             X                                                         .           .                           O                                     +                                   O                   O                                                                                             . O                                               O                       O   X       X                     O   O                                                             O . O                                                                                         +       O             +   .   + .                                                               O +             O                                                                                                           O                                       .                             O     +     +           X         O                           + +               # .                             O                                                                                                   O       X                 +     +   O                 O                 O . ",
"  O   X         #         . O         +   . +         O O   +   X O     X     O         O         .       .                       +                       +   .                                         O .                   X               +                                                     .                                           O O                                                           O                             X O O                                                   .                                                         + + +                     O X       X   X   X                               O   O                                 O                                                                           O                   O     O   +     O                                     +                                   O                             O         O O                       O                                 +                                                       O       O                                         O                       X     X                                           #           #                     O   .   O                 O O     O                   #                                       O O   O       X           O     +                       .                 O .         O       ",
"  +                                 +         +                                       .                                 O                             . O                                             O                   X                                                               O                                                                       O               O .                 O                                       O                                                                 . O .                                                 +                           X                                                               O                                                                         .                                                                           +   .         +                                                                                                     O                                                                   O                           O                 O                               O   O       O                                             .               . O       O   O                             +           .             O                   X         O .       O   +       O   O     O O                                     .           #                 #             ",
"        O             +                       O                   O                 O         O O           O                                         O .                                                                                                                 .                                                                                             X                                                   #                             O         O                                                                                                       X                 X X     X       X                     O                                                                                                                                   #   O                     O         +   X + X @ . + + .                                 O                                             O O         O                                               O                             .             O       O   O                                               O                                   O                                   O             O         .       +                 O           .                               O   .                             O           O                 +             O           O                                         O   ",
"    O         X     O                                             O               O                 .           X                     O             O               .                                                     X                                                                                                                                                                   +                                                                 X                                     .                                                                                     O       X                                       X                                             X                                                 +                           O                       O           +   . . . . o X X X                                                                     O                                                                                                                               O         O                                                   +       O                                       O                 O                                 O       +                               O                                     O                                   .     O       +   O                                 #                   ",
"            +                 +       O         +             + O           .               .       O               +     O           .           .                               .                     +                           X                                                 #                       X O                                               O   O       #   .                                                             O                                             .                                           +                                 O                   X               X X   O X     X                                               .                         O                           O                                             O           O               + X . % > > , $ % X . X                             O     O                       O                                                                                   O                                   O   O                       O                                       O         +               O O O O                       O   O .         +     O       +   + . +                 +                         O               O   O                   O         O         X     O   O O     O     O                     O     O   O   O                                   ",
"    X           +                                                               +                                 +               O                                                     .       .                                           O                                                         +                                           X     O                   X     O                                                                                   O                   .                                                                       O   O                     +     X X             X   X +         X                                   +                   X                                                                             +     O O     +                     + X # > S LX%.= % X X X X   .                             O                               O     O                                                     O       O +                                                                     O                                                                 O                 O       O O         O             O     O                           O                               O                             O   .         # #       O         O O             O   .           O     O   O     O O                   .               ",
"    X       X                   O                 X           +       O           O .                       X       O                       #         O                           .                                                                                                     O                               O                                   O                                                                                                                     O         .   .                                                             O   O           O       +                                                         X   O X                                                       #                                                 O                               X               o % S UX#X> % o X                                               X                                                                                                                               O     O     .   O               O                                                         O           O     O   O         O                         O                                         +                                           +     +                     O O   O           O             O     O   O     O                     O     O     +       O +             ",
"X         X   X           +       .   .               O       +   O           +       .             O       O                         .       .                                             .                     X                                                         .                                                                                                   O                                   +                                                           +                                                                         +                           X                       O                     .         O           O                                                                                                                 O                   +         O   + # % N LX$.; = o X       X                                                                                                                                                   +                       O                     O   +                         O               O                 O           O               #                                                                                         O                       + O           O           O                                   +   O O O O O   O                       #                                 ",
"  +                                     O                                             +                         X     X   .     O             O .     O                                                                                                           #                                   O                                               O O   O O O                 .                                                                           O                                 .                                                       +               O                     X X                                                                                                                                                                                           .               + + o % o > : o o +                                                   O               O   O                                                                                                                       O                   #                                     O   O       O                                                               O     O         +                                       O                     O                           O           O O         O O     O         O             O             O O   O       +         O             O     ",
"7 :       +   +       +           O                                       O                 O O               X     O                           +                             .   .                     O                                                                                                                                         .     O O O   O                                                 X                                               O                                                           X                                             X X                 X                                                                                                           O                                                                         +                       # . + o % @ X X                                                                           O                                                                               O     O                                         #                                               O O   O O                 + O         .                         O             +                                                                                             O   O                 O O   O     +                                 O                 O           O                         ",
"@ @                                                           O       O       + . O   .   .           # +                           .                       +                                                   X   O           O   X                                                               +                           .             O     O O   # O # O   O                                               X                             O       O                                   .   O                                                                       +     @   X   X     X                                                   O                                                                                 O         X       X                         O           O     O         O +     # % @ X X X X   X                                                 O                                                                                     O                 O                                               + O     .             O O                                                                                               +                         O                                                 O O       O                                           +   O   O       O               O                             .   O                     ",
"o +                                                   +         O         O                           O                                                                                                               O                           O           +                                     @                                               + + # # # O O     O   +                                                                         O         O O                                                                                             X O       + +                                     +                                 +                                                                                                                                       X       O       O O + O X + @ X X X             +                                 O                                           O           .                                                                                       O                                     O                     O   O   O                           O                                                                                                                       O                   +                                 O O   O                     O O                                           #           ",
"+ +             X               O       O   O                                                                         O                                               .       .                   .                         O                                                                 . X                     O                   O   O   O   O # 1 1 # O O         .                                                                                                                                   O                                                                 O                                   O                                                                                     O   O       O                                                         O                     O         X       X X + @       +         X           X   O                             O     O       O                                                                                                                     +         O                   O   O                                                   + .   #           O +                                                                           O O                             O           +                             + +           O                           O +                         + O   O             O ",
"              +         O             O         +   +     +                         +   +                                                                                   .                             X                                                                           @   X   X               X                             O     X # @ 8 N 0 # 1 O O     +                                                                                                                                                                                                             +         .           O         .                     O       O                                                           O                                                                                       O       +                   O                   O O                       O                   O                   O         O                                             O               O               O     O       O O                                                                                   .                                           O         O                   +       + +                                                         O O             O             O                                                         X           +             O       ",
"  +                 .                                                                             O .                           +       O                                   O                 O                                                                                     +   X   +   X                                   . O           O 2 4 &.LX&.4 # O O O                     O                                                                                                             O       X           +                                                                 O                                                       +                                                                                                           O           + O O   +                     X   X   X   X                                                                                                                                                                 O                                                           O                       O                                                         +                                         O                                                                       O       O   O       X                       .               O     # O                 +   O X                                       ",
"+   #   +                               +         +               +     X                     O O       O     + O         .                                                     .                   +           O                     O                           X                       X @ @ #         X                   +           +   O O O # 4 @.*.M 4 # O O O                                                                                                                         X       O           +                         X                     O                                       O O O                               O   O                                                   O                                                                           O     +             O                                     O                                                                                                                             +                                     +             O                               +           O                                             O                                                         +                 .     O           O                         O         +                 X     X   +                                   + + O   O                 O       O       X       +   +             ",
"              X                           O                             +     X                                 . O                             O     O                 X           O       .               +                   O                         +                               @ @ o @     O         O       O         +   O       O   O O 4 m m b 4 1 O   #                               .                                                                         O                     O           X                                                                         O         +               O                             +       +                                                                               O                                                       O           X   X     X   X                                             O                                       O                                           O                               O                           . O   O         O               O       +   O                     O                           +           +         +                         O   +                         + .                 O                   + +     O     O     +         X                 +   +     +       O @       O #     O   O     O         O   X             .                 O   ",
"+             + O       +                                     O                 +       X             O                                   X                                         O .                   O                                                     X                 .         X @   X                                               O O 1 1 4 4 1 O O O                                 O                                                                                         X       O   O           +                                         O                                               O                   X           #                                                             O     O         O                                                                 X           X   X                   X           O         O                                                                                                 O                       O O     O                                                 O                                                                                   O       O                           +                                     +                                         O             +                 +                                   +           O       + +             X               +               ",
"                    . O           O                                                                     +     +                 +             O       O       X             +     .           O O               O             O                       X +                                         +         O       O O                           O O O # O 1 # O                                                         O                                                                                                                               O                                                 O                                           O                                       O                                               X O                         +                               O       X     X         X       O                               O                     +                                                                 +               O                           +           O             +   +                           O   O                   +                                                 .     O                                           +                                                                             O               O   O                   O       O                             +   @                       + ",
"    .       #                   O                                       X     +       X                                 O     + O                     O                                 X                                                                                       X           O     +                         X                         O O   O O           X   X                         X   O         X                                                                                                                                                                                 O           +                                               O     O                               O                                                                 O         O       O               O     X             X     +           X             O                                                                                           O                   O                 +                                     X     O                       O       O           O                         O                           O       O                           O                     O           O                                                                                     +                     +                           O     O                         ",
"      O O           +         O X                         +             O                         O                                       +                                     X                                 + + .                                                                                       O         O   O           O         O           +       X                                     X   +                                                                                                                                                                       O                                               O             O                                               O                                                                         O   O             O           X                     +                           X       X                         O                                                                         + +               O                                                                           O O   X +       +                                                                 X X     +     +           +                           O O                                 O                     X                 X   O   O                         O     X                                       @                 ",
"                O                                               +                 +                                     O                                                           X       X                 +   O   +             +               O                               O                                                             O O       +                 X                         O                                                                                                 O                                                                         O                                     O             X                                     +                                                                 O                                   O           O   X   X                           O               X               X           X           O             +                                                       O                                             +                                               X         O       +                                                           X         O                                 O     +               O   O             .                         +         O     X                             +         +   +                   X             O     O                             + ",
"  O     O                       O   X                 O       +             O         O O   O                   O               O                         X                     X X       X         +                                                                                     O         O                                   O                               X     X         X           +           X     O O O   O                                                                             O                                                         O                                 +             O         O                                                             O       O O +         O             O                                     O +                                     X         X                                               O   O                                                                               O         O                           O   O                         O               X             X X         +   +                                     .                               +                 +     +                                         O                               X         X       X         X   X                       O   O                               +             O     X         +   O   +     ",
"              +                   +                   +                       O   O                                                         O                                 X       X                                                                                 X                 X   O                                                         +         O           X   X     X       X                     O 6 6 O O                                                                             O                                                                                                                                             O                                   X                                   +       O                                                       X         X                     . O                                                 O                                                                     X       O                                                                                                                                                                   X                             O     X                             O   + O                                                                               O     O                   O     X                                                           X   ",
"    +                 +       O                       X                       O O                     +                                       X           X X               X X                                                                       .                                                                         O         O O       +                                                   O           O # M M 1       O     O                                                             X                                                                             +                     X       O     O                                                                                       O                                                                     O   X   X X X   X         O                                               O   O                 O             +                                                                     O   O                                 O O       O O                       X                                                                                     O X             + +                   +                                                   X                                                                         +                   X X   X     X     X         O     O         +     +         ",
"      +           +                       + +   X                   X                 O         O                                             X       +   X       X       X                       X                                                       O                               +   X                 X                       O     O                                       X         O                   O # 1 1 O O   O                                                       X           X                                                     O                                                 X           O                       O                                           X                   O     O   X                                         O         +     +   +       X                             O                                 +     O                                                                                                                       O     O                   +                                                                                       .                                       X + + +         X                                                                 X                           X   +       +                             #                   X X                 X + O                         +       ",
"O         O   O O         O                       O                       O     O                       O                           X X                                                   O                                                     .                                                                                                   +         O         X               X                         O   # 4 4 O O O                                                                             +                                                                                                                                                                                                                                                               X                     X                                                                                                                                                                           O       O     O     O                                                                                                                                     X   X                                                                                                                 X                                                                                                 O                             ",
"O         O                   +                   O             O     + O     O     O           O   O   O                                                     +                               O                           +         +       .               .                                                             X                   O                                 +                   X O               O # # O     O   +           O                                                                           O                                                                                                                             O                           . O                       O   O         O                     O                   +                       X                 .           O                                     O                 +                             O                                     O   O           X   O     O         O   O                                                                         O                           +                             .                     X         X     X   X                               O                                                             +   O               X X                       +         X                 +   + O                   +       O   ",
"O                   .       +         X     O   O     X X                         O               O   O O                                                                                                                                 +                           X           X                                           X                     O   O .                                         O       +         O O     O                                                               X       O                                                 O                                                                   O                                             O         O             X                                                               O                                                                     +                                                                                                                           X O                                         X     +   O               X       X         X       X     O   O                                                                     X     X   X   X                 X                         O         O                 X                 + O O           X           X                                                                         O                       O     ",
"+         .                               X O         O   + @                 O       O     O     O O O           O O                                                   X         O                                                                               X X   X           X                           O                     O                                     +             X     +           +             O       +                                                                                                                                                       X             X   X   +     +                                                               O                             X                                         O                                                     +       +                             O                                         O                                                               O X                       O   O                           O             O               O     O         O                         O                                                     X       X X   X X                           +       +     .   O                                                                     + X                           +                             X                             @ +   ",
"          O                       +         O   O                       O       O   O   O   O           O                                               O                                                                                                 O   O               X   X                                                     +         +                                         +                           O                                                                                                                                           O                                   X     X                                                                                                                                   O O                                                                                                                     .                                                                                       X             O       O                   X             O               +                       O               +                                                   .                   X     X                                                             +   X   X X         O         O     O     X     X           O                   X   O                       O               O       X                 O       +   ",
"      O O                         + +       X   X                     X                                 O                                                                                                                                                             X                                                                 +               O   X                           O                                                                                                     X X                                                     O         O                       X                               O                     O                                                                                                 O                                                                     O O                                                                                                                                                               O                   O                       +     +             O       O                                   O                             O               +                                                                           .   X   X           X                   O                                                       X           O       X     O                                       ",
"                    O O O                                       O   O       O     O         O               O         +       O   O                                                               O                             O                       #           O         X                                 O                                                                 O                     O                                                     X                                                                     O                                                 X                                                                       O   O O                                     O                                                       O                             X     X                                                                                                                               X         O                                   O                                                                                                                         O                   .           . X                               O           O           O                                           X   O       O   O                         O                                                       X X       O       +           O       O   ",
"+ O             +   # 1 1 O     O     O +                     + O           O   +   O     .                                                                     O                                                                                                                                                 O       + .             O                   O             O       O         O     O               X                             O     X         O             X                                                                                       X                                         X                                                                                                       O                                       O                             X                                                 +                                 +     +                                       O           O             O                                 O   O                                                                                                                       O                     X O         O X     +                 O                 .                             X                 O                                           O                       X     +           O         +       O       O         O             ",
"            +   O O # 1 # O O           +     X O                                                                     O   O       O     O   +                                                   +                                           O     .       .                                                                       .     O           X                                               O   O                                                                                 X                                     O             .                                   X         X                 O                                                                   O     O                                                                                                                 O                                                               O                             O                   .                                       O                     O     O                   +               X                                 O                           O       O     O             O       +               O                 O                                 +             O                             O   O     O                                                     O O           O             X                                     O       ",
"        O     O   O O O O O O       O     +                       X           O           O                                         +                     X               +                                                                             +                                                                               O                               X   X   X                                                             +                                 X                                                                                                 X       X                   O                                                       O         O         O                           O                                                             X         X                                         O                                         O                                     .               X     +                                                                         +     +                                                                           + X                   O         X   O       O   +         O   +                 O             O                         .                   O                           O                                     O             O   O         +                           O               ",
"  O         O   O   O + O     O         +                               X   X                       O               O     O                 O       X                             O     O                                                                                   O     O                                                                                           X X O                     O                                                         X                     O                                                           X                                                               X                               O     X                 +                       +   X         O                                                                 X                           X                                                   X                                                                                               O                               O                               +     +             O     +               O                                                             X               @               +             O   +                 .   +                                         O O     O                                     O         +               X                 X               +               O       ",
"              O     +       O   O         O O # O                                                                         O   O       O                                                                                   +                                                                                                               O                                                                                                                                                             O                                                                                                                                                                                   O                     X         O                                                                         X     X                                                                                                                               O                                                 O   O                 O                     O     O                 O             O                                         O                   O                     .   O                                                         +                     +                                           O                             X       O                 O       +             O           O ",
"                  O           O   O   O       + O   .               +                       O                     .                                                                                                                       O         +     O .     O                                                       O       +       O     .                   X     X         X               O                                             X                                                                                           X O           +   X X       O               X   O           O                                                                                             X                                                                                                                 +     O                                                     O                                                                               O                           O               O   O                                           +                               X                                                       +         O             +   O   O + + O O       O               +                             + O                                   +                                     O                                                           ",
"          +         +     O O     O O O O +         . O   O             +             +       +                             +                                                       O     O       O                   O     O   O                                       +                                                 +     O                 O X                           O                                             O                                                                                                       O             +   O                                   O                   X                                                                       +                     X               +                                                                       X       X                                                                           O                                 +                         O                                                         O                 O     O                                                             +                                                             O         O   O   O O O O + + O O   O O               X                                                                                                 X         X   O   O                       +                   +     ",
"  O               + +         O O     O         O               O +         O                                       +   O                                                               O                                                     +   +               .                                                                                   O                                                     O                                                                                       O                                               X                                                                   O                                                         O                                                                                                             X   X                 X                                                                                                                     O           O                                                                 O           O     +   +                                                                             O           X X     O                 +     #         O O   O O + O + O O O +                                                       +                 +             O                                       O         +                           . +   O     .   ",
"      +             O               +                     .                         O                 + O                                       +                                                                                                                                                                             O O     O               X   O   .                                           O           O O                                                             O                                                                     O   X                                                                                 O                           O         +                                                                                     X X                                                                                                 +                             +                               X             O             O     O                                                           X             O                                                 + +         +                             O                         +     O O + O O O + O O   +                               O         +                                                                                           X X       +                   O               ",
"              X   O                                           O                         O       X                       O           O         O +                             O     O                 O                                                       +                                                               X             .                                                                                                               O             O                 O                                   O X                   O         O                                         O                                                                       O                               O   O       +                                                                 X                                                                                                                                                                 O                               O                 O     O         X   X                     X             #                   O .         O                             X O                         O         O O O O O 1 1 O O 1 1 O + O O             X               #         O                                                   .       X                   O     O       O               O                           O ",
"            X                       O                                                   O                                                                                             +                                                                                                     .                                                                                                       O       O                                                           O                                                                         O                 O                                         + O   .                   O                                                                 O       O               O     .                                                                                                                                   .     O                                             .                         O                                         +     O         O       O                                                 O           O O                 O                                                                   O O O # 2 n @.$.M 1 1 O O +                               O O     O                                                           .               X       O                                       +       O       ",
"    O                     X       . #   . O + O                               +       O   O   O               +                                                                                               .                                 .                                                                         + X               O             O           +                                                               X                             .                                                                                                                                                                                               O                                       O           O                                                                                                   O                                                     .                                                                                                               .               O     O     O                           O         .             #   O O           +     . +                   O +       O       O O                             O O O O 4 M *.&.*.4 1 2 1 O                         O O                                                                                 X X       .               +     O                     O               ",
"          +                   X   +           + +                           .     +     O   O O     X                                                                             +                                                                                                               O   O                         X                                                 O                                                                                   O     O                                                                   O       O                             +                       O       O                                                                                               O   O                           .                             O                                     O                                     O                     O           O                                 . O                                                           +         +       O     O                                     #         .   .   .   O O     O                                                     O                       O +   O   O 1 1 M *.&.=.4 1 1 # O         O                                                                                 .                                 . .                     O             .   #   O       ",
"                              X                               O   .         O +           O           O                                                                                                   O             X         O   O           +                                 .                                             X             O                             +                                         +                         O                                                                                 O                                         +       O     O                                                 .                                                           O O O               O         O                                                   O           +                           O                                                                                                             X       O                                                                   O O               O                                       O                                 +       #                               O           .     O O O 2 0 n N 6 1 + O O O                   O                                                                 .                                                           O             O                   ",
"                  X   X X             +                         O   +                                                     . O       .                                                                     .   O     +                                                                               . O     O         O                                                                                                       O               +     X                                                             O                     +                           O                     O                     O         #         .                                                                                       O                                                                                               O                                                                                         O                                                                               O         +                         O         O     O             O             + X   +                   O                 .       .     .                   O             + O O O O 1 1 # O O O O   O                 X O                   +                                             .       . .                           O       +                     .   + .                   ",
"                X     X X   X X                                   +                 O   O                 O O   +                       .                                                                                                                                                                           O                                     O                               O                                                                 X X                                                                                               O                                           O   O   O O O O                                                                                           O                     O                                                                                         O                                                                                   O                                                   O                                       O     O                                                                 X                     +   O                   O     #                         +       O     O O O 1 O O O O O     X                                                                   . .     +                               X                             # . O             +             O       ",
"                  X         X                         #   +                                                                   . .   + .       + O     .                               +       .     #                                                                                                                                             X                                   O             O                                                           O   O                                                                         .                               +                         O O   1 &.6 O   O                                                                                                       O                                             O           O             O             O O                                                                         X                                           O     +                                                       +       +       O                     O       O   +     O         O           X                                                                               O         O     O O O O O O             +         X       . O             .     O         .                         .               +                                             +               O               O   ",
"                        X                                                     #           +           O     +                                         .                   O O                                                   X                           X                                                                                   X                       .       O                 O                                                                         O                                                                                                                       O     O O 1 $.4 O O   O                                     O       O                                   O                         .     .                                                     X         O   O     .                                                                       + O                     O       .                                                             O       O       +             O               .     #               O                   +                   +     O                                           O                     +             # O O + +   O                                     O   O   .                     . .         .         + .                             O                               O               O           ",
"                +               X                                     +         O       O         +                                             .   .   O   . O               O                                     +         O                                                                               O                                                                                                                                                                                                                                                                                           O   O n 2 O O     O                   O                       O                                 O                                                                                               O                       #                                                                                                                                                               O                                     O                                 O                                                                 O                                         +     + +   O   O X                                                                                 .                                                 X                 O                               O ",
"                  X     X   X       X X   X                             +             +                                                                                 O     .                                                                                                                             .       O                                                     O         O .               + O                                   +                                                                                                                       +                                     O   # 8 4                                                 X                                                                                                                                           O                                                                         +                                                                                       O                     O                           O               +                 O                     +                                                               O         +                                             X                       +                                                                                   +         +       O O                                           ",
"            + O   O                                                                                           +                             O           +   .                                                                     O X                 +                             .                                                 +                   + O                                                 X         +                                                         O O   O                                                                       O                                           O O O   O                                                   +                           +     O                                                                                                                                                                                                                                                                       O               +     O       +                             O               O         . O       +                                 O   .           X     +           O             +               .     +               X +     .                     . O     +                                                 X       X                     +                   +             O +         O             O   ",
"                          X                 +   .                         . .                                                     #               O                         O     .                                                                                                               .     O                       O                                   +   +                                                               O                                                                                 O                                                                                                               O     +                                 X                 O                                                                                                     O                                                                         O                                                         #                                 O                                                                                                                                                                 .                                                           +                                                                                                 X             O                         O               X                       ",
"                                                                                                          +                   O                                             +           .         O     + O                         O       O                                                                                               O                                                                                                                     O                                                       O                           O                                           O O                                                                                           O       O                                             +                                           O                                                           O                 O                                                                                                           O                 O O                   O             O                                         O                                               O                       +   .       .                       O                   +           O           O                                                                   .               O                 O           O                         ",
"        O                                             +     O                                             O                       . O     O           +                                                             X                     O                     O       O               .                                                           O                   O                   .           O               O                                                                                                                                               O               O         .       O                                                   +                             O                                                               .                                                                                 .                                       O                                                                                                                               O                 O   O .           O       O   + O                           O                                     # .                                                   O                                     #       O           O     O                                       O         X   X   O   O O     X X       O               O                 O           + ",
"                          O +                         O   O       .   .           .                                                   O         O                               .                                                   O     O                                                           +                                                   O               .                                                                                                             O               O                                                                                                                                                                                                             O                                                                                                                                                           O                                                                                               +                                             O                                                                                                 O                                                             +   O                       O             .                           O                                                         X         O           O         O       X                       ",
"                      + O                       O + +                 O           +                                   +           O                       O   .                     +             O     O                                   O                                                           O   O         +                                                 #                                             O   X                                                     O                                                                                                     O                                                                                                   O         O                       O     #                                                                                                                                                                                                                                                                     O                                                     #                                                                                             O   O                   . O             O             +                         O O               O           +       .                 X         X                             X                 O           X                 +   ",
"  X                       +                                 O         O             O + .               O           O                                                                                             X                                                       .               #                               X                           O                       O     O                                               O       O                       O                         O                                                                                         +                                             O                                                   O               O                                                                                                                   O                                 O                                                                             O                                 X       O     X           #                   O       O                       O                                                     O     +                 .                                                       O     O         O       O             +                         O   O         X         O     X                 O   O                               X   +       O                       +   ",
"                                    O               O   +                                                                 O                                                                             O                                                                                         O                   O                         O           X                                                                                           O                                   O                                                                                                                                                                                                                                   O             O           +                                                                                               X                             O                                                                                                         +                                                                                                                       +                                   +       +                                 O                                                                                               X             + O                           O                   O                       ",
"+         +               +                   +                                                               +             O     O                         O                                                                                                                                                     O                                                                                                                                                                                                           O           O                                                                 O                                                                                     O                   O                                                                                                                               X                   O O   O                                                                                           +                                                                 O                                             X                       O   O                                                                       O   O O O               O                                                     + O       O       +                                                                                               ",
"                                                                      O O                                       O                                                             .                           +                               +                                 O                                                             O             +     O               O     O                                                           O                 O                                                                                   +                             .                                                                                                                         O                           O     O                                   O   O                                                         X   O                                                             .               O                                     O         O                 +                                                     O                                                                   O   O   .         +                                             O                                 O           O O                                   O         O                                                   O             O   O                     O O   ",
"    O                   O                                                             +             O             O                                                                                     +       O     +           O             +                                                                                 X       +                                                                                                         O             O                                                                                   +         .     +                       O     O                                                                                           O                                                                                                 O                                                                               X                                                                                     O               O             O       O                                   O                                                 O                                               .       .                 O     O               +                               O         O O   O         O   .                 + O       O                         X                           O     O       + O O                   O     ",
"            X       O           O                     O         X O         +                 O   O         +                                               .                                     .             X               O                                                                                                     X                                       +   #                                         O                     O                                                                                                                     +   O     O         .                                                                                                 O                         O                   O   O                                                                                                                                                                           X                                         O     O     O         X           X   X   +     O                                                                     X                       .                                       O                                                               +     O     O     O O       O         +                         O                         O                                 O                                     O ",
"            +                     . O                         O         O       +       X                 O         O     O     O                     +                         O                                     +                                                                                                               X                                       O                                       X     O                                                                                                                                                     O                                                                                                                                                                                                                                                                                               X         O                                         O           X                           +             O               X             O               O                                                                   O                                                                                                                               O   O     O                       +     O           .                                                             X       X           O           ",
"                        +       O     O       O #     O                               X                                                         O       O                         . O                                                                   +                   +                                                                                           O     .                         O                                     O                             O                           O                                                     . .   +                           .                                                                                         O               O     O                     O     O                                             + +                                               +                               X       X                                                                                             O                                                       O                     +                                                   O                                                                                                             O                 O O   O     +   +                     O O     +           +   X   O                                               O               O     +   ",
"                      O       O         O     #                             O               +             O                                     O         O                                                     O                                                                                                   X X     O                                                                                                                                     O                                               X                                             + 7 o                             @                                                                                                                                   O                   +                   X           @ +       O                       X                                                         O                                                                                                                                           O                 O                                   O                                                                                                               O .                                             O     O                                 X         X X                                                       .       O       O           ",
"        O                       O     O O . O                                         +                       O O                 O O       O               O                                   +                     .                                                                             X   X       X                                                                                                                 O                                                                                                                           O > B 9   #                                                                           O                                           O                                                                                       +                                                                                                                                                                     X                                     O O O       O                   O                         O   O                               +             O                                                                                                                 +                   O O     O                   + +               X                                   .                                         O   O     O   ",
"                                .         . O   .                                                         O                       O                       O               O O     O                   X                           X       X                                                                                                                                       O           +                         O                                                                                                                                       5 % 2 #       +                                                                                 +   O       O                               O                                                                 X       O   +                                                                                             O                                                               X                         +                   X       O                             X                         O   .   O                                               X                                     O                                                                                                                                     X   X                                                                       O         ",
"              .                 O                                     O   +       O       +         X               O               O                                                                   +       O .             X                                                                                       X       X                   +                                 +                                   +           +   O                                                                                             O O                     # : % O #                                         O       +                     +               O                                                         X   X                             +                                                                                     X                         +       +                                                       +       X                         O O           +     @ O                                       +                                                           O           X                             X   O                           + +                                                                                       + X     X       +         +             O                             X                           + O     O O       ",
"      X               O     O               O             O   + O       + X +             O         O                                             X                   O O                                                                                                                                     +             O                                             O                                             +                                                                                                                                     O +     O             +   O         +                                                                                                     O                     X                                                                   O       O                                                 X             O                                                                                   X                             +   @ 7 :   X                 O         O                                   O         O   +                             X                             O                                                                                                           .     O                                                 O                                                       + +               ",
"              +                     O               + O             X X         +     X                         +   O             X                                 +                                                         O                                                                                         O                                                                       O       .                                   X     O               O                                                       O                                     O                           .             X                                                                                                                                                                                                                                           X   X                       O   +       O                                                       X                                     . + 7 9 9 + O     O       O                               O O                                                                   X               O                                                     O                       O .                         +                       +           +             X   X                                   +                                 + O + O       ",
"          +                       +   + #             @           @ X +   O                 O             +   +                     X     X                       O                                   X                                     +                                                                   O                 O                           +                   O                                       O                                                   +         +               X X                                                             + .                       O     X       X                                                                                                       X       X             O                                     .       #                                     +                     X     O                                                                                 X   X                                           @ 5 X   O                                   O                                           O   . O                       X   X             X                                           O   O         O   O O +                                                                 O             O                                       + .                             O O               O +         ",
"                      +                           +         +     @ # @ O                 +     O                   O             X X     X     O                         O     +                                                                               X     X                                     O         O     X                                                     X     X           + +                               +                                                         X             +                                                           O         O                                               O       X X                                                                     X           O       O                                           O O           O                                                                   O                                                                                                 +               O               O                                         O                   +                                                                                                                                                                                     O                 X             +           X                     +                   X         +   O O   O               O     +   ",
"          O                                                       +   + X O           +                       + X                 O X                                 +     .                     X X                                   O                           X X                                               O       O                                         X                                                                                       O                                         O                                                           O                                     X                                 .                                                                     O                 O       +                                                                                                                                                                                               X   X                                   O                           O                   X     X     +                                                                                               O           +                   O               O                     O                                   X                 O   X                       X +                               .       #             + + O X                 X     ",
"                        X             +     O                           +                           O                                 X . O   + +     . X                 +                                                 O                                               X                                   O       O   O                                                               +                                                                           X                               O                                                                   O                     + .       X     X                           o +           +                                           +                 +   O   X                                                                                                 X                           O                                                                                                           O                                                 O X                                                               .         .     +                                 X                                           O O                           +                             X         O                                     o @ X                                               O 1 # O + O         +       +     ",
"                              O O                             X   + O                     O                 O     + X                         .         X                                                                                                               X     X                                                         O                         O           X                         +                                 O                                                                                               O               O       O                                             O                           + 9 *                                                             O                           +                                           +                                 .                                   O                                                                                     O         O                                                                               X         +       .                   O       O                                                                                     O           O                                                                     O     + X   .         O     X       .     X +                               .               O O O   O + O O     X           O ",
"  .       O       +         +       O O         +                                   +       . O O                   O           +   X + . . . + o +                                 +                                                       O +                                                                       O     O                                                       X X             O                                                     O         X             O                                                             +                                   +                                                         + .                                             O O                                                                                         #       O                     O O .                                             O                       X                                                                             O                                 O       .                                                                                                                                                           +   O         O                           .                     O X                             X                               O           .       .                   O O   O O   O X         X         ",
"                                              O   +         X X +               +         #                       O X           +     . . . . # #       X                           O                       +                           +                                           O                   O O               +                                                           O     .       + +                     +               X             O                                     X                                                   +             O                             X X     X                                                                                   O   O                         O         +                                   O         + +         .       O                   .                                         +               +                                                 O       +                       O         X O                 O   X                 +                                     +             O                                         X +                       X                     O         +                                                                           X                                   +                           #                     X     X   O O O O # O   O O       +       + ",
"                                                                    X       O     O         +           +         X           O   X o @ # $ % o X             X                                             X   +                                                             O   X                                 O                                     X                           +                                                                                                           X                                                     O   O                                             +   O O       O                                                                                                                                                                   O                                 O                                                                                                                     O                                   +     O   X                             X   O                                   O                     +               +                                                   .   .                                                                     X           X                             .       + + . X X .     X                                       X     O   O O 1 # 1 O O   O               ",
"                  O       + O   @                           X       X     O +         + +         O                 O         + X X @ > x w $ o o .   X   X                             O         X       O             .             O                                         +                 O   O             O                                                                                   +                             X   X   X                                                                                                             O             +                   +     X         +                               O                       O                                             O                                                                                     .       +     .           O             O                                                                     .                   O                 O O                                               X           +           X       X                                                           .         O                                                       +         O             O                                                             X             +             X X X X .                                       X             # 1 1 n m 4 O + O O     +         ",
"              O                                 +             X       O +                         O     +                       X @ : - PXUXw $ %   X                                                                                                                     +           X                                 +   O .               +                                                                             O           X     X           O           +                               X                                                         O                                                                   X                                                                                   +         O         +                                                         O   +       . +     + +   +                                           O         O                                             +   O                                                                                           O                       O     O           O                           O                           +           X                                             O                                         X         X         +                   O +     + o X X X o o X       X                 #                       O O O O n $.@.=.# + O O               ",
".   #                         +                             +                                                                   . # : > PXPXw : : X         .                                                                                                                   +                                                   O           O                         +                                                     + + . + +     X                                                                       O     O                         O                 O     O                   X                                                                                       O                                                                                                                       #   + .     #   O                                                   O             X                                                                                                   O             +             +                               O                                                               O       O X                         O             .                               +                             +                           O           + o o o % . #   .                           O             X       O 4 6 $.=.=.# O O                 ",
"+                   +   X             + @   O   O                     X       O               O             +     O .         + + % % > e x > : % X X                                                                   O           X                                                                           O                           O     +   +                                           + O             +       +       @ @ o . @ X X                           + O                 +                 +       O                 O                           O                                         +                                                                                     O                                 +                                                         + +   +         .   . . + . . .         . O                 X                             O   +           +     .   + .         +           O   O                                                                                         O                               .     O     +                                                                     X                           +                         O         +             +               O                         + .   o o $ o . % .   O .             . O       X     X     + +     O O O # 1 b 6 0 1 O   O O             ",
"O   #         .     .       +                                     @                   O                                       O O + + o @ % X X           .                                                                                                                                                                           O           +                 +                       O     .           O                   . . X + o X     .             O             +                         O                     O       O                                                                           O           +                                                         O                                                                             O                             .         X . # # % $ . . # .                       X                                         O                               +       O                                                 O                     +                                                         O                             O   O                                 O                                 O #         +       O                                     O                       O   +                 . . % S $.$.> o   #                                 O   X O     O   O O # 1 O 1 O O O O   +           ",
"                  O                                 +                   X                           O     O                   O +   . + o % X X .                                                 X                                                                                   +                     O               O                                                     X                                       O         . * * 9 @ X       . +                                                                         +                                                                                             +                 O                                         O                             O       O   O                                                             O   + X     . . > B N w % % O O .                                                                                                                                                                 O   O       +       +                                                         O   .         O                                               O                                                                                                                                 +     . . = ,.,.,.e . .   +               .     X           +           O   O O O O O O O O O             O ",
"                                      O       .     +                           +     +                     +             O   O   +   @ + * X         X     +                 O                           +       O               +             X                                                                                 O                                     X     X X     +     O   O                       O               . X 7 :                                     X     +               X +                                         O       O                                                 O     +                                   O                                                                                                                                         X     X   X . o N PXPX} $ o + .   .                                                                                                                                               O                     +   O         O                                                                                         X                       +     O                 X     O   O                               +                 O                     + +   X     O   X             +   .   o % %.*.*.% . . O     . O               O     O           +   X   O   O O O O O O                   ",
"              .                         +                   +               + O         +           O                     X O O +   +   X     X X X X       O                                                                                       X                                             O     O                     O                                         O                                             X   +               + X X X   X                 X                                     +         O                                           +         +           +                               O                                                                                                                                                                                 O     # % x ,.LXS > @ + .       O                                                             +             O                                                                                                                       O                     #               +                                                                           X                   O   +                 +                 O     .           .                           O         #     . o # % $ $ % # .                 +                 O       X       + O       O O               + .   ",
"                                  .                     O       O         +           O                   O O             X O     O       X   X X         O                     X   +               .                                                   .               X                                                         O     O                               X                               O                                                         X       X                                                                     O           O                                                       O                                                                             +                                   O                           O O                                 O     +   . . % $ # $ $ .       +   .                               O O                                                     +                 O                                                                       O                     O     O                               +                           X                         O                                   . + +                     O                       . O .                         O O       O     X +   O O .   . . . .   O . O O         .               O   O                 +     O                       O ",
"      .           O       O                                                                           O                             +     X           O               X       O                                                                                                 O                                               O     +             O O +                   O                                                               .                 X                           O +                                 O     O         O                   O               +   X                                       O     O                                                                                                                                                                 O   +   + . . # $ % # @ . . O           O                     O                               +       O     . +                                                                                                 O       O           O                         +         .             + .                                                     X                               .                               X                           X   +                   O     +             + . . # # +         O       O             + #             O                   O           O       + ",
"      +                             .     +                   X             O                     + O   O       X         O           X     X             X                   O                         .                                                                                                   O                                     O O         +                                                           O                     X                                                     O         O                       O                                                                                                                                                         X                                                                                                           +   @ + . @ + + . .   + .                                                       X X                                                                                                                     O +                                                                                                                               O                                                                                                 +                           O   O + O #   #   O +   O O O                 X   X           O       +   O                             O ",
"        +         O           O O       .     +       X     O           O       .             O                   X                   X                       X                                   X     O         O                                                             X                                             O   O                                           X           O                                                                                                                                 O                       +                                       O                                                           O                                       O                                                 .   # .                                           O   O     +     X     + +   O                                                               X   X X         @   .                       +                                                                                     O           +                                                                                                                               # .     .                                   O         O                               O           O             O   . #                                             O       +                                     ",
"                  +                       O       O X O                   X       O   +                           X           O     X       X     X                 O                                           O                                         X                                                                 O                                                                       +       O         O         O   O               X                                                   O   O             O     O                                                                             O     O                                                         O                                                                         O                                                     +   + + + +   +   .                                                             X X   X X   +         .                                                                                                                     O                                                                                           X                                 .     O                                           .     +           +                         O       +                   O     O       O     O       O                         +                                     O ",
"                        O         +                     X               O                     .                       X         X       X                                     O   +                                 O                                       X                                                 O O       X                     O     O                                                                   O     O   +         O                                 X             O       O                                       O                           O                             X                                                                                       +               +                     O                                                                                     @         O                                                           X                 # .                                                                                       O   +                                                                                                 X                     X                                                     O                                         +                               O         .   O                             O   +                                             O     O                   ",
"                    O                         +         +                               O                 O                     X           X     X       X X                                                                     . O                             O           O O                                                                                                       O                                 O                       O #         +     O                         O         O                   O                                                                     O                                                                                                   O                                                                                                     +   O         + +   O                                                                 X   X       + 9 B 0 .                                                                     O               O                                                                                                     X   +                           O                         O .                             .                   .       O                         O       O   O O           O   +       O   O O O O       +           O         O             O O                 .             ",
"        O           X       +               +                             O                       +                                   X X           X     X     X                                           @ X                 +       +   .         + X                                                                                                                   X         O                               O         O         O       .               O                                                       O                                                                                               O                                                                                                                                                                                       +   O             +               O         +                           O +   X   X X     X   9 N 0     .                               O               O     @                   @     +         O       O           O                                                   .                     O         +   O           O                     .     O                     #           +                                                                                   O O   O O       O   O +                   +               +                               O       ",
"                                O       +                             O         +           O     O       O         +   O                             O O                         +       +               +                                                                           O                             .       X   O                   O                                 O       O   O                                         O             .                                                                     O     O         O                                                                                                                                                                                                                                                                         O                                                                             X +   O % % # .   O                                                                                             O                                     O O                         + O                     X   O +                                                                 .                                                                                     O           O     . O     O     O O   O         X                                     +                         ",
"                  X X                                     O                 O           .       O                                 X                                   +                                               O     @                                                             O               +           O       O +                   X     O       X         O   #                   O           O           +       +                                                   O       O                                                                                             X                 O                     +                   O                                                                                                                                                                               #                                                   + X                     . .                           O     O O   O         +                                       O             O     O                 O                                                           O             O                       O       +           O                       #   +                                         +         +     +   O             O .                     O   O     O         O               +                           O +   O           ",
"                  + O                       O             .                   O . O   .     +             O             X     X   X                                                           O O       +                                                                                     +           #                   #       +                                   +                                       O   O     +       O                                 +                           O                                           X                                         X                                         O                                                                                   O               O                                         O                               #                               #                                               +             O                 O   O         O     O                     O       +                   +     O         O O                                         O                                       O         +                                                         O                       +                                                           . O   O     .   O                                         O .                   +   X                                         ",
"      O                                   .               O           O #   O           .           X           X X X X           X X                 #                                                                                                   O           O                                             + +                     .                               .   O                                                             +                                                                                 O                                                                                                                                                                                                                                                                                               O                                                 +     +                 X       O                               O                                     O                                                 O O     O #             O             O                                     O                       O O                                           .               +                                                                           .                                             X                                                 O       ",
"        O                         O               O           O                                                   X X X               O           O                                       O                                     O   .                                               O                                                 +                                                                                   .               +                 .                                                   O                                                 O                   X                 O         O     O                                                                     O O                             O                                       .                                                                     .                                                             X O                                                     .                                               O O       O               O             O         O         +           +                       #                       O                                     .     .                                     O     O                                                                             +     + .             X           X             O                           .   ",
"                                +                 .                   #   .   O     O   +     O X     +     +                                                   .                   # +       O                                     O                                           +                           O                                     O                                                                     O                       .                 O                         O     O                       O                                                   O                                             +   O                                                             O O                                                         +       .           O                                                                                                                                         .     O                     O                                 +                                                     X                                       O                                 O             O                                   O                                                                               O                   #             #         +           O       +                     O     O         O             +         . O       ",
"        X                                                   +   O                         O                 O         X     X         .                   #             O               O                                 .       O                     O               +                                   O                                 O                                                         O                                                 #                                 O                             O                                                                                                                                                                                                 O       #                                                                                 .                                                     +         O                           O                                             #     O +             O                                     O                         X                     +   O                             O                         O                                                                                                 + O         +                   .                             O                     O +                                 O . O         O               ",
"                                      O + +       +       O .           .   O     O +                                       O         @         #     .                           .       +       O       +                                                                           O                 O       O                                                                                                                                     X                   .                                   O     O                   O     @                 +                     +                                                                             O                                                                   .                     O     #                   O   .   O                                                                   X                           X     X                                                   O       O           +   +           +           X     +   O                       X   X X                     O                                     .       O   O     O       O                                               O     O                                                   O                       #                             .       .         +   .                                                             O   ",
"                O                                     O         .                         O       O             +       @                                     .   O                           +                                 O                                                               .                         .                         O                           .     .               +               .                                                                   .                                     O                                                                                                                         O                                                               O                                       O           O                                 O                                           .                                   .     +           O               #                           O                     X   +           +             +     +                         X                               O                             O                                                       O                     .                                 O   + +                       O                 . . O                       O     .                             O                           O         O         ",
"+                   +                       +                       O                                                                           O         O         .             O O                                                                                                           O           #             .                                                                                             .           .                                     X                     O                           O                   O                   O       O             +                                                                                                                                     O                                                                                                                                                                             O   .         O                         O                                   X O           O                                   X                               O             O                                           O O                                                                                                                                                     O                                                           O                         O           ",
"  +                           O           .     O                       +               X                                                                             O       +   +     O                                                                     +                               + O           .     O                           #                                                                             .             X                                                                         .           +   O   O .                         O O   O                 .                                                                                     +                         O   O   O                                           O                       +                                   .                                               O                                 O   O                                                                                                     +                 +   . X   +   +                                                                 +             O                                         .                                     O                                                             +   +             .                   #                                       .                           ",
"      O                       O         O                         O                         O X     +           X             X                                                                           .                                                                                                                   +     O                                                                   O                                                     X       X X   +   X X         +                                                               O     O         O                                   +     O                             O                                                   .                                                   X                                                                                                                                                     O                                                   #     O .                             O   O           O                           .         X                       X                                                                         O                                   #                                                                                             +     +                                             O         O                         + ",
"+                                                         +         O             O       X         +                                         O #           O             O               O     O       .   O                                                                                         O           O             O   O                                             .   .               .                                                       X +       X   +     + O     O                                               .             +             O O   O                                                                     O     O                           O           .             +                                           +               .                     O                                 O                                         O                                         + +                                                                           + +               +                       + X   +   . +       X     X                                       O     O   O                             O   O                       +                     +                           +       # O       O             O                 +           +   +                                                           O       .     +             ",
"                    +             O                 #       O               +                                                         O                   +           O                                                                                           .               X                                       O     O         .           .                           .                       +               .                                                 . : 9 @     +                   #                           O                                                                                                                             O O       +                                                                                                   .                                                     O                   . +               O                             O       @ +         O             +     O             O           + +                                         O           +   . + X @ . X +                                   O                                   O         O O           #                         + O                                 +   O   +       +                                             O       +         +                 O . O                         O @ +             #                 .     ",
"                            +       X       +       O         O       O                         O           X                             O O             +                       +       O                                     .                                                     X                 O                                                                     .                   +                                                                   + +   + S $.9 .   O                                                                                   O   O                                           +                   O                 O               O                                                                                             .                                                                                                         O         O         O         O                       +                                                         O     +                     O O   X o o o o X .             X               +     X                                 O                                                       .                                               O                   O X           +           O                                                 O         O         +             #         .       O   O ",
"                      O           O             O         O O . O                         X                                           .             O                     O                                                                             .                                       +         .       +                 +         .                                                         +                                                                   . @ *   +   O     O                                                     O             O           .               +               O                                                             # .   O O                                                                                           O     O   O                               .                                                 O           .                             + # +           O                           O               O                 +   O                   O         + . + o : > w - % o     .                           O                             O                 +               . O                 O                                         +                 O         X                   +             O                             + O       O               #                                     O           ",
"O                                                                                                       +     X .             .                     .       O                 . .                 +   O       #         X                         .                                       +   O     +         O               O + .               .                                                 O                                                                   .     # 0 O   O O     O                               O                           O                               O 2 9                                                                               O O 4 4 O   O                               O                                                                                                                         +       +         O                                                               .       O                               O               X       O                 O X             .   % > #XLXw $ & X X                     .             O                                   O         O                   O     +           O                           O                                                       +                     + O           +         O       .         O         +         +                                   ",
"                X       O O           X         O                         O         X                                 .               O                                                                                         @ .                                                                                     O                                                                                     O         O                                             O .   +   +     #     O                         O               .                             O                       2 2 O O                         O                                                 O 4 m b 4 O                                                                                                   O                           O           O                       O                   O           O                                   O                                                                 +       O                 +           . # . > LXUXx : o     X                                                               O                                                     +     +                                   O                                             O           #               O                                                   +   +                         O     ",
"            +               O                                             X               +         O             +                               O               .           #                         O                                                                                                                         O                   .           O   O                         +             O         O   +                                         X       O     O   O                                                     +           O                               O   O       .                                                                       O 3 n b 3 O                                                                                                                                                                     O                 O                           O           O       +                                                                     +             O       .         +   @ % > ,.,.e 0 : X X X                                                                                                       O                                                               O                       O   O                                     +                 O                       +             O                               ",
"                  +                   O                   O                     X     +     O                   .                   #         +                   O                               X     .     O +                                                                                             X       O                                                       O           X     +                 .                                           X           +     +                                                                     .           +   +     O               2 O     O                 +                                                       O O b 6 1 O             O                                                                                             O         +                                                 .   +                           O                                                               O                                           +         .     O         O +   @ % 9 > $ % X                                                                                   . O                 O                 +   + O                 +       + .                         . +         +                 +   X                                                                 +     O                 +           + +       ",
"                    +   O       O           O       +                     X                 +   +               O                                                 +                                                             O                                                 X                     X                       O                                                             +   +       +                                 O                                       O                                                                                                     O #                                                                                 O O 1 1 O O                                                                                                         O             O   O     O                     .               O                                         O                                                                                                           +                 +   X X @ % o + X         .                         +                                                                                           +                     +                 O       O                               O                     X           +                       O   +                                         X         O     ",
"              X                                 X   O                                 +             +     +           +             O .         O   .   O                                 X   O             O                                 O                             X                                             +               X     +                 +                             +                                       O .                   +   X         X               O                       O                                                                 +                                                                                 O     O O O O O O                                                                                         +                         .         O       O                 O         O                                                 O     O                     O   +         O                                                     O                 O       O + O X @ + % . .   X X       +                                                                               O                                                               O           O                     O               #             X                             +       O   O         +   O         O     O         + X     X O               ",
"O           +         +             O     O   O O O +       X                           X             + X                     +     O                                         O                 +           +                   +           O                         X     X X                           X               X       O         X                   O                               + + O     . .                                                   .                           X     O                                   +                                                       O                   + O   O                                       O           O O   O O O O                                         +                                                                   O       O     O O O O O                                 +         +       O                                     X           X           +     O                                         O         O     O                     + + + +   O + +   X   X X       O         X                         O                                                 X                               O                                   +   O           O                             +     X                       + +             O O                                                   O               ",
"                        +                     O       O               + X           +         +     O       +         +                                                   +                 O                                                                   +               X                       X                 X   O                       .                     .     X             o #                   .                                                         +                                                                                                                 +                         O                                                     O O O                                                                                                                 +     # O O O + O O O O   O O         O           O                 O         O     O                                     + O   O O O               X     O                                                 O               O   O   X X       X X +   X     O                       X O       O                               X                     X   X X                             .                                     .   .   O               +                         X         O O                                 O     O   . O                       O       O O .         ",
"                        O               +                                 O         +           O             X                 O                                   O               O       O                     O                                                               X           X               X                                         O     O +         .                     +           #                                                       X                         +                                                           +   +                                                                                                           O         O                                                                                                       O             #     O O O 1 1 1 1 O O O O                     O     O       .         O                     O             X   X         X     O             X                                                       O                           +                                         O               O       +                                                       X     X         O                 #                                       X                                   X                                               O   O .               @                   O O O + + +   O   ",
"      +       + O           +       +       X   O             O                         X             X                 O                                               +                 O             +           O                             O                               X     X             X           O O #                   X                   .   .                     X             .                   +       .                                                     O                                                                       +                                                                                                     O                                       X                                                                             .             O   O O O 1 4 4 3 1 1 O O             O                                   O           O                       X X           + 4 n 4 O +       O                                                 +   O                   O   X     X         X           +                     X O                         O                                               X               .                   # . O                 O             +           O O       + .           O           X         O                                   +                         X       O O # B &.n O O     ",
"          +                         O         +                             +         O                                                                         +       X                         O     O     X                                   O                   X               @               O           + O               X                                                           X                   +                   +                                                                 X       X                                                                                                                                                                                                                                                                                       O O O 1 1 b b 3 b 3 3 1 O O       O                         .                 X               O               O           O # 4 n 6 O O X   O     O                                                 O O       X                   X         X                               O                                                       X         +                                             .                                                       X   +                   O   O             +     +                           . O             .                     O n =.0 #     O ",
"                  +       O                             O                                                         + O @ +   +           O     O + O                   X           O                       O     +         O                                                       X 5 7       X                                                                                                                             + X   + .                                                                                                           O                                         O                                                     O                                                                                                                       O                       O     +     O O # 3 b b m b b 3 1 O O O   O                           O                   X       O   O                     X   +   + O 4 4 # O                                                       O                   X       O     O     X                       + O       O                     +                                                                   X   O         . +                   .   O               .         .                                                                                 X       #             O                 O   O O O # # # # +       ",
"              +           +               O                                     +       #   O     X                               +   +   +               O               O             X       +                         X                             +                     X     X             .       O   O     +                                           O     .                                                 X             +   +                                   .         X                                 X                                                           O                       X                                                   O                                                                                   O                                       O     +     + O O 1 3 m KXKX#.m b 1 O O O O                           +                                                                 # 8 M 2 O                                                   O                 O     X X             X         X     X           +                                                                   O             +                                 +                                                                   X           O       +   O                           O     X                                         X X     X   O + O     +       ",
"    O                 +                                 O     O                   +                   O         +       +     +                           X                     O O           O +                 O   +                                                                                     O                     X                                   O                                                   X       .           .                                               X                                     +                                     O                 O                                                                                                                                                                                                             O O O 1 3 m &.KX@.m b 3 O       O                                                                               X           @ 9 9 @ +                                                                                                 X                                           O                                                                     X       X                                             O                                               + X   X     O                     O               X                                                 X O     #         + ",
"O           X       X O         O     O             O         X             +         .                                     +               O           +           +             X                                                   O                         X                 X         X +           O   X           X         X     X                                 X                             X     .     .   +   . + X .   +                                                   X                   O                       O                         O                                                                                                                                                                                                     O                                 O O O 1 3 m &.&.#.m b 3 O O O   O                                                     O           O           X X   X       O O     +     X                                                             O                   O X     X X   X             +     X                                                                                       X X                       . O                           O                                                   O O       O     X       + .                     +             +   .                         O   O       X     + +   ",
"    O O O                 O                                   O X                             .                                                           X       O                 O                       +   X         O X                                                                               O   O       X                           X                     +                   X       X               + X X . . . X X . .   . .                                                                                                                                                         +                               +                                         O                                                                             O                                             O 1 b b b m b b b 1 O O   O   O                                                               X                                   O                                                         O   O               +                               +               X   +                                   O                                           X           X                                 O                                                           O X           O X                         +                             .                         X                 ",
"    X             X X                     +                 X   +               +       #             O X     O                 +       X   +                                 O       O X               X               X       +     +     O               +                                   .         X             +     +     O                 X       +   +               X                                     + + o $ ; = o X   . .                                                                                         O               O                                     O         O                                                                   O                                                                                                                               +   O 1 1 3 3 3 3 b b 1 O O O   O                                                                         X     X       O                                                                     O                         X                           O               +                                                                                     O         O       X                         +             X               .         X             +             O   +             O       +                                   +                                             ",
"          O   X       X O           X                                     X X         +         X     X     X     X +       O             O           O         X     O     O     O     O               X             X             O                         +                               X           O                 +                     +       + X                             X                   X       . .   @ %.*.} >   .   +     .                                                                         +                                   O                 O O         O                                                                             . O                                                             O                                                               O O O 1 1 3 3 3 3 3 O O     O           X                                                           +       + X                                                                         + O                                   + X                                             +                               X                   O         +         X                                                                                       X X                                 X +                 O     O                               O           X       +   X               ",
"    X   O X   +           X                       X                                                                   O     O   . O                                                                     X   X         .       O         O           O                                                                                   +       + +       O X     X   X X   X       +             X               +   @ @ X %  .*.} > X X                                                                                           O       O                                               O       O                                                                             X                                             O                                                                     +     O O O O 1 1 1 1 1 O + O O   O                                               X                                                   X                                                                       O   O         X   X   X X                                                                                                                   O                                                                                                                         O   O                         O                                             +   O               .     ",
"                      X                               X     O           +                       O                 O                   O #                 +           O O       O O           O       X   X                                   #                                                                                                   +       B 5 O                                                           + o e N 8 X . X                                       +       +                 O                                                                                                                   O                                                 X             O                                                                                                           O   O O O O 1 O O O O   O                                                                                                 +     X   X X             O                                                           X X X X                             O                                                       X                             X       + +   + O     O                                                                               + X                                                     O O         O   O     #           O .                       X                 ",
"                                        X                                         +       O                             +           +                 +               +                                                       . #       O       +   +                                   X                                                               + 7 5           X X X           O                     X   +       .   + X o @                                                               X     +       +                                 O                                                                     O     O                                                                                                             O       O #                                           O     X X O O O O O O O O O       O                                     +                                             +                       X                   +                                 X X     X   X + X                                                       O           O +       O                                                                             O X                                           +                                         O +             +     +         O                   +           O     .         X   O X           +               X ",
"      +       O                             X               X     +                                               +               +                             X               O         +                                                               X         X     X                                       O                                           X +               +     O       X       O       O         . + X % o o + . X   .                                                 X +           +                                                                 O         O       X O           X                                                                 X         O .                   O                                                                                                   O   O         O     O                     X   O                                   +       O             X             X X                   +                                             +     +         X                                   O                                                       O                             O                                   X                         X   X                                       X                                   O O     O   O                                                   O           X             ",
"      O         O       O         +                     O                                               O     O O   O .               + +                                           O                   X                         O O                     O   O X   X                 X       + X             O                       O O                                             O                               X       + X     X +             .                                                                     O                                                                                         O O                                           O                                                             O               O                                   O                       O                       X                                                                                                                                                             O                               O                                                             O                       X X                                 O                                                                                                       +                       O O                 O                                                               . +           ",
"  O           O             + +                       X       X   O           +         O     +                                 +   X                 O                         X         O           X X             .               O       O O     X           O +                                   O                   O                                               X                                           +   +         X       X                                       .     X                           +                                 O                                                                                                             +                     +                                                         O             O                                                     @   X                             O                       +                                                         X           O                               .                       O           +             +                                           O                                                                       O   O O                 O                         X           .                 X       O             O     O                       O       O +             +         +   +                         O                         ",
"                                                                                                                                                                                                                            +           O     O     O                                                 O X                                                         X                                                             X       X     X                                                   X                   O                                                                           X                 O                                                   X                                                               O                                                                     X                                                 O                                                     X                                                                                                                                             O   +         O       O                                 X                                                                                                               O                             O       O       O         O   O     O     O           O                                                               ",
"            O   .                         +     O           X                               +                                           .                   O                                                           . +       O O O     O                                     X                             O   O                                 +                                                               +     .                                 + .                                                                                                                                         X                                           X                                                                                                                                           O                               X                           .             O                   @                     X X X                           X                                   O                                                               +       O                           O                                         O                 +             +                   +                           X                                 X X                                                                 O                               X                   .   .         ",
"          +               O               O         X     X O         +                     +                                         O                   X +                                 O                     O   .         O   +   O     O X             O                       O                                                           +           X                                           +               O                                                                                                                                                                                         O                                                                         O                                                                             O                           X X X                     X             O                                             X     X                 X X                                           #                                                                               +                                                                               +   +                             +                   O             + O           X                                 O +                                                                   + +                     X     X X             +       O         ",
"      .         O         + . +   +               X     O       O                       .           O         O                 O .                                     O                 O     X   O     O                 O     O + n 6       X                     X         O                                                   .   .       X         +                                                                       .                                                                                                                                                                 X       O                                               X                 X           +   O             O                       +                                             O                   O     X         X           X X                                                           X       +   X   X           X                                                                                                               O               O                     O                                                                                                                                                                   X                   O   O           O                       +                                     X                         O .           ",
"O         +   O   +                     X       X   O X               O                     .                               O               +             O         O +             +     O                 O               + +   + O M n                 X X               + O     O                                                                 X       X             X               X                                         +                         +               O                                         O                                                             O O                     O                                                                             O               O       O O                                                                                     X               X   X     .                 O                                           X X                         O                                 O                     O                       X       X                                                                             +   .               @                                                                                         +                   X                 X     O O       O   +   O               O     O           +                     X                       +                           ",
"    O                         + O   O     +     O     O         +           +           O   O O   O             +         .                                                                               O       O               + + 8 4                               +                       O                                                 O O         X X       X           O           +                                                                   .     O .               +                                                                                         +         O                         O                               X             O                               O       O                 O                           O   O                                             X   X         O               O O   O         O           +                           X X   X       X                                                                                               O     O                           +   O                   O                                                   O X                                       O                                                             X           X                             O             O                   +     +           +             X                         +           #   ",
"    #                                     X           O     O           O                   O               +   .           O           X                                     O                         +                     o 5 @   +                     X         X X X             O           .             X                                                                                         O                       .   O                               +                                               O                                                                                                         O     O                                                                     O                                                                             +     +           X   X                                     O     .           +                                                       O                                         .                                             O               +   O           O O                       O                                                                                                                       O                 X             X           O                     O             +         +             O       O                                                                   ",
"            +                                           O           +             O   +               O                                                   O +       O         O     +                                 O     X n N N @           O     + + X                             .     .       O                           +                                                 .         O   +             .                                                                                                                                                                                                                     O                                           O +                     O                     O                       O   #             O                                                                           .         O                                                       +                                           O O   O                                                                       O                                                           O                                             O                                                             X   O   X       X         X     O                                                           .         X   X           X X   +                     O                   ",
"  O   O     O                             X       O           + + O           + +       O           .           O                         + @ O                                                                             X x N B X   +                             +                                                     X       +           +                     O         O                       +       O         O                                         +                         .                 O                             O               X             O                                 O                                       O   O   O             O                                         O         .         O                                                                               X                     .                                                                 O   O O                                         #                                                         O O         O             O                             O                                     +         X                                             +                       O                   O       X                                           O         O         O                           X                                         +                 O ",
"                +   .                                 O       O                             + O     O                 +                     + X             +       O           X                                 O O     O   @ *                                     X       O               O                                                                                     +                               O                                                                                         O                                                                           O                   O                               O                     O                                   O                         O                                           +                                                                                                                             O                             O                                                         O                   O O                                                                                                 +                         +             O                                                                         X   O           O       O         . O                           O           +             O                                                       ",
"                  X               X +                                     X                                                                                                                                     O     O     + + + X         O                     +                                                         +     +       +         O                                                 O     O   O                                                                                         O                                                 X                     O       O   O                           +       O               O                                                                                   O                                     .                                                                                                                                       +                                                                       X       X   .         O     O     O       O                                                     O                                                                             #       .                                             X                                 O   .                                   O               O +                                     O                             ",
"            O +   O   X                               # . +             % : X     +                                               +   +           O   O O                 O                                               +       X       X               O                                             O                                   + .                 O         +                                                                                 X     O   O                                                                                   O                                                       O                       O                                                                         O   O               O                                     O         O       .                                                                                                       O         +                                                                                   X               O O O   O O O O                                                                                           X                                     O           O                       O           O O               O X                                                                     +                                       X                                       ",
"                      X                     O         O O               @ % X                   O                                     + O                                                                             O   X                               O                                       O   O                                       .       .     O   O             O                         O                                                                                                                                                                                                         O                         O                                                                           O                                                                                                                             O                                                       +     +     +                                           O                                                       O     O   O                                                       X                                       .                                                                               O           O     O       + X                     #           O                       O             O                                                           O       ",
"O                           O                         O         + + +   X @ . +                               +                               O O           O     O             +                   O         O   O       O                     X                         O                     .                           O                     O                     +                         O                                                                                                                                                                                         O                 O               +     O           O                                                               O                                                                                                                                                                                                               O                           O                                                   O                                                     .     O                                                 X                     O                                     O                       +               X           O   +   X X     X   O                                                       +         O             X             +                               ",
"            O                   O             + O     O   +             + +                                                                             O         O     +                         X                 O     X   X   O                   X             O         O                                                                                                                               .                                                 O                                                                           O                                                 O                                       O                           O                                                                                         X                   .                       O                                                             O                 O                 O                     . O         O   O                                 O                                             O             +     +               .                                                                       O                                                                   O     O                     +     @     X                 O .         O             O   +                 +                                                           O         ",
"  + O                 +   +       X O                         + #           .                               X         O                     +                 O                 O           O                                 O     X                                                                 O                                                         O                                                                                                     O       O                                                                     +                                                                                                                                 O                                                                                             +                 .                                                       O                   O   O                                                                                                     @ @                                                     X                   O     O                           O       O               O                                 +                           O           O           O       X   O X     +           +       O                                                     +             O                               O O           O         +   ",
"                                O                                     +               X     O                                 .               +                   O                         O                                   X               O     + O   O                           O                         O                   .                   O                         O +                                                                                 O     O                                         O                     O                                                                                     O                                                                           O     O O     O                                                   O .                                                             +           O                       + +     O   +                                                     O                                 % 7 7 +   +   O           . +                         X                       O                 X                         +     +       O                                   O                                       O O     X           + O       . X : o X X                                                                       O O           O X   X                     . O               O     ",
"  O                                   X   +   +           O             O                   .                                   O   X   X         O                 O   O       O                   +     O                                     O                         O                                                                                                                                 O                                                                                                                   O   .                                       O   O                                                   O                 O       O                       O                                                                                                                                                                           O             O             O                                 O                 .                                       @ : 9 @               O         O             O   + O                                                                               O   O                   #                                                                 X     X       X   X > N N N                   O   O           O     O             +                       O                                                             ",
"        O                                 O   X     O     .   O   . O                           X   X                   O               X X                   O                                         +                     O +           O X         X                                                       .                                                                               .           O                                                                                                                                                                                                     O         O                                                     +                   O                                                                                   O                       O     #                                                                                             O             #                                                     # : 2             +               O .                 O                                                                                         O                                           O                   +       X X       O       X   X   7 $.} } +     +         O     O               O             O               O   O   O O     O                                     O                 ",
"                        + X                                 .     .       + +                     O         +             +         @ @ @ @           O                                                         O                               O                                                 O   + +                                         X                     O                   O                                                                                               O               O                                                                                                                         O     O           O                                     O                                                                                                                                                                         X   X         O O       O           O                                                                                                         +                                                               O O                                                                           O         O     .           O                 X                         * x N 8   X                       O     O                       .                                                       O               +     O     ",
"                                    O                     O     .               +                                         O O         + X @                         O             O               O                                                                                                                                                     X                             O                                             O                     X X       O                               O                                                                                                                             .                 O                                         O O                                                                                                               O                                                                                                                     .                     O                   +                     +                 O O                                 O           O         O                               O                                                                           O                                   + X     X       X +                         #     O                     O O             O                                                                     ",
"X     +                                   O                           O     +           . + #       O X                   .       O . .                 O               O             O   O                                   O                         O   X                                     O                                                                   O       O O                     O                                                                                                                                                                                                         O                                                                       O           O                                                                                                         O                   O                                     X             O                                     O       O     .                                             X       +           O         #                           O                                           O             +             O                     #                                               O                                         X     X +           O                   O .     O   O O         .                                                   X     O               X           ",
"O     O O                     O                     +       O     O       O               2 o                 +   +       +     O                         +     O                         O                 O                           O         O       O                                   + O     O O                       .                                                                     O         O                     +                         O                                                                                       O               O                     O                                                                                                                       O                                                   O                                                       O                                   +                               O                           #                       #                         O                   +     O   O       O       O     O                                               O                                                                                             O   O             O   O         +           X       X     O     +       X                     O O O   O .       #                           O                 O           O     O             X           ",
"                O     O                       O                       +     +         +   X + +                                                           +                                       O                 X                                         O       O                                       O       O                                                                                                                                                                                                 O                                                                                                                                                         O                                                                   O   O                                           O       #         O                                                                                                                                                                       O                   O                       O                                                                                                                           O                     O O     O         O                     O O     O                                               O                                                                           O                     ",
"              O         #     +                                                 O       + @ @ @   X                                                                     O       O   +                                                                                     O                           O                   X                                                                             O                 .                                         +                                                                                                                                                                                         O   O                                 O           O                                     O   O                                               O                                                                               #                       O         O                         O                                                                                                     +       O                       + O                                                             +                                 O                 O       O   O       O               O                   O                         .   O           O                         +   O               O                               ",
"      +             O           O       O O                             +                 X * o   X                                             O   O                                         O O                           X                 O     O   O O         O                   + X                   O             X       X                           +                 O               .                             O                                                             O     O                                                                                       O                               O                                                                                                                                                                                   O                           O     X                                                                                   #       +         O                               X           O                 O                             O                                         O                                                                               O     O                                                   O   O                                 .   O       O                                                         O                                 O         ",
"                        O                 O               X   X                   O         +   + X                         +                       O                               +                             X                                       +                 +                           +                 +     X                                             O                         O                               X                                                                                                                                                                                                                   O     O   X                                             O   +                                           O                                                               O                 X               O                                   X +                                 O .                                                         +         O             O       .                                                   O                                                                                       X                               O     O               +                                             O                               +                                   +                             +   ",
"O +       O   O                             +   O     + X             X             O   +         +                     X         . O     . O                       O     + .   +       +     O     O                         O               O   O                                   X +             + O         +               X                             O                                   O                                                                           O     +               O                     O     X X                                                     O                                                               O                               O                             +           O   O           +                                                           O                                                                                                     O                     O + O               O   +           O           O                     +                     O                                                                 O             O                 +     +                                 O               O   O         O       O                       X                                 +     O                                                     O     O   +     +                           O   + ",
"                    O         O                                 X             X               .                 + .                                                                                                                               X   O                                             +               O                                               O                                                                 X       X X                                             .                                     X           O                                                   O                                                                             O                                                                   +                       X           O         O                                             X     O                                   O     O O                                           . #                 O   O             O                             O   +                                                         +         O +                                           X                                                                     O                                                                                                         O                         O                                           ",
"                        +                           #                                   +           O                       .         O                                                               O         +                                                                                                   @ o +                                                     O             O       #                                                 X                                   O                                                             +           O                                       .                     O                                       O                                       O                                           O                                                                                     X                           . +                                                           + O   O                                                                             O                               O     O                                   +                             O               +                           X                                 O                                                             .               X   + +           O           O                                                 + +   +   ",
"        +           O                                             X X                             O +       .                             X                                                       +                 X                       O O   O             .       .                                         . # + X             O                           .                                                                                   X                                                       O                                                       +                                 O                                                                                                                                                                                                 +                   .               O     X                                                 .                       .                     O       O +               O                                                 .           +   +                             +       O                                                                           .                                                           .       +       +       X     O                         +                         +                   O         O                                           +     ",
"                            +             #         O               X                                   .   O                                                                           +               +               O                                     O                                                     +   X                                                     O                                                       X                                                                                                     O                           O                                                   O           X                                                                                                                 +               X                                                                                     +                       .                                                 O                                                                     O                                                                                                                             X                                   O                     +           O                                         O O   O                     O                         O                                                                 O       + ",
"        O     O                               +       .                                   + O           O                                   + +               X           O                                                                                                             X         X                                       O                             .                     O                                   +               X                                                 O         .                                                           .                 O               #                             X O                                                                                   O                     X                 X X                                                       O   O                                                                                                                           +                                                         .                                                                                                                                               O             O                                     O                             O     O O O                                                     O                     O                                           ",
"      O         O                             O                                       O +                   +                       O             +                             O                       +         X   O                                                                               .                                             O       O   O     O               O X                                                                     X                           +                                               O                                                                                                                                               O                                       O   O   O O   +     O                           O                               O       O       +               X                                             O                                                                         #                                                   O                     +   O                                 +       +                 O                                                                   O     O   O             +         O       .               X     O   O O O       O     O +                       +           O                                                       O           O       ",
"                                    .         O       X           X                                                                   O           O                 #           O                     +               X       O   O         O                                   X     X                                                 O                                                 O                           X                                                                                                                                                                                                                 O       O                                                                                   O   O O     O     O   +                                                                                   O                                                                                                               X                                                                       O                                                                                     O                                             O O   +   O O   O     O   O   O                                                   O   O         O X           O O                                               O               .   O                                 ",
"+ O                   O O           O                   X                             +             X                                     O                                     X X                                                                     X           O                           X   X                                                                                                               X         X             X                                                                                                                                                                                               O         O                                                                         O O O O O O   O O                       X                                                                       O                                           O                                         O O                                                         .                                                                               O       X           O                             .       O         O O   O     O   O         O O   O     O           O                                                 O       O                                   O                                       O   O                                             ",
"              O O       O           +   O                     X   O                   X +                 + O               X                         O                                 X     X               X   X   +                             X                                         +                       .         O   O   O         O O                             O                       X               X X     O                                                                       +                                                                           O     .                               O           O                       +                   +     @               X X X               O O O   O O     O O   O                                                                         O X         O               X             +                         +                                   O   O               X                                       O               O               O             O                             O         O           O                                           X                 O O   O     O         O   O   O               O                     X +                     O       O                                 O             + X                                                                       ",
"O     O   +   O   O   O   O                 .         X       X X                           +                             X     O                     X                         X                         X   X                               +                                       X     O       X                                                                                             X X                             +                                                                     +   X                                                                                 O                     #                                                                                         X         X         O   O O             O       + +                                     O         O                           X                                   O                                                                       X   O                                           O O O                                 .         O     X         X                                                                   O       O   O               O     O   O   O     O     O                                                   O       O           X       .     +                     O O         O             +                               +           X           ",
"O +       +               O       +           O             .   X             X                   O     +             O X O     O                             X                                 X X   X                                                                                       +     X                                             +                                                 X             + O   O   + X X   +       O                                                                                                                                                                     O     O                                                                                   X +                 O       O           O                             X                                                                                                           X                     +                   X                                                                                                 X                                       O                                       O                 O         X   +   X O   O     O       O             O                                 O                         +   O                             + O                                                                               X X             ",
"X     O             O               O   +         O                         + X                 O X   X                                                   X                   X                                                             O             X                   X   X O                                                       O                           +                             X               X O   + 5 7 *           O                                                                                                                                                                     .         O   O     O                       +                                         X + + X                             O +           +     O                     X             O                       O                                                                 .                                                                   X                                     O                   O     +       + X O   X           X             +                                                                                   O O             +     O     O                   +                       +                                                           O           O                 X                         +                 X             X ",
"X O                                           X   O                                   X   X   X                           O O   O     O   O             X                                                   X                                                     X                                           X                                                                                         X               +   * $.$.N 7                                                                             O                                                                                       O                                                                                                 X X               X                                                     X         X                                                                                                                         +                               X                   O       X                                                                                                                                           O                                                 X +                               O                   O O           O   +           +         O X   +                 O     O                                                                                 ",
"              O                 O     O                       X                 X                   X                                   O                 X           X       X         X       X X                                                                                                     X               X     X                     O                     O O                                             X X N S B o                                                                                                                                                                       O       O                                                                   .                                       O       O     O O   O O                                   X                 X   +                           X                                             X                                                           O                                                           O         O                               X         X                                                 O     O                 X       X       X   X O     +                                                                 O O   .         +             O X       O           O   O     O             X                             O         O                             ",
"O   O             O     X                                   O   X             +   X                 X                 O   O   O   O   O       + .                   X         O   #                                                         O                                   X               X                                                                                                   X     X             X X X 5 9 @                                       O                                     O                 .                                                                     O           O                                                                                       X     X             O                   +                                     .                       X         O                 X                 O                                                 X               X                                               X               X                 +                       O                   X +   +     X                                   O           O   O                       +       X + X       X       +     O O                                               O O             X       +         @     X                                                   #                                                   O   ",
"        O         +               O                                                 X   O                                     O                                         O     .                       +           O   X                                             O                                                                                                     +     O   +                       X           O           .             .                         .       O                                       .                                                                     O             O         O           O                     O                                                 O                                   +               O                               + +                   +                                                                   X                                             O         +         O                                                                                         O     O                                                     O                                                                   O               O                           O   O                                                     O   O O   O           O       X                       O                                           ",
"              +           +               O         O                           X     O       X                     O       O                                           . O O     . O                                                         O                                               X                                               X                           +         X     X           X       X           +                                 X                                         +           X                                         O                                                                                               O       O                   #                 X       O   X               O           O                                                         .                             X O                                                             O                 X               O                       O     O                                       O                                     X               +   O                             +   O O         O O                                             X   O       O O           O   O                                   +                                       +             O     O                               .                   +           +                 X     ",
"        O                 X                     .           +                         X +                               O       O         +             O   +   X X                                                                                                   O                 X                                                                   X                                           X                                   .                                 O                                                         +               O                                           @     O       O     O       O             O                                                           O       X                                                         X               O               O   O                                   X                                                                                                                                         X   +     O                                           +               O             O                                                                   X     O X   X                                                             O                         +             +             +   O O   O     O                     O               +                                   +               ",
"          O           + + O                                     X O         X                                             O O                                                               +         X                                       +                       O           O                                                                                                                                         O   O                                 X                                                                                                                                                 O                   O   O   O O                                                       X     O X                                           O               O                   .                 X                             O             O                                                                                               O                               O                                         +                                               +                                 O                                                 +         O                                                                                             + 2 # #   O X               O   +                                       +       +                         ",
"+ +                 O                   X O                                       X   X   X         X     X O                                                         X             O                               X X             O       +   +                           X                                                                                               O   O   +                                                                               X                                 + O                           .                               O                                               O                   O                       O           O           +                                                                               O                                                                 X                               O                   X   O                                   X O                           +     O                   O                                                   X                                   +                         O                 O O       O                 +                                   +                 +                           X X           X                 + X   + 2 0 4                           +   O                 +                       +           +     X   O   ",
"        O       O             O       O               X       X           X                       O                                       .                           X X                       O       O                                                   X                 +                       +             O                                                                                   X         +   +   +                                                                     O                           O                                   O           O                                             O               O                                 +   O                         X   X     +                                                                       O                   +                   X     X               O                                           O                 +         X             O + +     O   O     O   +                 +         +           O                     O                 X X O                                                                                       O     +               O                     O                                           @                 X +       +           O O + O O O +                                                       O         O       #       O             ",
"    +                 O   O       O     +       .                       X     O         O                         O       O O                             +                             +     O                                                               O                 +                             O                                                                                                                                                                                                     O                                                                             X +         O                                     +   O       O                                                         O                                                               O   .           #               O             O                                                     O X                                           +                   O     O                                                           X           O                                                                       O                   O O                                                                             +           O   O                         .               O   O   O O O                             .             O                                               X   ",
"        O               +                     X     X                                                         O     O   O                   X             X                   O       +                         O               +                         X X                   O             O   O         O     O                                                                                                                                                                   X                                                                             O                       .                     O       O                   X                                                       O X                                                                               +     O     O   O       .   O     O   X       O                                       + +       X     + +                                     O         +       O   O O O .       O O                           O         X           X X             O                 X     +                                               O                                   O                           +                                                           X         X         +     O   O   O   O   O     O   +         O     +   + .   X               X                                     +         ",
"                  O           O O                 X X O O               +               +           X   X       O O O                       O         +   X                                   O     O     O O         O             O                             +   X   X                                                                                                                                             @ +                                       X                                                           O                                                                         O             +                       X X                       O     O                               +   O               X                       .         O     O +                           .                                               O                                                             X                         O   .         .     O # O                     O                       X           X       O           O                                                         O                     O O     O O   O             X               O                                                                 O                               O O     O                 .                         +               +               +       +             X ",
"                    O         O O   O               X   X     O   O           O                     O       O     O O   O                                                         +                 O     O                       .                                                                   O                                               X                                               +     +         + # +                                       X       X X     O                                                                                                               +   O           +   +                   X     X     X     X                     +   X                                 O           O                                   +                                       +                 O O                             O                                                                         +         O   #     7 e 0 . O                             X   X O     X                                                                         O                                                     O   O     O     X                   +                                                                       X                   O O         #         O               O +             #               +                                 X     ",
"            O   O O                   X           X     O   O   O                     +             O               O       O             +                   X                                 O             O                             +                                                             O                                                                                                                                                                                                       O                                                                                                                     X   X         X                   +                                         O                                                                     +       O                                             O +   O           O                                                               O X               O       +   *.*.=.4 O                       X                       X                                                               O             O     + o +       + +                 O         O O               O       +           O O +           @               X                 O                                     O   O     O                       +                                                                         ",
"  +   +   +   O         O   O               + X   + +   +   O   O               O               X                   O   O   O             +     X       +           +         O       +       O O         O                 O                 X   . X                     X                                             +                                               X X   X O                                                                               X X X                   O                 +                                                       +                                       O           O                 +   .     +   @                                                             O O O                                                     +                                                                   O                                                     X                                     + O   O       # . &.*.@.0 # O O                   X                                                                                 +                         O # #                           O     O   O O       O                         O                                         +                         O                     O         O         .                                   .                                       +           ",
"                      O               O +   +   O + O # O O + O   O O                         O     O   O   X     O                   +     X + X                                       O         O                   O       O O             +                     X X                                                                             +           O                                     .                                                                       X                     O                                                                                                                     + O     O           .                                                     O             O   O O                       O                           O                         +               +                                                                                   X                           O O       O   O     O   O 0 9 0 # O O                                 +                   X                                                                           + + @                   O   X     O O             O   O O                           O           +             X +   +           X         O   X     O O O                         .   O     O   +             +       +                 O       +                                   ",
"    O                                   # +   O # O O 1 1 O O O O O     X             +                                                 X           O                 + O                                               +     O                   +   X           X                                                                     O         +           O     O     +                                       #                                                                                               O                                 O                       X                                     +                       .   + . +   + X     X             O                         O                             O         O                               +                   +     +                           X X                                           .                         X         O   O                         # O + O O # # # # # O     @             X                                             +           O X                 O                             +   + @ #           +                     +   O O     O O   O O                                                     +   X     +         X         + +     + O         +     O                                                             O O     O       O +             +             ",
"                        O                     O O n n 3 1 1 O O O       X                       O                         O X         O   O             X                             O   O         O             O                                       X X             O                                                                           O             +                                                                                           X                 +                                                                                                       O       + +                     +           +     . + . . + o                                   O O                 X O     O             .                                 O                                                                               O                         O             O       X                                           O O   O   O   O   # # O                                                                             X           X                                             .                                           O                     O                 O                                                       O         O O                             O                       +                   X         O                                   ",
"                              X     +   O   O 2 1 *.KX&.3 3 1 O O O           O                                                       +                                                                             +           O                     O                                                 O           O                   O                                                                                   O                                                                             +                                                                       O               +     +               . O           + X X @ $ $ $ . .                                                                                               +                                                                                                                                             +         +                     O   O         O   O       O   O                             +       O                           O         O                                                                 +                           O           O   +   O     O O                       O     .             X             X           X             +     O     O                 +                                                               O                                     ",
"    +   +   +                     X     X O O 1 1 @.#.@.3 1 1 O O O                 O       O     +                         O               +       +     +           O O                 #     O       .           X                                                         O           +                                                                                                         O                                                                           +                                                     +                                                       O       O   O                 O       +   X @ : x x - o %   . X                   +             O                         O         O                                         O                               O                         X O                                                 +                                                     .   +       O . O     O           O                                       O             +                                                                                         O                                           O           O                         O         X   O       O                                                               + X +                     X                                                           ",
"                                X   X     + + 2 4 M @.@.3 3 1 O O   O                   O           O                       O                 O                                                                         +                   O                                           O                               O                     O                                                                       O           O                                                                                                                                                                           +                       + . % - PXUXx = o                                                                       O   O       O                                                                                                                                     O                 O       X                                       O                                         O                                                                       X   X             O                                                                 +               O                                             X                               X +                   +                                           +   +                                                       O           ",
"      +                                     X 4 4 M M M b 3 1 O O                                     .                                             +       X                                 O                     X               X   O                               X                             O         O             X                 O                                               .                       O                                           X     X                         O                                       O                   O                                       O                 +             # o $ PXPXx $ % +   X     X                                                                                                                                                     O     O                                                               O                                             +         +   O         O     O           O           .       .   O     O     +                     O                                                                             +                   O         O                                                   O                 +                                             +                                                 X         O     X                   O       O O       O       ",
"      +           +             O     X     X O O 3 3 3 1 1 1 O O                                 O                   X                         O       +           O         O   +                 O                                   O                         X     X                                                                                 O                                                           +     O                                       X               O                               .                                                         O                     O           O                   + + o % > $.$.w > @ X X                             +                                       .                       O                                                               O       O                                                     O                     +                     +                       O               O                                             X +                   O                                                                       +     .                                                   O                         O     +           O O O       X     X           X                                               O       O       O                       O     O           O         O                 ",
"  O           +         O         X       X +   O O 1 1 1 O O O O         O         O   O     O     +           O                                                       O                                       X                 O           O                             O   +                       O                     X                                                                                                                                                                                   O   O                                       O   O     O                 O                                               # $ = % o . .       X                                                                 O               O     O                                                                   + O           +                                               O                                             O   O               O                 .   +             O     +         O                           O                                                       O O     +                                                                   O                           O O O O         O                   + X X                               + O                                 X   O       X X                                     O         O           ",
"+                         X       X   X X X X   O O 1 O O O O   O                   O                                         +     O       O                                 O                 O                               +                       O                                     O O           O                                 O                                                                                   O                               X X                                                                                               O                                           .         O         + +   . # $ o X X X                                             O                                                                         O     X                         O               O                                 O                               X                 O O         O                                                                   .             +                                       O                       +                 O                                                                 O       O   O                             O O O O         O                           X                                                                             X   X         O       X O                             O ",
"        O           O         X         X       O O O O O O O           O                         O         O     +     O                           O                                                                               O         O                     X         X     O                                                                                                           .                                             +                                                                                                                                                           O       O               O O   @   + # *   X   X         +                 O                 O               O                 O     O                     O                                                       O               O                                                 + +     +     +                           .         +                 +                     O                                         +               +               +   O                   O O                                                                         O                                             O     O                                 X                 +                                   +   .         X     O       X                                               ",
"                  @           O   X   X X     X       O O O   O           +                   +   O                 +                                                   O                                       O       O   O       O                                             O   +                                                                                           +                                               O                                           +             .                               . O                   +                           O                           O     O                 O O + +   + + X X X   X X   X   +                                               O     O                                                                                           +   +       O                 O                                           O                                                 . O #       .         O           .       O   O                               O O     O                         +                       O                                             +                   +         O       O   O               O               O       O                               O                                                         O     +                             O         O                               ",
"                                  X                 O                 O     O             O                               O               O                       O O               O               O     O O   O   O O O         O                 +   O               O                             O     O               +         +                                                                                       .                                   X         O                                                             O                                             O                         O             O         +         X +         O                     O                                                                                                   O                       +                           O                 O           O                       +                                     .                                                                                                             +                         +               O             O         O                                       O           O       .   O O             O         O       O .               + O         O                                       O   O       +   O O                                         O           O                     ",
"X                                 X X           O O     O         O     O         O       O     +             O           .       +               O                                 .         O     +   O O   O O O O O   O O     O         O               O                       O                   O                       +                                                               .                                                                                         O         O         O   O                                             +                                       X       +                           X               X               O       O       O           O                                     O           .                                                         O                                                                           O                                                               O               O         +     X                 X         O             O       O               O                     +                     +     +     +           + O                         O   O O     O         O                   O   O   O   O   O           O             + O                                                                     +                           O     O                         O O   ",
"                  +   X             X       X                         O       +                   +           . +                                                   O                                   O   O O O O O O   O O                                                                     O       O               X             .                                                   O                                                                                                                                                             O                       + O                     O O                     O     X       X X                   O                 O                           +                 O               O               O                                 O                                                                               +                     O                                           O             +                             + O                                                     +             O     +                                                                                                         O               O     O       O       +           +                         O                                                     O                 +                     O                         ",
"                      +                     X                               +           O           O       O           +                                     .     .   +       O   O                     O # 1 b 1 O O O                     O                                                       O   .                         O                                         O                             .                                                                           #               O O                                                                                                           X                   X X           X                       O                                                                                   O           .                 O               O     +       +                                                         O                   X                                     +     O   O   O                 O               O                                                       O                 O                   O                         X                 O       O +             O                                               O O                   O                                                                               +                                 . O     O             O         . ",
"          + X       O                         X                     O       .         O                                         O X                           O     O               .                 + O O 1 b @.b 1 1 O O O       O +               .                               #   O       O                                 .                                                                               O                                               O     O                                   O               +                       O             O                                                 X X             O X               X           +                                       O           O       +                                               O       .                                         +                                                                                     .                             O     . .                                   + @ +     O                                             +                                                     O                 +       + # .                           O       O O       O O             O   O                                     +                         X       O         O       O   O             O   X             .                                       # O       ",
"                O             O                                           O                             +                     +                   O                                                 O   O O 1 @.#.m 1 1 O       O                                                             O                                 O                                         O                                                                                               O                               O     O                                         +                                                                 X   O                                                                     O           O   O                                                                                             +         O O     O                                                                       +             .                       .             O     +       O                 7 @ + +   O                                                   O         O                                                                     +     .                                 + O                                   O               .               O                               O                                             O                                                 + ",
"        +                         X O               O       O     .         +                 + O               O X               X           X           O     .           +     +                       O O @.@.m 1 O O   +               O               +           O   .                               +               O                                           +         O                 #   O           O                                     O                                               O     O                                                       O       O                     O       O O                           X     X X     X   X   +     O                       .                       O             O   O                                   +                           O       +       O             O               O                 X                               +       O                                                               O               @ + #         O       +     O                   O   O                                         O                   +     O                           O                     O               O           O     O                                             +                                           +                       O X                           +       +         .       O       ",
"                                              X       O                   O                 +             +                                   O                       O                                 O O O 3 3 1 1 O O                                                   O             O       O                                                                       .                                 O                         O                                         O                       O O                                                                                         O   O   O         +             X                           O           X                     +                                       O                                                     +                                                       O                                 O                                                                                           O           O +         O                                     O O O                                                     +                         O                                           O       O                                           .                 .               O                                         O         X                               O                               O ",
"                        +           #               . O       O X                                                 O     +                               O                         O         O               O 1 1 O O                     +                                                           O                             O               + O                                                                                               O                                     O         O O                                           +                         O                                           O   X       O                     O               X                                                     .                                         O       +                 O                     O   .     O                                                               O                 #           O                                                                                                         O                   O                                           + #                                                                                       O   O               O   O                           O             .                         +                                                                                           ",
"                O       X   O                         #   +                 X               +             +                           O               O O               O                                 O O O + O + O     O                                                                                   +                                                   O                                 +       O                                                     O                                 O O     O                                                 .                         O         O                                                         O                           +                                     # +     +     O O                                                 +           O                     O                                               O O               #                       O                                                               +       O                       O     .       O   O                                 O                           + .                                     O           +                       O       O     O   O     O                                                       +         .               +                               X                                                   #       ",
"+                         O   O O     +   O             O                                 O           O       +             +           +                                           O                     X   O                       O +     +                         O                                   +                                                                                   O           .                                                               O   O       O                                                                                                         +                                     X X                                                                                                         O                                       O                                         .                                                   #                         +         .                                                                                     O                     .             +                                             O         O                     O           O                     .       . +   O       O O               O     O     O                               O                                 .           O         +                                             O         O                 O ",
"                        +     O                   O                     X       .           . O                   X       O                 O                                                                                 + +                       O               .                                         +                                                                                                             +                             O   O                                     O                                                 O                                                             X   X   +   X       +                 O                                                     O   O                                   O             O                   O                               .                     +                 X                                                                                                                                     +                       O                           X         O   +                           O                               +                         O O   O         O       O             O   O   O O   O O       O                                     O     .       .     .   X O   +                     +                                         O                         ",
"                                          O                       +   X         + +     O         X                             O                 O                       O           X       O                 +                         +           .               +                                   O     +         O O               O                                 .                                                                                           +     O                         O                                                                           .                           O     +   X                           O     .                             O                         O # O O O O                     O O                                                                                         +                 O               O                             .                             O           O                         +         O                 O O       O                       +                                     +     O                       O                                         O     O               +         O O         O O             O   O       O             O             O       O   O         O                         O O                                 O       O       O                     ",
"    O                     X X             O               O                         O               O                                                                               O           O             X     .                                                           X                 .         +                                                                               +                                   O                                                                         O                                                                                             X O X     X +                   .                     O       .                   O +       +                   O O O                 O                                                                                                   O                     O X             O                                                                           X                     O                                                                   O +           O                                   O                                             O                                 O     O   O                   O                       O           O                                         O                                                   O     O   +                     ",
"            O                       O                                         X   O     O   .     X             X                         O                     O         O               O                           +         O                           #                                         O             X                             O       O                                               X           X                                                                               O     O                               X                                 O                               O   O                                                                                                     O O O                                                   O                               .                 O                                     O   O                     O                                                                             O     +           +                                                   + O                         O               +                                                   O             O O         O               O O O   O           O             O                   .       O                 O                     O                                 O                                                       ",
"+           O                           O                     O +                   X +       O   X   +     O + O                     O   +             . . O                             O     O                   +           O             O                                                                                                                                                 O     +                   X           O                                                                           O                                           +                                                                 X           +         +                                                               O O O O                             +                                                                                                                         O                   O             +                 O                                                                           O           O               O                         O                       +                         O                         O   O               O               O X   O     O                                     O                           X     O   O                 X O                   X                                         O                           ",
"              X                                   O                                   O                                                                               +         O                                             O         O           O                                                                                                                                                                                                                               O                   O                                         O                 +                                                                   O                                                                                                           O                                                   O       O         .                       O           O O                                                                                         O                   O                                               +                                       O                                     O   O                                 O                               O           X O   O                               X                                               O                               +     O   X                       O     O                     +             ",
"    X + +                           O .                           +     X         O               +                             O         X         O   O .                                                       +                 O       O O                                                 X                         +                                   +                       O             +                     X       +                                                                                               +   +     +                                                                                                             +       O     O         O     O                                                       X                                                     O                   @ +       X                               X                           O                 +             O                                                   O           +                                     +   O   O               X     O                           O                                                                 X           X       O               O           +     O       X     X                   O                   X                       O O   X       X                         O                             . O                 ",
"      O               O         O             O                         X     +         + +                                                                             O       O   +               O                   O     O +                                                   O                                                             O       .                                                                                                                                                                                                                                                   O                                 O                                               +                                                       X                                                             + @ @ +         X                             O         +       O                                           X                               +             O             O                                           .                 X     O                                                       O                 +                     X X                                                             X               O                   X                                           O                               O       O     O         O                     ",
"                                              +             .             +                   X +             +     +                                         O       +   O     X O                               +     O +   O O         O                                                       X                                       X                                                     O                                                                                                                                                 O           O O           O                         O                                                                           O                                       O                           +                                           O                     + +                       X         +   O   X                 O                                                     O     +             X O       O                                                                 O                                 X                                   X                                 X O           X                                                                               +                     O                       X     X                       O O                 O     O           O   +               O       ",
"                              +   + O O                                   O               X   O     +                   O     +                                 +                                                     +     O   O             O       O                       X   X     O                                                             O                               O                         X                                                                         O               O         X       X                                                                                         O             X                                                                   +       O                                                               O                       O                           O             O     O                                     O                                               O O   O       X                                                         O                                           X X                 O                                                               X                           O     X             O                     + +             O         .                     O                           X                                             +                       O +               ",
"                    O       O                                                   + O O                                           O                                       +                       X   +     O                       O O                                                                                         +                                                                                                                                                                                 X                                   +                                                                             O O           O                                         O                                                                                         O           O   +                                                               +       O                                                                 O           +                                                                   O   O       + +                                     O         O                                                 X       X                                                                                           .                   O       + O                                               +   O                       O   O   O .       +             O   ",
"  O                                     +           +                                       X     +                                                                         X                                 +             O     O                                                 +                                                 X                                                       +                       O                                                             O                       X X                                 O                         O             X                         O       O X           X                     O                                                                           O                             +                                 O                           O               +                                     O                                                                     O +       O                                                                   X O                                 O                                                             X     X           O                                     X                                 O                               +                                                           O                             O                         ",
"                    +                                                     +     +         X +                                                                                     +       X             +                             O                       +                   +     X                         .                                                     +     O X                                                                                                           O                 O         X                         O               .   +                                               +                             O                         O                                                                                                                                                   O               + O                                   O #                                                                               O                                                                         +                                             O                           O                   +   X         + X O                                   +                                     O             + +     O       O                     O                 O   +   O         X O                   O               O                   ",
"O     +             +   +               .     O         X     + X     O     .   X                                                                 O       O                 X               X           X     O O                             O                       O     O                                                                                                                                                                                             O                           +                           O O                                             O             O                       +         +         O     O               O     O                     O                     X             X                                                     O               O               O               O   +             O   O     O                   O                             X   O         O                       X                               +                           +                           +                 X                           +                             #                 +         +                                                                                                                   X   +     + +                         X       O   O               +   O O             O           O             ",
"  O   X +         + +               +             + +   X                                   + +                           O         + +                                           +                                                               O                                                                                                 O                                                   X                       X                                                                   O               X           O                                                                                                           O                     O   O         +   O                                 X       X                               O         O                   O                     X                 O O O     O O           X                 O   O                                     O               O                                                                                   +     X               O                   X                     O                                             O                 O O                                                                   O                                                               O                         X                 O     +                   X         O             ",
"                O       #                   +                           .         O               +         + @ X                   .                             X X       O         O     O     X                                     O O                             +           +                     O                       O           O   O                                                                     X X   +   X X                               O                     O O     O   O O O                                       O                             O       O     O   +         X                   +                 O                     O                           O               +                     X                                                         +                                   O                                                                         O                         +             X                                                                         +     @                 O           O O       O     O           +       O . O     +                           O         X         X O + O     X   X                                                 O                   O         O +                               +     O                   +             O       +             +         O               ",
"                    +                                                   O     O                   X   X       X           X                                                       +   X                 X +   O                           O                                   +     +                                       +                           O             .                 O       O         X     X       +   X   O                                                           O     O   O O   O                     X X             X                                   .                                       X                 O                 O                                       O     O                             O                                                               +                       +   O     O                             O .                                   O                       O   X         +                             +                                         X X             O                                           O                   X                             O                                                                                                     O   +                                                                       O       O                         X                 X   X     ",
"                          O     O           +         +     +   O                     O X     O   O           + O               O       .                     X X   X   X                           X                                 +       O   O                 O   +           +                                                   O                           O       X   O                             X             O                                                                       O                 X                                               O       O                     X   X                                   O                           O                 + O                         O                                 O                                                         O                                                                     #   O                 O                             +                 X                   +                   +                                   +                 +                 + +   +   X               .   +                         +                       O O   O   O   O       X                 O                         X                                   O     +                                                 O                                                     X             ",
"      O     O           +                             #                               X                                 +                                           X O X                             X   X                             O               O               X     X                                           X X                                               X                                             O                                       +                       O             O                                                                                                 X                 X                 O O                         #                                                   O                                                                                 X           X           O                                                   O               X                                                       O                                                           O         +                                 X                         .                                       +   O       X         O                                   +                                                     X             +                                       X X +         +                                     X       O         X     ",
"                +       O   +         +                               +           +       X     X   +     O                                 O                                     O               X                                                                 +                                   O             O                   O                     O                             O             O                                                           O               X             O   O                     O                     +                               O   X               X                                                 O                             O                               X             +                           O                                             +                                                         O                         X                                                       +                   X     X                                                 X               X         O     O       +       + +     @ + X     . +         O                                                           O       O             O                                         O +   X   X         #     .                                                                       X                                       X ",
"      O O       O +                                         O +   +                                 O           X                                                         O   X   O O                                     O     O                     +         O                     O     +                                                                     +                                               X   X             O           X               .                               X                                 O                                                                                                                                                                                                   O                                     O                                   X       O                           O                                                   O                                   X X                                   O           X                       +                       X     X                         O       O O   +     + .     + +   +           O                         X   O         O               O                                                 X       +     O                   O                             X X                 X       O                                             X               ",
"              X             O       +     +         O                                             O   X O O     O         +               X     X     O                             +   X   O               O                                                       O                                                                   +         .           .       O                       X                                               +                                               X X                                                                                 X                                           X                                           X                         X         X       O                   O       O                               O               O                                 O     + +     X                                             O                       +       X       X                                                   X   O                       #                         X     O                     X               +   + o X .   . o .   @   O           .                     O                                                                             X     X                           X               +         X                                 + +               O               X           X           ",
"                        +     O                                         +                             X     +                             X O                                                                                         O   +     +           +   O +                                                                                                       + +   +       X             +                           O         O                                     +                                 O                                                               X                         + +                         X       O +                                                                     X                 O O               O     O                       O                     O               O                                               O                 O                                           +                                                         X                               O                         O   +                 X         . * $.*.N X X                         X X                     +         +                                                                             X X       +                                                               O                                     X X     X O           ",
"              +                                                       O                                 O           O     +                                 +           +         O   O O     O O           + +                                   +     O               X                                                     O                                   O                 X     O       +               X                                                           O                             O                       .         O   O                                                                   +                   O O               O           O                                                 X       +               O                                   +                 X                 O             X     +       +                                     O               X                           O                             O         O O                                     +               X               O       O           O     +     + X       .   e #X*.$.@ o +                         O   + X           O     O   O   O     +         O O O                                               X       X                                   +                       X     O       +     O O                       X     X                       ",
"            +                             O           +                                                 +             X         X         X                       X     O   O     + O       X               +                                   +     +   O +     +                                     +                       X                   .                   +           +     +       O                                         X                       O           +           O               +                     +       +       O                           O                     +             X                         O   O       O                                                         X         O                     O                 O           +   O           X                                   O             +                                     O       O         X                                                             O         O O                                               X                     X           +     +   + X     +           . : *.*.S # o +   .                                   O       +   O   O O   +                                       O                           X     X                             X                 + +     X           O     O               +                       X   O       +       ",
"                        O         X         +                                       +                           O                           X                                   O       O   O                                                                                               O                                                                                                                         O                                                                       X X                               O                   O     O O                                       O                                                             O                                                       X                         +     +                                           X   X       O   X +                                             +                         X                                           +     X                     O   O O O O       O             O             O                   O   O                                             X   .   + . .   o o + +                               O                 O                   O   +     O                   O                               X               X                                                                       O         X                                       ",
"                      O         @     +       X               O                               O       +   O     X     X O   X     X                                 O         O   O                 O                         O                   O                                       O O                                               .                                                                                         O               X                                                       O             O                     O               O O       O                                   +     O X                                         O               O       O                     O         O                   #                                                                     X   O   O                                                         +                 +                                           X               O     O O   O   O O   O                                                                         +   O               X   +         . X X X +   #         +                                                           O           O                               X               X                                       O     O       O                             +                     X                       O O       ",
"              + +         O             +         X                       O         O   #         +         +                                 + O                                           O             +                     +         O                                       O             O                           +                         O                                                                                 X                                                                               O                                                               +                                               O                             +       O                                               X                       +                       +       +     O                   X                                                                                                     .                   O   X     X           O     O O O O O O + +   O O O     O                                                                                 O               +     X +   .                         +     X           O                                                                   X           X                                                   X                                                                               O               ",
"              +                                                                       O     O                   X                                                       O             O                     O                                         +                                         O                                                     X               X                         X                                   O                                                       O                                                               +                                                                               O                                 O                                                                   O                                                                     O           O                                                                                                                               . O   O O . @ # + +   O O     O                                                                   O                             +       +   X   +               X           O                                                 O                       X     X                 X                                                                               O                                         O   +     O         ",
"X   X X                                   O             +     O +               +   X   O                           O       O       +     X +     O     O   +                   + O     O O                                                                     X             O O   O                                                       X       X     X                     O                                             O                                   +               +                         +     O O                                   X                   O                         O                                                                         X                   +               O         O O                                                   O           X                                         +                   O                               +   + +     X                             O                     O     O   O + # #         # +             +               X                         X                           O                 X       @ # +   O O     O   X       X                   O         O     O O           O       +                             X         X               X                 X                                               O   O         O                   +                           O         ",
"X                     X                   + O         .     O                 X                 O   O                                             O O                         O                       O # O O         #   O                                             X + 9 #     + @               +           O                           X                       X     X     X   + O     X                                         O O                                                 O       O                           O                     O                       O                                   +           O                                                         X   X                       +                           O                                 X +                   X                   +     O     O           O                                     +                           +                               O   O     O   #     + o . @ + X + . + +             +             +               X X                             O     .                 +     O O   + +                   X                           +     O             +           X               + X               X                           X     X +                                                       +     #     +             +           + +     O                     ",
"                  O                     O + .               .   O         O                   O   +     #         +   O                                                 O                       O         +   O   + + +     O                                           O + 6 @       O                                                         X X             X           X           X                             O                                                   +                                                                               O                                   O                                       O O                                 O       X                                                                                               O             +                       +                                           +     O                             O                                                   O             + # % o $ . + # . #                                                                                             O   O +   O   O                 X               X                                             O                   X                                   X X                                                                       O                                                   +         O   O   ",
"  X                                   +   O     +                 O       X         + X             O     O                   O   +     +                         O   X             O       O         O O       #     .   + .                     +             O         O O + O                             +         O   X                       X X   X     .                                           O       O                                     + +         . +                 +             +     O                                                             O               O                                             O   O                                                             @     O               #                                     O       O         +         X         X             +             +           O                       . O     O O                               O                                       O         @ % $ > $ $ # # + . . O                                                   X                 .             +     O O +                 +                           +             O                                                 O                                                                         X                                       O               O   O     +   +                                   ",
"              X   X X       X     .                       + O             O                                     X   O                               X         O               O         O         + +         + .   # # o X   + +                     +               O O         O               O + O   +       X                             X 2 M M #                     X                                                                                                                                                           O                     X                     X         O                               O                                                     X                                       O   O   O   O   O                       +       +                                                   +     O                 O           O O             O X               +                     O               O     +                 + . . o S #XLX} $ o         O       O                                                     +                               + O O                                                       +                                   O X   O           +                                         X                                       O   O               X                                             #                         ",
"                                          .   #                                       X                                                 O X           +         O     O         X                   +   +     + . o $ o o @ . +                                             O                                                                 O   2 B M +                                                   O                                                                                 O O               O                     O       O O                                                                                                                                                                               O       O       O                                                                                       O                                                                               O   O                                   O   O     # % } LX#X$.$ . # + O O   O                                   X                                                           O                               X             O   O       O                               O +     O   O + O                                       X                 O                   +                                                                                         O     O   ",
"  X   X O X               O                                 .               X                                                                   +           +                           O                   .   + o . % $ o X . + @                                           O                                                               + O   O O +   X O                                                         O                                                               +         +                               +                   +           X                                             O                             O O   O       O       O         O                         O                       O O         O                     O                 +                                       O                           O     +     +                                                               O   O                               . % . x *.,.N $ o o +                                                       X                         +                                             +         O O               O                   O .   +               O   O O + O O O O + + +               X                                     X                                                         +                   +   +     O         O               ",
"                                              + O   .                                                                                             O                             O                     O   O . . + $ x *.%.> X +             .                               @ O                                                                 X   O +             .                               O       O                                                         #                         +                                           O                                                               O                         O         O                               O                                               O                                                       X                                                   O   O                 O                             X     O                           O O                         O   O     + X @ o $ % $ @ . +                                             +                                                           #           X                 +           O     O                     O                     O     O O O O O O O + O                                                                 O                                                                             O                         ",
"  O             X                 . +                             + +     O                                                 O       O   #         O                       O   O             O           . O #   + $ c ,.#Xx . .   +   O       +                             X             + +                                             O                 .             +                   #               + +         O     O                                                     O                                 +   O               .                         O       +                                                             O       O                                                                                                 .           +   +                                             O                       O           O       O     O   O             O         O       X X                 O                                           + @ @ o @ # .   + +           O                                                                       O         X                 .       O                                                         O   O             O O O O O 1 1 1 O # O O X                       O                                 +   O                 +             +                                         X         +       O +           ",
"    +             +                       +       +                         O                                       O   O     O                                       O O               +                 #   + o $ N %.*.x + X .             O               O                                 O                                                   + X #     .         @               O     O                               O                                                                                                           O                                           +             +   O                                         O                                                                                                                                       X                     O                                                   O                 O           X             +       O       O                             O     + O   +   @ + . +   o #                                                                                                   O O                             +                                                   .           O O O O O 1 1 1 1 1 1 O O +                                                 O                     O       O                               O         X     X               O         O         O   ",
"        +   O           O                                                         O       O                   +                 O                             O                                     O   #     . + o $ e x = .   .                                 O                     O     O                       O             O     O             X                             O                               O                                                 O                                                                                             O O                 O                                               O   O         O         O       O                                         O                             O                 O           .                                       O       O                                                                             O             O         O                 O                 O   O #   # O O .       O   O                           O                                                                 +               X                       O   O         O             O                           O 1 1 n $.@.1 1 O O     O       O     O                 +                 O     O   O                   O                                                     O                             ",
"  +                                 O             O         O             X     O   O O   +                                     +                     +               O                     O         O     #     + . . o + + O   O O                           X             O + O                                                             X                       X                       O   +                                                                                                                             O   O                                                         O                                   O                           O                                                               O       O               O                                               X                                                                                                       O           O                                     O   O O +   O O O         O                             O         O               +           O       +                                                                   O             O O                         . O     O     O 4 3 @.$.*.n O O O         O                   O +               #                                                                                                   X   X       X       . ",
"                                                    +             O   O O   O           O +         + O                   O           O                           +                             O       + O O   + O + . . . . .         O   O                   O                                   X                 O       +           X         X                   X           O       O                                 O                                     O                 O       O   +               O                                                                   O O         +                                                                                     O O                                         O                                     O                                       O   + .                                             O     +       X                                 +                   O O               O           O O O   O   O   O O O O O   O       O     O                                   +                       .                   O   +                 .                                                                           O 1 1 n @.#.3 1 O O   +                               O               # O       X     O           + +                 X             +                       O               X               ",
"                    X   +                             .         O                     O                   O           O                                 +     O                     O         O         O             +   O   + #       O                       X                       O   O                                                       O                                                                                                         O                         O O                       O O                                         O O         O         O                                                     O                         +             +                 O                               O         O                     .                 .                                                                             O               +             # O                   O         O                   O                   O O   O O O   O     O   O                                                                                 +                                               .         O                   O                       .     O O O O 1 1 1 # 1 O O O +   O         + O   O             O               O         +   O                 +         O       O           O   X   O                                               ",
"                      O X     O         O O O     O       O           +                 . O                                                                       O           O               O O   O     O   O   O     O   #       O                                         O                                   + .         .   +                                                                                                                                                                                                     O                                   O                 O                                                                                                                                                             O             X               X       X                       O                                               O O                               O     O           O                                             O O O O   #   O                                                             O                 O                                                       .     .                                     +     +               O + O O O 1 O O O O         .             O         .             #                     O       O   O O               X X                                     X           X             O O ",
"X X                 X         X               X             O       O     O             @     O                                       O                     O   O                   O               O     O       O   O O O   O       O                                                                         .                                                           +                             +         X                                                                     #                             O O                                                 O             O                                                                                                                                                                     O                                                       O . O                                         O   O                                                                 O                                   O O O                                                                                                   X     X                                                                                                 X O O   O O O O O O O         +             +                     O                                       +                 O   O +       +       . + O       +                       X   O   O ",
"                                X                     O                         .               O             +             X           O             O                   O                 . O             O         O     +   +   .                   O                               + +     O   O   O                                                 +     O                                                                                                 O             +                         O                               O                           O   O       O   O                               O         O         +         O O         X                         O                                                                 O                                       X                                                                                               . O                       O O                                 +                           O                                     O         .             O   #     .               X   X                 X               .                             O         .                                 O O     O O   O         X @       +             +                                   X         +                                 X                                                         ",
"                            X         O   O                           O                 O     O   +             X X                                       O                 O             O     O       O       O O O O O +     +                                                       . O       @         . O       #                           +                   O           +                                                                               O       O                 #                                   O       O                                         O       O                                       O         O                                       O     O O O O                               O                                             #                                                             +                   O   O     O       O                 O         #                                         +     O                     O                                                                           .                   X   X   X X                                                             O       #     . O                           O     +                                       . O                               X       O               O           O                   O             +                               + ",
"              X   +         X     O     O                         +                   # O   O     O       O     X X     X             +         O                               + +         O O               O               + #       O   +       O O +     O                           .     + 2 O           O                     X                                   .                             X                                     X       +     +   O                   O . O .                           O                   O   O                                 O       O   O           +           O         O O       .   O           O           X                     O                       O                   + O                                             +             X             O                                               +                     +               +                       O                                                 O               O                           O   +       O +                                               X                                                             .             #           O         # O           +         O                   + .     +                   +           X   X       X       O O               O   O O O       O                               . +                     ",
"            O             O       O             +                       +     O       O       O     O     O X     X               O                                                       O                     O       O                   +       O +               +                           +                                   X                                                                             X                                                                           O               O               O           O                     O                                         .                     O                                 X               O     O                       O               .     O                       O                                               O                                           O           O                                                                           O                                                                     O                                                 O               X                                                               .                         .   O                 X                 O                     .         .           O                                           O # 6 3 O O O       O               O   +             #                   ",
"                                              X                               O                 +                                           O                             O               O           O               O                                 O                                                 +       O O O             X           .                                   O                                                                                                         O                       O                 O O                                                     O   O       O     O               .       O O                         X             O                               O       O                                 O                 O                                       O                                       O                 O             +                     O O                                   +                     O               + +                             O           +                           O                                                     .             .             O             O                             +                                                                                           + +     .         O n @.n O O   O               +           O     + O                       ",
"          X             O             O             +                             O                   + +             X     X           O                 +                         O         O     +     O                                   +           + +       O                                           O O # 6 O         X                                           +               +                       O                     +                           +                                                                   O       O O               O                                                                   O     O       O                             O   O         O         O O                     +         O       O         + O                                                 O                         O                                         O O                                                                             +                                                           O                         +     +                                                         O                           .           +       O     O         +               X               . O                     +   +                                                       + O n M 6 1 O O + O O     O   .                         O                   ",
"    X                                         O X                                                 O                                         O                                       . O                                   +                                     O         #   .       +                   +       O 2 n O O         X                                           O           . + @           X                                               O               O             O                                         O     O                                   O                       O                             O                                                                     O             O                   O .       O                                           +                         .       O                                 O O                           O                                                                       O                                                                   O   .     O                                 X X             O                                       O     +   O   O                           O   +                                     .                                                             +         +   O + # 4 1 O O   O O O                                               O       ",
"                        +                 O + X O             @ +   O .                       O O     O       +   +                 O     O     O       O                     + O     +   + +           +                                 +       + O .                           O                               O O O O O                           O       O     O             +       + +   X +   .     X X       X             O               + +                                 O         O                                     O                                                           O                       O     O   O           X               X                               O       # O             O       O                     X +                   +                                 #                   O                                                       O         +                                       X               +                     O     X                                           O                                           X         X                                 +       X         O                           X                       +         .                                           O     +     +                                   . O   +       O # + O O O   O                             +       +                   ",
"X                                     .                                             O                     O         O                     O     O                 O           O   +           .               +                       +         .           O     +       O                                 #     O O O                             O                             O             + @       X                           + X                                                     O                 O                 O       O   O     +                       #                     O                                                 X       +                 O                                       O   O #                                       +                       O           O       O                                         X                           +                                                                             +           O O       O   O O                             O             #                 O             O                                     O                   X                     +   X                             O         .                             +       + O O   #   .         .                                 +   O                 O O O O O O O       X           X             +           O         ",
"X             O           +   O         O             O                                                   +                   O           O O               O                 +   .                                                                                                             O               O             +                                   O     O     O                                                                 X                               O                                                                                                               O   #                           O     O                     +         X                                         O         O                           X       O                             +   O                 .                       O           X                                     +             .                                 O                                       O   O O # 5 O         O         O #             O     +   O                     O                   O           O             O O           X       X                               +       O                         O                       O                     #   #     .                                   O         O     +   O   O O O   O O                                 +               O O   ",
"  X                             O               +                     +                 + O                   O O     O         O                                   O O O             +         X     X   O         O     +     +     +   O +             O       #                   O       # O                   O   O           +                         +                                         X                   +               X                             O                       O                                 O X   O                                                         O   O     +     +       X               X               X   O X                             +       O               O       +                         X               .                                               O         O                                                                       O               O                       +                         O   O   O     # 2 O O                                                     #                                   +     O                                                   #                       O         X O   +                         X   X     O         O                                                                             O O                                   O               O               ",
"            O           .               @         +                       X                                   O . O   O                                         O       O       O                                                                             O   O         .           +                   +             X                                 O   O                                 #       + O                                                 O                     O   +         +                                 O                                                                   O                                                       X                             +               + .   O     O                           X +           X                                         O                   O         O                                                                                         O               +                             O   O   O #               O                                                       X       X             O                     O                                                 X O                   O                 .                   O                                                                                 O         O       +                                                 # O       ",
"X                                 O                                   +   +           O +               O                                               O       O                         +                                     +           +   O       O     O   +       + +       +             +               O     O                                         O                       +             O                                 +                 O         O                                       O                       O   O                                                             O                       O                                 O                                       + O                   O   X   X                             X X           O                                         O                                                   O     O                         O         O                             O         X             +         O   O                                 O       O         O           O                 X                     O                           X                                             +             +                                                   #                           X O X           .       +       +       +                                     O O   .         .           O +   ",
"                  .       O         +                 . +                                   +               +             + O           +                                                     + X                   +                                 O           O                                               O               O                                           O                       +                   +           O                                                           O               O         O   O     O +                                           X               O O #                                                                   +                                         O                     O                 O   O                         +           O O                                                                         O           O                       O                             X X   X                                         +                                                                                     O                       +       X                                 O               +     +       O   O                                         .               O   O                           O   O           + +   + O . O   X   X                                                           O     ",
"                  O                                                                                 O               O   O     +       X                       O       O                                                             +     +         +     O           O                                         O   O                 O       O             O       O                                       O                             +                     O           O                                             O       +                   O                 .                                                               X                                                                         O         O                       X                     X         O                           O   O                                   O                                                                                                                                           +                                       O                                                                 O               O +                                                                                                                                                                                           X                                                         O         "
};

