/* XPM */
static char * orange_ghost_up_xpm[] = {
"32 32 4 1",
" 	c None",
".	c #FFB752",
"+	c #4C68B5",
"@	c #FFFFFF",
"           ..........           ",
"           ..........           ",
"       ..................       ",
"       ..................       ",
"       ..................       ",
"     ......................     ",
"     ......................     ",
"  .......+++++.........+++++..  ",
"  .......+++++.........+++++..  ",
"  .....@@+++++@@.....@@+++++@@  ",
"  .....@@+++++@@.....@@+++++@@  ",
"  .....@@+++++@@.....@@+++++@@  ",
"  .....@@@@@@@@@.....@@@@@@@@@  ",
"  .....@@@@@@@@@.....@@@@@@@@@  ",
".......@@@@@@@@@.....@@@@@@@@@..",
".......@@@@@@@@@.....@@@@@@@@@..",
".........@@@@@.........@@@@.....",
".........@@@@@.........@@@@.....",
"................................",
"................................",
"................................",
"................................",
"................................",
"................................",
"................................",
"................................",
"................................",
".....  .......    .......  .....",
".....  .......    .......  .....",
".....  .......    .......  .....",
"..       .....    .....       ..",
"..       .....    .....       .."};
