/* XPM */
static char *a98c7b635fbf44cce10f5b45a4bb32a893K4vEzYbJqDCvbT[] = {
/* columns rows colors chars-per-pixel */
"32 32 3 1 ",
"  c None",
". c black",
"X c #FFE100",
/* pixels */
"            ........            ",
"         ...XXXXXXXX...         ",
"       ..XXXXXXXXXXXXXX..       ",
"      .XXXXXXXXXXXXXXXXXX.      ",
"     .XXXXXXXXXXXXXXXXXXXX.     ",
"    .XXXXXXXXXXXXXXXXXXXXXX.    ",
"   .XXXXXXXXXXXXXXXXXXXXXX.     ",
"  .XXXXXXXXXXXXXXXXXXXXXX.      ",
"  .XXXXXXXXXXXXXXXXXXXXX.       ",
" .XXXXXXXXXXXXXXXXXXXXX.        ",
" .XXXXXXXXXXXXXXXXXXXX.         ",
" .XXXXXXXXXXXXXXXXXX..          ",
".XXXXXXXXXXXXXXXXXX.            ",
".XXXXXXXXXXXXXXXXX.             ",
".XXXXXXXXXXXXXXXX.              ",
".XXXXXXXXXXXXXXX.               ",
".XXXXXXXXXXXXXXXX.              ",
".XXXXXXXXXXXXXXXXX.             ",
".XXXXXXXXXXXXXXXXXX.            ",
".XXXXXXXXXXXXXXXXXXX.           ",
" .XXXXXXXXXXXXXXXXXXX.          ",
" .XXXXXXXXXXXXXXXXXXXX.         ",
" .XXXXXXXXXXXXXXXXXXXXX.        ",
"  .XXXXXXXXXXXXXXXXXXXXX.       ",
"  .XXXXXXXXXXXXXXXXXXXXXX.      ",
"   .XXXXXXXXXXXXXXXXXXXXXX.     ",
"    .XXXXXXXXXXXXXXXXXXXXXX.    ",
"     .XXXXXXXXXXXXXXXXXXXX.     ",
"      .XXXXXXXXXXXXXXXXXX.      ",
"       ..XXXXXXXXXXXXXX..       ",
"         ...XXXXXXXX...         ",
"            ........            "
};
