/* XPM */
static char *_e73f2d696f344e5d718c25c2a2f457cUDX7Koa7ZZl1Xofn[] = {
/* columns rows colors chars-per-pixel */
"32 32 3 1 ",
"  c None",
". c black",
"X c #FFE100",
/* pixels */
"                                ",
"         ...        ...         ",
"       ..XX.        .XX..       ",
"      .XXXX.        .XXXX.      ",
"     .XXXXXX.      .XXXXXX.     ",
"    .XXXXXXX.      .XXXXXXX.    ",
"   .XXXXXXXX.     .XXXXXXXXX.   ",
"  .XXXXXXXXXX.    .XXXXXXXXXX.  ",
"  .XXXXXXXXXX.    .XXXXXXXXXX.  ",
" .XXXXXXXXXXX.   .XXXXXXXXXXXX. ",
" .XXXXXXXXXXX.   .XXXXXXXXXXXX. ",
" .XXXXXXXXXXXX.  .XXXXXXXXXXXX. ",
".XXXXXXXXXXXXX. .XXXXXXXXXXXXXX.",
".XXXXXXXXXXXXX. .XXXXXXXXXXXXXX.",
".XXXXXXXXXXXXXX.XXXXXXXXXXXXXXX.",
".XXXXXXXXXXXXXX.XXXXXXXXXXXXXXX.",
".XXXXXXXXXXXXXXXXXXXXXXXXXXXXXX.",
".XXXXXXXXXXXXXXXXXXXXXXXXXXXXXX.",
".XXXXXXXXXXXXXXXXXXXXXXXXXXXXXX.",
".XXXXXXXXXXXXXXXXXXXXXXXXXXXXXX.",
" .XXXXXXXXXXXXXXXXXXXXXXXXXXXX. ",
" .XXXXXXXXXXXXXXXXXXXXXXXXXXXX. ",
" .XXXXXXXXXXXXXXXXXXXXXXXXXXXX. ",
"  .XXXXXXXXXXXXXXXXXXXXXXXXXX.  ",
"  .XXXXXXXXXXXXXXXXXXXXXXXXXX.  ",
"   .XXXXXXXXXXXXXXXXXXXXXXXX.   ",
"    .XXXXXXXXXXXXXXXXXXXXXX.    ",
"     .XXXXXXXXXXXXXXXXXXXX.     ",
"      .XXXXXXXXXXXXXXXXXX.      ",
"       ..XXXXXXXXXXXXXX..       ",
"         ...XXXXXXXX...         ",
"            ........            "
};
