/* XPM */
static char * pacmanhalfclosed_left_xpm[] = {
"32 32 3 1",
" 	c None",
".	c #000000",
"+	c #FFE100",
"            ........            ",
"         ...++++++++...         ",
"       ..++++++++++++++..       ",
"      .++++++++++++++++++.      ",
"     .++++++++++++++++++++.     ",
"    .++++++++++++++++++++++.    ",
"   .++++++++++++++++++++++++.   ",
"  .++++++++++++++++++++++++++.  ",
"  .++++++++++++++++++++++++++.  ",
" .++++++++++++++++++++++++++++. ",
" .++++++++++++++++++++++++++++. ",
" ...++++++++++++++++++++++++++. ",
"    ..+++++++++++++++++++++++++.",
"      ...++++++++++++++++++++++.",
"         ...+++++++++++++++++++.",
"            ..+++++++++++++++++.",
"              ..+++++++++++++++.",
"           ...+++++++++++++++++.",
"       ....++++++++++++++++++++.",
"    ...++++++++++++++++++++++++.",
" ...++++++++++++++++++++++++++. ",
" .++++++++++++++++++++++++++++. ",
" .++++++++++++++++++++++++++++. ",
"  .++++++++++++++++++++++++++.  ",
"  .++++++++++++++++++++++++++.  ",
"   .++++++++++++++++++++++++.   ",
"    .++++++++++++++++++++++.    ",
"     .++++++++++++++++++++.     ",
"      .++++++++++++++++++.      ",
"       ..++++++++++++++..       ",
"         ...++++++++...         ",
"            ........            "};
