/* XPM */
static char * pink_ghost_left_xpm[] = {
"32 32 4 1",
" 	c None",
".	c #FFB8FF",
"+	c #FFFFFF",
"@	c #4C68B5",
"           ..........           ",
"           ..........           ",
"       ..................       ",
"       ..................       ",
"       ..................       ",
"     ......................     ",
"     ......................     ",
"  ...++++.........+++++.......  ",
"  ...++++.........+++++.......  ",
"  +++++++++.....+++++++++.....  ",
"  +++++++++.....+++++++++.....  ",
"  @@@@@++++.....@@@@@++++.....  ",
"  @@@@@++++.....@@@@@++++.....  ",
"  @@@@@++++.....@@@@@++++.....  ",
"..@@@@@++++.....@@@@@++++.......",
"..@@@@@++++.....@@@@@++++.......",
".....++++.........+++++.........",
".....++++.........+++++.........",
"................................",
"................................",
"................................",
"................................",
"................................",
"................................",
"................................",
"................................",
"................................",
".....  .......    .......  .....",
".....  .......    .......  .....",
".....  .......    .......  .....",
"..       .....    .....       ..",
"..       .....    .....       .."};
