/* XPM */
static char *result[] = {
/* columns rows colors chars-per-pixel */
"32 32 3 1 ",
"  c black",
". c white",
"X c None",
/* pixels */
"XXXXXXXXXXXX        XXXXXXXXXXXX",
"XXXXXXXXX   ........   XXXXXXXXX",
"XXXXXXX  ..............  XXXXXXX",
"XXXXXX .................. XXXXXX",
"XXXXX .................... XXXXX",
"XXXX ...................... XXXX",
"XXX ........................ XXX",
"XX .......................... XX",
"XX .......................... XX",
"X ............................ X",
"X ............................ X",
"X ............................ X",
" .............................. ",
" .............................. ",
" .............................. ",
" .............................. ",
" .............................. ",
" .............................. ",
" .............................. ",
" .............................. ",
"X ............................ X",
"X ............................ X",
"X ............................ X",
"XX .......................... XX",
"XX .......................... XX",
"XXX ........................ XXX",
"XXXX ...................... XXXX",
"XXXXX .................... XXXXX",
"XXXXXX .................. XXXXXX",
"XXXXXXX  ..............  XXXXXXX",
"XXXXXXXXX   ........   XXXXXXXXX",
"XXXXXXXXXXXX        XXXXXXXXXXXX"
};
