/* XPM */
static char * red_ghost_down_xpm[] = {
"32 32 4 1",
" 	c None",
".	c #E01D1D",
"+	c #FFFFFF",
"@	c #4C68B5",
"           ..........           ",
"           ..........           ",
"       ..................       ",
"       ..................       ",
"       ..................       ",
"     ......................     ",
"     ......................     ",
"  .......+++++.........++++...  ",
"  .......+++++.........++++...  ",
"  .....+++++++++.....+++++++++  ",
"  .....+++++++++.....+++++++++  ",
"  .....+++++++++.....+++++++++  ",
"  .....+++++++++.....+++++++++  ",
"  .....++@@@@@++.....++@@@@@++  ",
".......++@@@@@++.....++@@@@@++..",
".......++@@@@@++.....++@@@@@++..",
".........@@@@@.........@@@@@....",
".........@@@@@.........@@@@@....",
"................................",
"................................",
"................................",
"................................",
"................................",
"................................",
"................................",
"................................",
"................................",
".....  .......    .......  .....",
".....  .......    .......  .....",
".....  .......    .......  .....",
"..       .....    .....       ..",
"..       .....    .....       .."};
